P3
320 180
255
17 24 32
17 24 32
17 24 32
17 24 32
17 24 32
17 24 32
17 24 32
17 24 32
17 24 32
17 24 32
17 24 32
17 24 32
17 24 32
17 24 32
17 24 32
17 24 32
17 24 32
17 24 32
17 24 32
17 24 32
17 24 32
17 24 32
17 24 32
17 24 32
17 24 32
17 24 32
17 24 32
17 24 32
17 24 32
17 24 32
17 24 32
17 24 32
17 24 32
17 24 32
17 24 32
17 24 32
17 24 32
17 24 32
17 24 32
17 24 32
17 24 32
17 24 32
17 24 32
17 24 32
17 24 32
17 24 32
17 24 32
17 24 32
17 24 32
17 24 32
17 24 32
17 24 32
17 24 32
17 24 32
17 24 32
17 24 32
17 24 32
17 24 32
17 24 32
17 24 32
17 24 32
17 24 32
17 24 32
17 24 32
17 24 32
17 24 32
17 24 32
17 24 32
17 24 32
17 24 32
17 24 32
17 24 32
17 24 32
17 24 32
17 24 32
17 24 32
17 24 32
17 24 32
17 24 32
17 24 32
17 24 32
17 24 32
17 24 32
17 24 32
17 24 32
17 24 32
17 24 32
17 24 32
17 24 32
17 24 32
17 24 32
17 24 32
17 24 32
17 24 32
17 24 32
17 24 32
17 24 32
17 24 32
17 24 32
17 24 32
17 24 32
17 24 32
17 24 32
17 24 32
17 24 32
17 24 32
17 24 32
17 24 32
17 24 32
17 24 32
17 24 32
17 24 32
17 24 32
17 24 32
17 24 32
17 24 32
17 24 32
17 24 32
17 24 32
17 24 32
17 24 32
17 24 32
17 24 32
17 24 32
17 24 32
17 24 32
17 24 32
17 24 32
17 24 32
17 24 32
17 24 32
17 24 32
17 24 32
17 24 32
17 24 32
17 24 32
17 24 32
17 24 32
17 24 32
17 24 32
17 24 32
17 24 32
17 24 32
17 24 32
17 24 32
17 24 32
17 24 32
17 24 32
17 24 32
17 24 32
17 24 32
17 24 32
17 24 32
17 24 32
17 24 32
17 24 32
17 24 32
17 24 32
17 24 32
17 24 32
17 24 32
17 24 32
17 24 32
17 24 32
17 24 32
17 24 32
17 24 32
17 24 32
17 24 32
17 24 32
17 24 32
17 24 32
17 24 32
17 24 32
17 24 32
17 24 32
17 24 32
17 24 32
17 24 32
17 24 32
17 24 32
17 24 32
17 24 32
17 24 32
17 24 32
17 24 32
17 24 32
17 24 32
17 24 32
17 24 32
17 24 32
17 24 32
17 24 32
17 24 32
17 24 32
17 24 32
17 24 32
17 24 32
17 24 32
17 24 32
17 24 32
17 24 32
17 24 32
17 24 32
17 24 32
17 24 32
17 24 32
17 24 32
17 24 32
17 24 32
17 24 32
17 24 32
17 24 32
17 24 32
17 24 32
17 24 32
17 24 32
17 24 32
17 24 32
17 24 32
17 24 32
17 24 32
17 24 32
17 24 32
17 24 32
17 24 32
17 24 32
17 24 32
17 24 32
17 24 32
17 24 32
17 24 32
17 24 32
17 24 32
17 24 32
17 24 32
17 24 32
17 24 32
17 24 32
17 24 32
17 24 32
17 24 32
17 24 32
17 24 32
17 24 32
17 24 32
17 24 32
17 24 32
17 24 32
17 24 32
17 24 32
17 24 32
17 24 32
17 24 32
17 24 32
17 24 32
17 24 32
17 24 32
17 24 32
17 24 32
17 24 32
17 24 32
17 24 32
17 24 32
17 24 32
17 24 32
17 24 32
17 24 32
17 24 32
17 24 32
17 24 32
17 24 32
17 24 32
17 24 32
17 24 32
17 24 32
17 24 32
17 24 32
17 24 32
17 24 32
17 24 32
17 24 32
17 24 32
17 24 32
17 24 32
17 24 32
17 24 32
17 24 32
17 24 32
17 24 32
17 24 32
17 24 32
17 24 32
17 24 32
17 24 32
17 24 32
17 24 32
17 24 32
17 24 32
17 24 32
17 24 32
17 24 32
17 24 32
17 24 32
17 24 32
17 24 32
17 24 32
17 24 32
17 24 32
17 24 32
17 24 32
17 24 32
17 24 32
17 24 32
17 24 32
17 24 32
17 24 32
17 24 32
17 24 32
17 24 32
17 24 32
17 24 32
17 24 32
17 24 32
17 24 32
17 24 32
17 24 32
17 24 32
17 24 32
17 24 32
17 24 32
17 24 32
17 24 32
17 24 32
17 24 32
17 24 32
17 24 32
17 24 32
17 24 32
17 24 32
17 24 32
17 24 32
17 24 32
17 24 32
17 24 32
17 24 32
17 24 32
17 24 32
17 24 32
17 24 32
17 24 32
17 24 32
17 24 32
17 24 32
17 24 32
17 24 32
17 24 32
17 24 32
17 24 32
17 24 32
17 24 32
17 24 32
17 24 32
17 24 32
17 24 32
17 24 32
17 24 32
17 24 32
17 24 32
17 24 32
17 24 32
17 24 32
17 24 32
17 24 32
17 24 32
17 24 32
17 24 32
17 24 32
17 24 32
17 24 32
17 24 32
17 24 32
17 24 32
17 24 32
17 24 32
17 24 32
17 24 32
17 24 32
17 24 32
17 24 32
17 24 32
17 24 32
17 24 32
17 24 32
17 24 32
17 24 32
17 24 32
17 24 32
17 24 32
17 24 32
17 24 32
17 24 32
17 24 32
17 24 32
17 24 32
17 24 32
17 24 32
17 24 32
17 24 32
17 24 32
17 24 32
17 24 32
17 24 32
17 24 32
17 24 32
17 24 32
17 24 32
17 24 32
17 24 32
17 24 32
17 24 32
17 24 32
17 24 32
17 24 32
17 24 32
17 24 32
17 24 32
17 24 32
17 24 32
17 24 32
17 24 32
17 24 32
17 24 32
17 24 32
17 24 32
17 24 32
17 24 32
17 24 32
17 24 32
17 24 32
17 24 32
17 24 32
17 24 32
17 24 32
17 24 32
17 24 32
17 24 32
17 24 32
17 24 32
17 24 32
17 24 32
17 24 32
17 24 32
17 24 32
17 24 32
17 24 32
17 24 32
17 24 32
17 24 32
17 24 32
17 24 32
17 24 32
17 24 32
17 24 32
17 24 32
17 24 32
17 24 32
17 24 32
17 24 32
17 24 32
17 24 32
17 24 32
17 24 32
17 24 32
17 24 32
17 24 32
17 24 32
17 24 32
17 24 32
17 24 32
17 24 32
17 24 32
17 24 32
17 24 32
17 24 32
17 24 32
17 24 32
17 24 32
17 24 32
17 24 32
17 24 32
17 24 32
17 24 32
17 24 32
17 24 32
17 24 32
17 24 32
17 24 32
17 24 32
17 24 32
17 24 32
17 24 32
17 24 32
17 24 32
17 24 32
17 24 32
17 24 32
17 24 32
17 24 32
17 24 32
17 24 32
17 24 32
17 24 32
17 24 32
17 24 32
17 24 32
17 24 32
17 24 32
17 24 32
17 24 32
17 24 32
17 24 32
17 24 32
17 24 32
17 24 32
17 24 32
17 24 32
17 24 32
17 24 32
17 24 32
17 24 32
17 24 32
17 24 32
17 24 32
17 24 32
17 24 32
17 24 32
17 24 32
17 24 32
17 24 32
17 24 32
17 24 32
17 24 32
17 24 32
17 24 32
17 24 32
17 24 32
17 24 32
17 24 32
17 24 32
17 24 32
17 24 32
17 24 32
17 24 32
17 24 32
17 24 32
17 24 32
17 24 32
17 24 32
17 24 32
17 24 32
17 24 32
17 24 32
17 24 32
17 24 32
17 24 32
17 24 32
17 24 32
17 24 32
17 24 32
17 24 32
17 24 32
17 24 32
17 24 32
17 24 32
17 24 32
17 24 32
17 24 32
17 24 32
17 24 32
17 24 32
17 24 32
17 24 32
17 24 32
17 24 32
17 24 32
17 24 32
17 24 32
17 24 32
17 24 32
17 24 32
17 24 32
17 24 32
17 24 32
17 24 32
17 24 32
17 24 32
17 24 32
17 24 32
17 24 32
17 24 32
17 24 32
17 24 32
17 24 32
17 24 32
17 24 32
17 24 32
17 24 32
17 24 32
17 24 32
17 24 32
17 24 32
17 24 32
17 24 32
17 24 32
17 24 32
17 24 32
17 24 32
17 24 32
17 24 32
17 24 32
17 24 32
17 24 32
17 24 32
17 24 32
17 24 32
17 24 32
17 24 32
17 24 32
17 24 32
17 24 32
17 24 32
17 24 32
17 24 32
17 24 32
17 24 32
17 24 32
17 24 32
17 24 32
17 24 32
17 24 32
17 24 32
17 24 32
17 24 32
17 24 32
17 24 32
17 24 32
17 24 32
17 24 32
17 24 32
17 24 32
17 24 32
17 24 32
17 24 32
17 24 32
17 24 32
17 24 32
17 24 32
17 24 32
17 24 32
17 24 32
17 24 32
17 24 32
17 24 32
17 24 32
17 24 32
17 24 32
17 24 32
17 24 32
17 24 32
17 24 32
17 24 32
17 24 32
17 24 32
17 24 32
17 24 32
17 24 32
17 24 32
17 24 32
17 24 32
17 24 32
17 24 32
17 24 32
17 24 32
17 24 32
17 24 32
17 24 32
17 24 32
17 24 32
17 24 32
17 24 32
17 24 32
17 24 32
17 24 32
17 24 32
17 24 32
17 24 32
17 24 32
17 24 32
17 24 32
17 24 32
17 24 32
17 24 32
17 24 32
17 24 32
17 24 32
17 24 32
17 24 32
17 24 32
17 24 32
17 24 32
17 24 32
17 24 32
17 24 32
17 24 32
17 24 32
17 24 32
17 24 32
17 24 32
17 24 32
17 24 32
17 24 32
17 24 32
17 24 32
17 24 32
17 24 32
17 24 32
17 24 32
17 24 32
17 24 32
17 24 32
17 24 32
17 24 32
17 24 32
17 24 32
17 24 32
17 24 32
17 24 32
17 24 32
17 24 32
17 24 32
17 24 32
17 24 32
17 24 32
17 24 32
17 24 32
17 24 32
17 24 32
17 24 32
17 24 32
17 24 32
17 24 32
17 24 32
17 24 32
17 24 32
17 24 32
17 24 32
17 24 32
17 24 32
17 24 32
17 24 32
17 24 32
17 24 32
17 24 32
17 24 32
17 24 32
17 24 32
17 24 32
17 24 32
17 24 32
17 24 32
17 24 32
17 24 32
17 24 32
17 24 32
17 24 32
17 24 32
17 24 32
17 24 32
17 24 32
17 24 32
17 24 32
17 24 32
17 24 32
17 24 32
17 24 32
17 24 32
17 24 32
17 24 32
17 24 32
17 24 32
17 24 32
17 24 32
17 24 32
17 24 32
17 24 32
17 24 32
17 24 32
17 24 32
17 24 32
17 24 32
17 24 32
17 24 32
17 24 32
17 24 32
17 24 32
17 24 32
17 24 32
17 24 32
17 24 32
17 24 32
17 24 32
17 24 32
17 24 32
17 24 32
17 24 32
17 24 32
17 24 32
17 24 32
17 24 32
17 24 32
17 24 32
17 24 32
17 24 32
17 24 32
17 24 32
17 24 32
17 24 32
17 24 32
17 24 32
17 24 32
17 24 32
17 24 32
17 24 32
17 24 32
17 24 32
17 24 32
17 24 32
17 24 32
17 24 32
17 24 32
17 24 32
17 24 32
17 24 32
17 24 32
17 24 32
17 24 32
17 24 32
17 24 32
17 24 32
17 24 32
17 24 32
17 24 32
17 24 32
17 24 32
17 24 32
17 24 32
17 24 32
17 24 32
17 24 32
17 24 32
17 24 32
17 24 32
17 24 32
17 24 32
17 24 32
17 24 32
17 24 32
17 24 32
17 24 32
17 24 32
17 24 32
17 24 32
17 24 32
17 24 32
17 24 32
17 24 32
17 24 32
17 24 32
17 24 32
17 24 32
17 24 32
17 24 32
17 24 32
17 24 32
17 24 32
17 24 32
17 24 32
17 24 32
17 24 32
17 24 32
17 24 32
17 24 32
17 24 32
17 24 32
17 24 32
17 24 32
17 24 32
17 24 32
17 24 32
17 24 32
17 24 32
17 24 32
17 24 32
17 24 32
17 24 32
17 24 32
17 24 32
17 24 32
17 24 32
17 24 32
17 24 32
17 24 32
17 24 32
17 24 32
17 24 32
17 24 32
17 24 32
17 24 32
17 24 32
17 24 32
17 24 32
17 24 32
17 24 32
17 24 32
17 24 32
17 24 32
17 24 32
17 24 32
17 24 32
17 24 32
17 24 32
17 24 32
17 24 32
17 24 32
17 24 32
17 24 32
17 24 32
17 24 32
17 24 32
17 24 32
17 24 32
17 24 32
17 24 32
17 24 32
17 24 32
17 24 32
17 24 32
17 24 32
17 24 32
17 24 32
17 24 32
17 24 32
17 24 32
17 24 32
17 24 32
17 24 32
17 24 32
17 24 32
17 24 32
17 24 32
17 24 32
17 24 32
17 24 32
17 24 32
17 24 32
17 24 32
17 24 32
17 24 32
17 24 32
17 24 32
17 24 32
17 24 32
17 24 32
17 24 32
17 24 32
17 24 32
17 24 32
17 24 32
17 24 32
17 24 32
17 24 32
17 24 32
17 24 32
17 24 32
17 24 32
17 24 32
17 24 32
17 24 32
17 24 32
17 24 32
17 24 32
17 24 32
17 24 32
17 24 32
17 24 32
17 24 32
17 24 32
17 24 32
17 24 32
17 24 32
17 24 32
17 24 32
17 24 32
17 24 32
17 24 32
17 24 32
17 24 32
17 24 32
17 24 32
17 24 32
17 24 32
17 24 32
17 24 32
17 24 32
17 24 32
17 24 32
17 24 32
17 24 32
17 24 32
17 24 32
17 24 32
17 24 32
17 24 32
17 24 32
17 24 32
17 24 32
17 24 32
17 24 32
17 24 32
17 24 32
17 24 32
17 24 32
17 24 32
17 24 32
17 24 32
17 24 32
17 24 32
17 24 32
17 24 32
17 24 32
17 24 32
17 24 32
17 24 32
17 24 32
17 24 32
17 24 32
17 24 32
17 24 32
17 24 32
17 24 32
17 24 32
17 24 32
17 24 32
17 24 32
17 24 32
17 24 32
17 24 32
17 24 32
17 24 32
17 24 32
17 24 32
17 24 32
17 24 32
17 24 32
17 24 32
17 24 32
17 24 32
17 24 32
17 24 32
17 24 32
17 24 32
17 24 32
17 24 32
17 24 32
17 24 32
17 24 32
17 24 32
17 24 32
17 24 32
17 24 32
17 24 32
17 24 32
17 24 32
17 24 32
17 24 32
17 24 32
17 24 32
17 24 32
17 24 32
17 24 32
17 24 32
17 24 32
17 24 32
17 24 32
17 24 32
17 24 32
17 24 32
17 24 32
17 24 32
17 24 32
17 24 32
17 24 32
17 24 32
17 24 32
17 24 32
17 24 32
17 24 32
17 24 32
17 24 32
17 24 32
17 24 32
17 24 32
17 24 32
17 24 32
17 24 32
17 24 32
17 24 32
17 24 32
17 24 32
17 24 32
17 24 32
17 24 32
17 24 32
17 24 32
17 24 32
17 24 32
17 24 32
17 24 32
17 24 32
17 24 32
17 24 32
17 24 32
17 24 32
17 24 32
17 24 32
17 24 32
17 24 32
17 24 32
17 24 32
17 24 32
17 24 32
17 24 32
17 24 32
17 24 32
17 24 32
17 24 32
17 24 32
17 24 32
17 24 32
17 24 32
17 24 32
17 24 32
17 24 32
17 24 32
17 24 32
17 24 32
17 24 32
17 24 32
17 24 32
17 24 32
17 24 32
17 24 32
17 24 32
17 24 32
17 24 32
17 24 32
17 24 32
17 24 32
17 24 32
17 24 32
17 24 32
17 24 32
17 24 32
17 24 32
17 24 32
17 24 32
17 24 32
17 24 32
17 24 32
17 24 32
17 24 32
17 24 32
17 24 32
17 24 32
17 24 32
17 24 32
17 24 32
17 24 32
17 24 32
17 24 32
17 24 32
17 24 32
17 24 32
17 24 32
17 24 32
17 24 32
17 24 32
17 24 32
17 24 32
17 24 32
17 24 32
17 24 32
17 24 32
17 24 32
17 24 32
17 24 32
17 24 32
17 24 32
17 24 32
17 24 32
17 24 32
17 24 32
17 24 32
17 24 32
17 24 32
17 24 32
17 24 32
17 24 32
17 24 32
17 24 32
17 24 32
17 24 32
17 24 32
17 24 32
17 24 32
17 24 32
17 24 32
17 24 32
17 24 32
17 24 32
17 24 32
17 24 32
17 24 32
17 24 32
17 24 32
17 24 32
17 24 32
17 24 32
17 24 32
17 24 32
17 24 32
17 24 32
17 24 32
17 24 32
17 24 32
17 24 32
17 24 32
17 24 32
17 24 32
17 24 32
17 24 32
17 24 32
17 24 32
17 24 32
17 24 32
17 24 32
17 24 32
17 24 32
17 24 32
17 24 32
17 24 32
17 24 32
17 24 32
17 24 32
17 24 32
17 24 32
17 24 32
17 24 32
17 24 32
17 24 32
17 24 32
17 24 32
17 24 32
17 24 32
17 24 32
17 24 32
17 24 32
17 24 32
17 24 32
17 24 32
17 24 32
17 24 32
17 24 32
17 24 32
17 24 32
17 24 32
17 24 32
17 24 32
17 24 32
17 24 32
17 24 32
17 24 32
17 24 32
17 24 32
17 24 32
17 24 32
17 24 32
17 24 32
17 24 32
17 24 32
17 24 32
17 24 32
17 24 32
17 24 32
17 24 32
17 24 32
17 24 32
17 24 32
17 24 32
17 24 32
17 24 32
17 24 32
17 24 32
17 24 32
17 24 32
17 24 32
17 24 32
17 24 32
17 24 32
17 24 32
17 24 32
17 24 32
17 24 32
17 24 32
17 24 32
17 24 32
17 24 32
17 24 32
17 24 32
17 24 32
17 24 32
17 24 32
17 24 32
17 24 32
17 24 32
17 24 32
17 24 32
17 24 32
17 24 32
17 24 32
17 24 32
17 24 32
17 24 32
17 24 32
17 24 32
17 24 32
17 24 32
17 24 32
17 24 32
17 24 32
17 24 32
17 24 32
17 24 32
17 24 32
17 24 32
17 24 32
17 24 32
17 24 32
17 24 32
17 24 32
17 24 32
17 24 32
17 24 32
17 24 32
17 24 32
17 24 32
17 24 32
17 24 32
17 24 32
17 24 32
17 24 32
17 24 32
17 24 32
17 24 32
17 24 32
17 24 32
17 24 32
17 24 32
17 24 32
17 24 32
17 24 32
17 24 32
17 24 32
17 24 32
17 24 32
17 24 32
17 24 32
17 24 32
17 24 32
17 24 32
17 24 32
17 24 32
17 24 32
17 24 32
17 24 32
17 24 32
17 24 32
17 24 32
17 24 32
17 24 32
17 24 32
17 24 32
17 24 32
17 24 32
17 24 32
17 24 32
17 24 32
17 24 32
17 24 32
17 24 32
17 24 32
17 24 32
17 24 32
17 24 32
17 24 32
17 24 32
17 24 32
17 24 32
17 24 32
17 24 32
17 24 32
17 24 32
17 24 32
17 24 32
17 24 32
17 24 32
17 24 32
17 24 32
17 24 32
17 24 32
17 24 32
17 24 32
17 24 32
17 24 32
17 24 32
17 24 32
17 24 32
17 24 32
17 24 32
17 24 32
17 24 32
17 24 32
17 24 32
17 24 32
17 24 32
17 24 32
17 24 32
17 24 32
17 24 32
17 24 32
17 24 32
17 24 32
17 24 32
17 24 32
17 24 32
17 24 32
17 24 32
17 24 32
17 24 32
17 24 32
17 24 32
17 24 32
17 24 32
17 24 32
17 24 32
17 24 32
17 24 32
17 24 32
17 24 32
17 24 32
17 24 32
17 24 32
17 24 32
17 24 32
17 24 32
17 24 32
17 24 32
17 24 32
17 24 32
17 24 32
17 24 32
17 24 32
17 24 32
17 24 32
17 24 32
17 24 32
17 24 32
17 24 32
17 24 32
17 24 32
17 24 32
17 24 32
17 24 32
17 24 32
17 24 32
17 24 32
17 24 32
17 24 32
17 24 32
17 24 32
17 24 32
17 24 32
17 24 32
17 24 32
17 24 32
17 24 32
17 24 32
17 24 32
17 24 32
17 24 32
17 24 32
17 24 32
17 24 32
17 24 32
17 24 32
17 24 32
17 24 32
17 24 32
17 24 32
17 24 32
17 24 32
17 24 32
17 24 32
17 24 32
17 24 32
17 24 32
17 24 32
17 24 32
17 24 32
17 24 32
17 24 32
17 24 32
17 24 32
17 24 32
17 24 32
17 24 32
17 24 32
17 24 32
17 24 32
17 24 32
17 24 32
17 24 32
17 24 32
17 24 32
17 24 32
17 24 32
17 24 32
17 24 32
17 24 32
17 24 32
17 24 32
17 24 32
17 24 32
17 24 32
17 24 32
17 24 32
17 24 32
17 24 32
17 24 32
17 24 32
17 24 32
17 24 32
17 24 32
17 24 32
17 24 32
17 24 32
17 24 32
17 24 32
17 24 32
17 24 32
17 24 32
17 24 32
17 24 32
17 24 32
17 24 32
17 24 32
17 24 32
17 24 32
17 24 32
17 24 32
17 24 32
17 24 32
17 24 32
17 24 32
17 24 32
17 24 32
17 24 32
17 24 32
17 24 32
17 24 32
17 24 32
17 24 32
17 24 32
17 24 32
17 24 32
17 24 32
17 24 32
17 24 32
17 24 32
17 24 32
17 24 32
17 24 32
17 24 32
17 24 32
17 24 32
17 24 32
17 24 32
17 24 32
17 24 32
17 24 32
17 24 32
17 24 32
17 24 32
17 24 32
17 24 32
17 24 32
17 24 32
17 24 32
17 24 32
17 24 32
17 24 32
17 24 32
17 24 32
17 24 32
17 24 32
17 24 32
17 24 32
17 24 32
17 24 32
17 24 32
17 24 32
17 24 32
17 24 32
17 24 32
17 24 32
17 24 32
17 24 32
17 24 32
17 24 32
17 24 32
17 24 32
17 24 32
17 24 32
17 24 32
17 24 32
17 24 32
17 24 32
17 24 32
17 24 32
17 24 32
17 24 32
17 24 32
17 24 32
17 24 32
17 24 32
17 24 32
17 24 32
17 24 32
17 24 32
17 24 32
17 24 32
17 24 32
17 24 32
17 24 32
17 24 32
17 24 32
17 24 32
17 24 32
17 24 32
17 24 32
17 24 32
17 24 32
17 24 32
17 24 32
17 24 32
17 24 32
17 24 32
17 24 32
17 24 32
17 24 32
17 24 32
17 24 32
17 24 32
17 24 32
17 24 32
17 24 32
17 24 32
17 24 32
17 24 32
17 24 32
17 24 32
17 24 32
17 24 32
17 24 32
17 24 32
17 24 32
17 24 32
17 24 32
17 24 32
17 24 32
17 24 32
17 24 32
17 24 32
17 24 32
17 24 32
17 24 32
17 24 32
17 24 32
17 24 32
17 24 32
17 24 32
17 24 32
17 24 32
17 24 32
17 24 32
17 24 32
17 24 32
17 24 32
17 24 32
17 24 32
17 24 32
17 24 32
17 24 32
17 24 32
17 24 32
17 24 32
17 24 32
17 24 32
17 24 32
17 24 32
17 24 32
17 24 32
17 24 32
17 24 32
17 24 32
17 24 32
17 24 32
17 24 32
17 24 32
17 24 32
17 24 32
17 24 32
17 24 32
17 24 32
17 24 32
17 24 32
17 24 32
17 24 32
17 24 32
17 24 32
17 24 32
17 24 32
17 24 32
17 24 32
17 24 32
17 24 32
17 24 32
17 24 32
17 24 32
17 24 32
17 24 32
17 24 32
17 24 32
17 24 32
17 24 32
17 24 32
17 24 32
17 24 32
17 24 32
17 24 32
17 24 32
17 24 32
17 24 32
17 24 32
17 24 32
17 24 32
17 24 32
17 24 32
17 24 32
17 24 32
17 24 32
17 24 32
17 24 32
17 24 32
17 24 32
17 24 32
17 24 32
17 24 32
17 24 32
17 24 32
17 24 32
17 24 32
17 24 32
17 24 32
17 24 32
17 24 32
17 24 32
17 24 32
17 24 32
17 24 32
17 24 32
17 24 32
17 24 32
17 24 32
17 24 32
17 24 32
17 24 32
17 24 32
17 24 32
17 24 32
17 24 32
17 24 32
17 24 32
17 24 32
17 24 32
17 24 32
17 24 32
17 24 32
17 24 32
17 24 32
17 24 32
17 24 32
17 24 32
17 24 32
17 24 32
17 24 32
17 24 32
17 24 32
17 24 32
17 24 32
17 24 32
17 24 32
17 24 32
17 24 32
17 24 32
17 24 32
17 24 32
17 24 32
17 24 32
17 24 32
17 24 32
17 24 32
17 24 32
17 24 32
17 24 32
17 24 32
17 24 32
17 24 32
17 24 32
17 24 32
17 24 32
17 24 32
17 24 32
17 24 32
17 24 32
17 24 32
17 24 32
17 24 32
17 24 32
17 24 32
17 24 32
17 24 32
17 24 32
17 24 32
17 24 32
17 24 32
17 24 32
17 24 32
17 24 32
17 24 32
17 24 32
17 24 32
17 24 32
17 24 32
17 24 32
17 24 32
17 24 32
17 24 32
17 24 32
17 24 32
17 24 32
17 24 32
17 24 32
17 24 32
17 24 32
17 24 32
17 24 32
17 24 32
17 24 32
17 24 32
17 24 32
17 24 32
17 24 32
17 24 32
17 24 32
17 24 32
17 24 32
17 24 32
17 24 32
17 24 32
17 24 32
17 24 32
17 24 32
17 24 32
17 24 32
17 24 32
17 24 32
17 24 32
17 24 32
17 24 32
17 24 32
17 24 32
17 24 32
17 24 32
17 24 32
17 24 32
17 24 32
17 24 32
17 24 32
17 24 32
17 24 32
17 24 32
17 24 32
17 24 32
17 24 32
17 24 32
17 24 32
17 24 32
17 24 32
17 24 32
17 24 32
17 24 32
17 24 32
17 24 32
17 24 32
17 24 32
17 24 32
17 24 32
17 24 32
17 24 32
17 24 32
17 24 32
17 24 32
17 24 32
17 24 32
17 24 32
17 24 32
17 24 32
17 24 32
17 24 32
17 24 32
17 24 32
17 24 32
17 24 32
17 24 32
17 24 32
17 24 32
17 24 32
17 24 32
17 24 32
17 24 32
17 24 32
17 24 32
17 24 32
17 24 32
17 24 32
17 24 32
17 24 32
17 24 32
17 24 32
17 24 32
17 24 32
17 24 32
17 24 32
17 24 32
17 24 32
17 24 32
17 24 32
17 24 32
17 24 32
17 24 32
17 24 32
17 24 32
17 24 32
17 24 32
17 24 32
17 24 32
17 24 32
17 24 32
17 24 32
17 24 32
17 24 32
17 24 32
17 24 32
17 24 32
17 24 32
17 24 32
17 24 32
17 24 32
17 24 32
17 24 32
17 24 32
17 24 32
17 24 32
17 24 32
17 24 32
17 24 32
17 24 32
17 24 32
17 24 32
17 24 32
17 24 32
17 24 32
17 24 32
17 24 32
17 24 32
17 24 32
17 24 32
17 24 32
17 24 32
17 24 32
17 24 32
17 24 32
17 24 32
17 24 32
17 24 32
17 24 32
17 24 32
17 24 32
17 24 32
17 24 32
17 24 32
17 24 32
17 24 32
17 24 32
17 24 32
17 24 32
17 24 32
17 24 32
17 24 32
17 24 32
17 24 32
17 24 32
17 24 32
17 24 32
17 24 32
17 24 32
17 24 32
17 24 32
17 24 32
17 24 32
17 24 32
17 24 32
17 24 32
17 24 32
17 24 32
17 24 32
17 24 32
17 24 32
17 24 32
17 24 32
17 24 32
17 24 32
17 24 32
17 24 32
17 24 32
17 24 32
17 24 32
17 24 32
17 24 32
17 24 32
17 24 32
17 24 32
17 24 32
17 24 32
17 24 32
17 24 32
17 24 32
17 24 32
17 24 32
17 24 32
17 24 32
17 24 32
17 24 32
17 24 32
17 24 32
17 24 32
17 24 32
17 24 32
17 24 32
17 24 32
17 24 32
17 24 32
17 24 32
17 24 32
17 24 32
17 24 32
17 24 32
17 24 32
17 24 32
17 24 32
17 24 32
17 24 32
17 24 32
17 24 32
17 24 32
17 24 32
17 24 32
17 24 32
17 24 32
17 24 32
17 24 32
17 24 32
17 24 32
17 24 32
17 24 32
17 24 32
17 24 32
17 24 32
17 24 32
17 24 32
17 24 32
17 24 32
17 24 32
17 24 32
17 24 32
17 24 32
17 24 32
17 24 32
17 24 32
17 24 32
17 24 32
17 24 32
17 24 32
17 24 32
17 24 32
17 24 32
17 24 32
17 24 32
17 24 32
17 24 32
17 24 32
17 24 32
17 24 32
17 24 32
17 24 32
17 24 32
17 24 32
17 24 32
17 24 32
17 24 32
17 24 32
17 24 32
17 24 32
17 24 32
17 24 32
17 24 32
17 24 32
17 24 32
17 24 32
17 24 32
17 24 32
17 24 32
17 24 32
17 24 32
17 24 32
17 24 32
17 24 32
17 24 32
17 24 32
17 24 32
17 24 32
17 24 32
17 24 32
17 24 32
17 24 32
17 24 32
17 24 32
17 24 32
17 24 32
17 24 32
17 24 32
17 24 32
17 24 32
17 24 32
17 24 32
17 24 32
17 24 32
17 24 32
17 24 32
17 24 32
17 24 32
17 24 32
17 24 32
17 24 32
17 24 32
17 24 32
17 24 32
17 24 32
17 24 32
17 24 32
17 24 32
17 24 32
17 24 32
17 24 32
17 24 32
17 24 32
17 24 32
17 24 32
17 24 32
17 24 32
17 24 32
17 24 32
17 24 32
17 24 32
17 24 32
17 24 32
17 24 32
17 24 32
17 24 32
17 24 32
17 24 32
17 24 32
17 24 32
17 24 32
17 24 32
17 24 32
17 24 32
17 24 32
17 24 32
17 24 32
17 24 32
17 24 32
17 24 32
17 24 32
17 24 32
17 24 32
17 24 32
17 24 32
17 24 32
17 24 32
17 24 32
17 24 32
17 24 32
17 24 32
17 24 32
17 24 32
17 24 32
17 24 32
17 24 32
17 24 32
17 24 32
17 24 32
17 24 32
17 24 32
17 24 32
17 24 32
17 24 32
17 24 32
17 24 32
17 24 32
17 24 32
17 24 32
17 24 32
17 24 32
17 24 32
17 24 32
17 24 32
17 24 32
17 24 32
17 24 32
17 24 32
17 24 32
17 24 32
17 24 32
17 24 32
17 24 32
17 24 32
17 24 32
17 24 32
17 24 32
17 24 32
17 24 32
17 24 32
17 24 32
17 24 32
17 24 32
17 24 32
17 24 32
17 24 32
17 24 32
17 24 32
17 24 32
17 24 32
17 24 32
17 24 32
17 24 32
17 24 32
17 24 32
17 24 32
17 24 32
17 24 32
17 24 32
17 24 32
17 24 32
17 24 32
17 24 32
17 24 32
17 24 32
17 24 32
17 24 32
17 24 32
17 24 32
17 24 32
17 24 32
17 24 32
17 24 32
17 24 32
17 24 32
17 24 32
17 24 32
17 24 32
17 24 32
17 24 32
17 24 32
17 24 32
17 24 32
17 24 32
17 24 32
17 24 32
17 24 32
17 24 32
17 24 32
17 24 32
17 24 32
17 24 32
17 24 32
17 24 32
17 24 32
17 24 32
17 24 32
17 24 32
17 24 32
17 24 32
17 24 32
17 24 32
17 24 32
17 24 32
17 24 32
17 24 32
17 24 32
17 24 32
17 24 32
17 24 32
17 24 32
17 24 32
17 24 32
17 24 32
17 24 32
17 24 32
17 24 32
17 24 32
17 24 32
17 24 32
17 24 32
17 24 32
17 24 32
17 24 32
17 24 32
17 24 32
17 24 32
17 24 32
17 24 32
17 24 32
17 24 32
17 24 32
17 24 32
17 24 32
17 24 32
17 24 32
17 24 32
17 24 32
17 24 32
17 24 32
17 24 32
17 24 32
17 24 32
17 24 32
17 24 32
17 24 32
17 24 32
17 24 32
17 24 32
17 24 32
17 24 32
17 24 32
17 24 32
17 24 32
17 24 32
17 24 32
17 24 32
17 24 32
17 24 32
17 24 32
17 24 32
17 24 32
17 24 32
17 24 32
17 24 32
17 24 32
17 24 32
17 24 32
17 24 32
17 24 32
17 24 32
17 24 32
17 24 32
17 24 32
17 24 32
17 24 32
17 24 32
17 24 32
17 24 32
17 24 32
17 24 32
17 24 32
17 24 32
17 24 32
17 24 32
17 24 32
17 24 32
17 24 32
17 24 32
17 24 32
17 24 32
17 24 32
17 24 32
17 24 32
17 24 32
17 24 32
17 24 32
17 24 32
17 24 32
17 24 32
17 24 32
17 24 32
17 24 32
17 24 32
17 24 32
17 24 32
17 24 32
17 24 32
17 24 32
17 24 32
17 24 32
17 24 32
17 24 32
17 24 32
17 24 32
17 24 32
17 24 32
17 24 32
17 24 32
17 24 32
17 24 32
17 24 32
17 24 32
17 24 32
17 24 32
17 24 32
17 24 32
17 24 32
17 24 32
17 24 32
17 24 32
17 24 32
17 24 32
17 24 32
17 24 32
17 24 32
17 24 32
17 24 32
17 24 32
17 24 32
17 24 32
17 24 32
17 24 32
17 24 32
17 24 32
17 24 32
17 24 32
17 24 32
17 24 32
17 24 32
17 24 32
17 24 32
17 24 32
17 24 32
17 24 32
17 24 32
17 24 32
17 24 32
17 24 32
17 24 32
17 24 32
17 24 32
17 24 32
17 24 32
17 24 32
17 24 32
17 24 32
17 24 32
17 24 32
17 24 32
17 24 32
17 24 32
17 24 32
17 24 32
17 24 32
17 24 32
17 24 32
17 24 32
17 24 32
17 24 32
17 24 32
17 24 32
17 24 32
17 24 32
17 24 32
17 24 32
17 24 32
17 24 32
17 24 32
17 24 32
17 24 32
17 24 32
17 24 32
17 24 32
17 24 32
17 24 32
17 24 32
17 24 32
17 24 32
17 24 32
17 24 32
17 24 32
17 24 32
17 24 32
17 24 32
17 24 32
17 24 32
17 24 32
17 24 32
17 24 32
17 24 32
17 24 32
17 24 32
17 24 32
17 24 32
17 24 32
17 24 32
17 24 32
17 24 32
17 24 32
17 24 32
17 24 32
17 24 32
17 24 32
17 24 32
17 24 32
17 24 32
17 24 32
17 24 32
17 24 32
17 24 32
17 24 32
17 24 32
17 24 32
17 24 32
17 24 32
17 24 32
17 24 32
17 24 32
17 24 32
17 24 32
17 24 32
17 24 32
17 24 32
17 24 32
17 24 32
17 24 32
17 24 32
17 24 32
17 24 32
17 24 32
17 24 32
17 24 32
17 24 32
17 24 32
17 24 32
17 24 32
17 24 32
17 24 32
17 24 32
17 24 32
17 24 32
17 24 32
17 24 32
17 24 32
17 24 32
17 24 32
17 24 32
17 24 32
17 24 32
17 24 32
17 24 32
17 24 32
17 24 32
17 24 32
17 24 32
17 24 32
17 24 32
17 24 32
17 24 32
17 24 32
17 24 32
17 24 32
17 24 32
17 24 32
17 24 32
17 24 32
17 24 32
17 24 32
17 24 32
17 24 32
17 24 32
17 24 32
17 24 32
17 24 32
17 24 32
17 24 32
17 24 32
17 24 32
17 24 32
17 24 32
17 24 32
17 24 32
17 24 32
17 24 32
17 24 32
17 24 32
17 24 32
17 24 32
17 24 32
17 24 32
17 24 32
17 24 32
17 24 32
17 24 32
17 24 32
17 24 32
17 24 32
17 24 32
17 24 32
17 24 32
17 24 32
17 24 32
17 24 32
17 24 32
17 24 32
17 24 32
17 24 32
17 24 32
17 24 32
17 24 32
17 24 32
17 24 32
17 24 32
17 24 32
17 24 32
17 24 32
17 24 32
17 24 32
17 24 32
17 24 32
17 24 32
17 24 32
17 24 32
17 24 32
17 24 32
17 24 32
17 24 32
17 24 32
17 24 32
17 24 32
17 24 32
17 24 32
17 24 32
17 24 32
17 24 32
17 24 32
17 24 32
17 24 32
17 24 32
17 24 32
17 24 32
17 24 32
17 24 32
17 24 32
17 24 32
17 24 32
17 24 32
17 24 32
17 24 32
17 24 32
17 24 32
17 24 32
17 24 32
17 24 32
17 24 32
17 24 32
17 24 32
17 24 32
17 24 32
17 24 32
17 24 32
17 24 32
17 24 32
17 24 32
17 24 32
17 24 32
17 24 32
17 24 32
17 24 32
17 24 32
17 24 32
17 24 32
17 24 32
17 24 32
17 24 32
17 24 32
17 24 32
17 24 32
17 24 32
17 24 32
17 24 32
17 24 32
17 24 32
17 24 32
17 24 32
17 24 32
17 24 32
17 24 32
17 24 32
17 24 32
17 24 32
17 24 32
17 24 32
17 24 32
17 24 32
17 24 32
17 24 32
17 24 32
17 24 32
17 24 32
17 24 32
17 24 32
17 24 32
17 24 32
17 24 32
17 24 32
17 24 32
17 24 32
17 24 32
17 24 32
17 24 32
17 24 32
17 24 32
17 24 32
17 24 32
17 24 32
17 24 32
17 24 32
17 24 32
17 24 32
17 24 32
17 24 32
17 24 32
17 24 32
17 24 32
17 24 32
17 24 32
17 24 32
17 24 32
17 24 32
17 24 32
17 24 32
17 24 32
17 24 32
17 24 32
17 24 32
17 24 32
17 24 32
17 24 32
17 24 32
17 24 32
17 24 32
17 24 32
17 24 32
17 24 32
17 24 32
17 24 32
17 24 32
17 24 32
17 24 32
17 24 32
17 24 32
17 24 32
17 24 32
17 24 32
17 24 32
17 24 32
17 24 32
17 24 32
17 24 32
17 24 32
17 24 32
17 24 32
17 24 32
17 24 32
17 24 32
17 24 32
17 24 32
17 24 32
17 24 32
17 24 32
17 24 32
17 24 32
17 24 32
17 24 32
17 24 32
17 24 32
17 24 32
17 24 32
17 24 32
17 24 32
17 24 32
17 24 32
17 24 32
17 24 32
17 24 32
17 24 32
17 24 32
17 24 32
17 24 32
17 24 32
17 24 32
17 24 32
17 24 32
17 24 32
17 24 32
17 24 32
17 24 32
17 24 32
17 24 32
17 24 32
17 24 32
17 24 32
17 24 32
17 24 32
17 24 32
17 24 32
17 24 32
17 24 32
17 24 32
17 24 32
17 24 32
17 24 32
17 24 32
17 24 32
17 24 32
17 24 32
17 24 32
17 24 32
17 24 32
17 24 32
17 24 32
17 24 32
17 24 32
17 24 32
17 24 32
17 24 32
17 24 32
17 24 32
17 24 32
17 24 32
17 24 32
17 24 32
17 24 32
17 24 32
17 24 32
17 24 32
17 24 32
17 24 32
17 24 32
17 24 32
17 24 32
17 24 32
17 24 32
17 24 32
17 24 32
17 24 32
17 24 32
17 24 32
17 24 32
17 24 32
17 24 32
17 24 32
17 24 32
17 24 32
17 24 32
17 24 32
17 24 32
17 24 32
17 24 32
17 24 32
17 24 32
17 24 32
17 24 32
17 24 32
17 24 32
17 24 32
17 24 32
17 24 32
17 24 32
17 24 32
17 24 32
17 24 32
17 24 32
17 24 32
17 24 32
17 24 32
17 24 32
17 24 32
17 24 32
17 24 32
17 24 32
17 24 32
17 24 32
17 24 32
17 24 32
17 24 32
17 24 32
17 24 32
17 24 32
17 24 32
17 24 32
17 24 32
17 24 32
17 24 32
17 24 32
17 24 32
17 24 32
17 24 32
17 24 32
17 24 32
17 24 32
17 24 32
17 24 32
17 24 32
17 24 32
17 24 32
17 24 32
17 24 32
17 24 32
17 24 32
17 24 32
17 24 32
17 24 32
17 24 32
17 24 32
17 24 32
17 24 32
17 24 32
17 24 32
17 24 32
17 24 32
17 24 32
17 24 32
17 24 32
17 24 32
17 24 32
17 24 32
17 24 32
17 24 32
17 24 32
17 24 32
17 24 32
17 24 32
17 24 32
17 24 32
17 24 32
17 24 32
17 24 32
17 24 32
17 24 32
17 24 32
17 24 32
17 24 32
17 24 32
17 24 32
17 24 32
17 24 32
17 24 32
17 24 32
17 24 32
17 24 32
17 24 32
17 24 32
17 24 32
17 24 32
17 24 32
17 24 32
17 24 32
17 24 32
17 24 32
17 24 32
17 24 32
17 24 32
17 24 32
17 24 32
17 24 32
17 24 32
17 24 32
17 24 32
17 24 32
17 24 32
17 24 32
17 24 32
17 24 32
17 24 32
17 24 32
17 24 32
17 24 32
17 24 32
17 24 32
17 24 32
17 24 32
17 24 32
17 24 32
17 24 32
17 24 32
17 24 32
17 24 32
17 24 32
17 24 32
17 24 32
17 24 32
17 24 32
17 24 32
17 24 32
17 24 32
17 24 32
17 24 32
17 24 32
17 24 32
17 24 32
17 24 32
17 24 32
17 24 32
17 24 32
17 24 32
17 24 32
17 24 32
17 24 32
17 24 32
17 24 32
17 24 32
17 24 32
17 24 32
17 24 32
17 24 32
17 24 32
17 24 32
17 24 32
17 24 32
17 24 32
17 24 32
17 24 32
17 24 32
17 24 32
17 24 32
17 24 32
17 24 32
17 24 32
17 24 32
17 24 32
17 24 32
17 24 32
17 24 32
17 24 32
17 24 32
17 24 32
17 24 32
17 24 32
17 24 32
17 24 32
17 24 32
17 24 32
17 24 32
17 24 32
17 24 32
17 24 32
17 24 32
17 24 32
17 24 32
17 24 32
17 24 32
17 24 32
17 24 32
17 24 32
17 24 32
17 24 32
17 24 32
17 24 32
17 24 32
17 24 32
17 24 32
17 24 32
17 24 32
17 24 32
17 24 32
17 24 32
17 24 32
17 24 32
17 24 32
17 24 32
17 24 32
17 24 32
17 24 32
17 24 32
17 24 32
17 24 32
17 24 32
17 24 32
17 24 32
17 24 32
17 24 32
17 24 32
17 24 32
17 24 32
17 24 32
17 24 32
17 24 32
17 24 32
17 24 32
17 24 32
17 24 32
17 24 32
17 24 32
17 24 32
17 24 32
17 24 32
17 24 32
17 24 32
17 24 32
17 24 32
17 24 32
17 24 32
17 24 32
17 24 32
17 24 32
17 24 32
17 24 32
17 24 32
17 24 32
17 24 32
17 24 32
17 24 32
17 24 32
17 24 32
17 24 32
17 24 32
17 24 32
17 24 32
17 24 32
17 24 32
17 24 32
17 24 32
17 24 32
17 24 32
17 24 32
17 24 32
17 24 32
17 24 32
17 24 32
17 24 32
17 24 32
17 24 32
17 24 32
17 24 32
17 24 32
17 24 32
17 24 32
17 24 32
17 24 32
17 24 32
17 24 32
17 24 32
17 24 32
17 24 32
17 24 32
17 24 32
17 24 32
17 24 32
17 24 32
17 24 32
17 24 32
17 24 32
17 24 32
17 24 32
17 24 32
17 24 32
17 24 32
17 24 32
17 24 32
17 24 32
17 24 32
17 24 32
17 24 32
17 24 32
17 24 32
17 24 32
17 24 32
17 24 32
17 24 32
17 24 32
17 24 32
17 24 32
17 24 32
17 24 32
17 24 32
17 24 32
17 24 32
17 24 32
17 24 32
17 24 32
17 24 32
17 24 32
17 24 32
17 24 32
17 24 32
17 24 32
17 24 32
17 24 32
17 24 32
17 24 32
17 24 32
17 24 32
17 24 32
17 24 32
17 24 32
17 24 32
17 24 32
17 24 32
17 24 32
17 24 32
17 24 32
17 24 32
17 24 32
17 24 32
17 24 32
17 24 32
17 24 32
17 24 32
17 24 32
17 24 32
17 24 32
17 24 32
17 24 32
17 24 32
17 24 32
17 24 32
17 24 32
17 24 32
17 24 32
17 24 32
17 24 32
17 24 32
17 24 32
17 24 32
17 24 32
17 24 32
17 24 32
17 24 32
17 24 32
17 24 32
17 24 32
17 24 32
17 24 32
17 24 32
17 24 32
17 24 32
17 24 32
17 24 32
17 24 32
17 24 32
17 24 32
17 24 32
17 24 32
17 24 32
17 24 32
17 24 32
17 24 32
17 24 32
17 24 32
17 24 32
17 24 32
17 24 32
17 24 32
17 24 32
17 24 32
17 24 32
17 24 32
17 24 32
17 24 32
17 24 32
17 24 32
17 24 32
17 24 32
17 24 32
17 24 32
17 24 32
17 24 32
17 24 32
17 24 32
17 24 32
17 24 32
17 24 32
17 24 32
17 24 32
17 24 32
17 24 32
17 24 32
17 24 32
17 24 32
17 24 32
17 24 32
17 24 32
17 24 32
17 24 32
17 24 32
17 24 32
17 24 32
17 24 32
17 24 32
17 24 32
17 24 32
17 24 32
17 24 32
17 24 32
17 24 32
17 24 32
17 24 32
17 24 32
17 24 32
17 24 32
17 24 32
17 24 32
17 24 32
17 24 32
17 24 32
17 24 32
17 24 32
17 24 32
17 24 32
17 24 32
17 24 32
17 24 32
17 24 32
17 24 32
17 24 32
17 24 32
17 24 32
17 24 32
17 24 32
17 24 32
17 24 32
17 24 32
17 24 32
17 24 32
17 24 32
17 24 32
17 24 32
17 24 32
17 24 32
17 24 32
17 24 32
17 24 32
17 24 32
17 24 32
17 24 32
17 24 32
17 24 32
17 24 32
17 24 32
17 24 32
17 24 32
17 24 32
17 24 32
17 24 32
17 24 32
17 24 32
17 24 32
17 24 32
17 24 32
17 24 32
17 24 32
17 24 32
17 24 32
17 24 32
17 24 32
17 24 32
17 24 32
17 24 32
17 24 32
17 24 32
17 24 32
17 24 32
17 24 32
17 24 32
17 24 32
17 24 32
17 24 32
17 24 32
17 24 32
17 24 32
17 24 32
17 24 32
17 24 32
17 24 32
17 24 32
17 24 32
17 24 32
17 24 32
17 24 32
17 24 32
17 24 32
17 24 32
17 24 32
17 24 32
17 24 32
17 24 32
17 24 32
17 24 32
17 24 32
17 24 32
17 24 32
17 24 32
17 24 32
17 24 32
17 24 32
17 24 32
17 24 32
17 24 32
17 24 32
17 24 32
17 24 32
17 24 32
17 24 32
17 24 32
17 24 32
17 24 32
17 24 32
17 24 32
17 24 32
17 24 32
17 24 32
17 24 32
17 24 32
17 24 32
17 24 32
17 24 32
17 24 32
17 24 32
17 24 32
17 24 32
17 24 32
17 24 32
17 24 32
17 24 32
17 24 32
17 24 32
17 24 32
17 24 32
17 24 32
17 24 32
17 24 32
17 24 32
17 24 32
17 24 32
17 24 32
17 24 32
17 24 32
17 24 32
17 24 32
17 24 32
17 24 32
17 24 32
17 24 32
17 24 32
17 24 32
17 24 32
17 24 32
17 24 32
17 24 32
17 24 32
17 24 32
17 24 32
17 24 32
17 24 32
17 24 32
17 24 32
17 24 32
17 24 32
17 24 32
17 24 32
17 24 32
17 24 32
17 24 32
17 24 32
17 24 32
17 24 32
17 24 32
17 24 32
17 24 32
17 24 32
17 24 32
17 24 32
17 24 32
17 24 32
17 24 32
17 24 32
17 24 32
17 24 32
17 24 32
17 24 32
17 24 32
17 24 32
17 24 32
17 24 32
17 24 32
17 24 32
17 24 32
17 24 32
17 24 32
17 24 32
17 24 32
17 24 32
17 24 32
17 24 32
17 24 32
17 24 32
17 24 32
17 24 32
17 24 32
17 24 32
17 24 32
17 24 32
17 24 32
17 24 32
17 24 32
17 24 32
17 24 32
17 24 32
17 24 32
17 24 32
17 24 32
17 24 32
17 24 32
17 24 32
17 24 32
17 24 32
17 24 32
17 24 32
17 24 32
17 24 32
17 24 32
17 24 32
17 24 32
17 24 32
17 24 32
17 24 32
17 24 32
17 24 32
17 24 32
17 24 32
17 24 32
17 24 32
17 24 32
17 24 32
17 24 32
17 24 32
17 24 32
17 24 32
17 24 32
17 24 32
17 24 32
17 24 32
17 24 32
17 24 32
17 24 32
17 24 32
17 24 32
17 24 32
17 24 32
17 24 32
17 24 32
17 24 32
17 24 32
17 24 32
17 24 32
17 24 32
17 24 32
17 24 32
17 24 32
17 24 32
17 24 32
17 24 32
17 24 32
17 24 32
17 24 32
17 24 32
17 24 32
17 24 32
17 24 32
17 24 32
17 24 32
17 24 32
17 24 32
17 24 32
17 24 32
17 24 32
17 24 32
17 24 32
17 24 32
17 24 32
17 24 32
17 24 32
17 24 32
17 24 32
17 24 32
17 24 32
17 24 32
17 24 32
17 24 32
17 24 32
17 24 32
17 24 32
17 24 32
17 24 32
17 24 32
17 24 32
17 24 32
17 24 32
17 24 32
17 24 32
17 24 32
17 24 32
17 24 32
17 24 32
17 24 32
17 24 32
17 24 32
17 24 32
17 24 32
17 24 32
17 24 32
17 24 32
17 24 32
17 24 32
17 24 32
17 24 32
17 24 32
17 24 32
17 24 32
17 24 32
17 24 32
17 24 32
17 24 32
17 24 32
17 24 32
17 24 32
17 24 32
17 24 32
17 24 32
17 24 32
17 24 32
17 24 32
17 24 32
17 24 32
17 24 32
17 24 32
17 24 32
17 24 32
17 24 32
17 24 32
17 24 32
17 24 32
17 24 32
17 24 32
17 24 32
17 24 32
17 24 32
17 24 32
17 24 32
17 24 32
17 24 32
17 24 32
17 24 32
17 24 32
17 24 32
17 24 32
17 24 32
17 24 32
17 24 32
17 24 32
17 24 32
17 24 32
17 24 32
17 24 32
17 24 32
17 24 32
17 24 32
17 24 32
17 24 32
17 24 32
17 24 32
17 24 32
17 24 32
17 24 32
17 24 32
17 24 32
17 24 32
17 24 32
17 24 32
17 24 32
17 24 32
17 24 32
17 24 32
17 24 32
17 24 32
17 24 32
17 24 32
17 24 32
17 24 32
17 24 32
17 24 32
17 24 32
17 24 32
17 24 32
17 24 32
17 24 32
17 24 32
17 24 32
17 24 32
17 24 32
17 24 32
17 24 32
17 24 32
17 24 32
17 24 32
17 24 32
17 24 32
17 24 32
17 24 32
17 24 32
17 24 32
17 24 32
17 24 32
17 24 32
17 24 32
17 24 32
17 24 32
17 24 32
17 24 32
17 24 32
17 24 32
17 24 32
17 24 32
17 24 32
17 24 32
17 24 32
17 24 32
17 24 32
17 24 32
17 24 32
17 24 32
17 24 32
17 24 32
17 24 32
17 24 32
17 24 32
17 24 32
17 24 32
17 24 32
17 24 32
17 24 32
17 24 32
17 24 32
17 24 32
17 24 32
17 24 32
17 24 32
17 24 32
17 24 32
17 24 32
17 24 32
17 24 32
17 24 32
17 24 32
17 24 32
17 24 32
17 24 32
17 24 32
17 24 32
17 24 32
17 24 32
17 24 32
17 24 32
17 24 32
17 24 32
17 24 32
17 24 32
17 24 32
17 24 32
17 24 32
17 24 32
17 24 32
17 24 32
17 24 32
17 24 32
17 24 32
17 24 32
17 24 32
17 24 32
17 24 32
17 24 32
17 24 32
17 24 32
17 24 32
106 124 145
106 124 145
106 124 145
106 124 145
106 124 145
106 124 145
106 124 145
106 124 145
106 124 145
106 124 145
106 124 145
106 124 145
106 124 145
106 124 145
106 124 145
106 124 145
106 124 145
106 124 145
106 124 145
106 124 145
106 124 145
106 124 145
106 124 145
106 124 145
106 124 145
106 124 145
106 124 145
106 124 145
106 124 145
106 124 145
106 124 145
106 124 145
106 124 145
106 124 145
106 124 145
106 124 145
106 124 145
106 124 145
106 124 145
106 124 145
106 124 145
106 124 145
106 124 145
106 124 145
106 124 145
106 124 145
106 124 145
106 124 145
106 124 145
106 124 145
106 124 145
106 124 145
106 124 145
106 124 145
106 124 145
106 124 145
106 124 145
106 124 145
106 124 145
106 124 145
106 124 145
106 124 145
106 124 145
106 124 145
106 124 145
106 124 145
106 124 145
106 124 145
106 124 145
106 124 145
106 124 145
106 124 145
106 124 145
106 124 145
106 124 145
106 124 145
106 124 145
106 124 145
106 124 145
106 124 145
106 124 145
106 124 145
106 124 145
106 124 145
106 124 145
106 124 145
106 124 145
106 124 145
106 124 145
106 124 145
106 124 145
106 124 145
106 124 145
106 124 145
106 124 145
106 124 145
106 124 145
106 124 145
106 124 145
106 124 145
106 124 145
106 124 145
106 124 145
106 124 145
106 124 145
106 124 145
106 124 145
106 124 145
106 124 145
106 124 145
106 124 145
106 124 145
106 124 145
106 124 145
106 124 145
106 124 145
106 124 145
106 124 145
106 124 145
106 124 145
106 124 145
106 124 145
106 124 145
106 124 145
106 124 145
106 124 145
106 124 145
106 124 145
106 124 145
106 124 145
106 124 145
106 124 145
106 124 145
106 124 145
106 124 145
106 124 145
106 124 145
106 124 145
106 124 145
106 124 145
106 124 145
106 124 145
106 124 145
106 124 145
106 124 145
106 124 145
106 124 145
106 124 145
106 124 145
106 124 145
106 124 145
106 124 145
106 124 145
106 124 145
106 124 145
106 124 145
106 124 145
106 124 145
106 124 145
106 124 145
106 124 145
106 124 145
106 124 145
106 124 145
106 124 145
106 124 145
106 124 145
106 124 145
106 124 145
106 124 145
106 124 145
106 124 145
106 124 145
106 124 145
106 124 145
106 124 145
106 124 145
106 124 145
106 124 145
106 124 145
106 124 145
106 124 145
106 124 145
106 124 145
106 124 145
106 124 145
106 124 145
106 124 145
106 124 145
106 124 145
106 124 145
106 124 145
106 124 145
106 124 145
106 124 145
106 124 145
106 124 145
106 124 145
106 124 145
106 124 145
106 124 145
106 124 145
106 124 145
106 124 145
106 124 145
106 124 145
106 124 145
106 124 145
106 124 145
106 124 145
106 124 145
106 124 145
106 124 145
106 124 145
106 124 145
106 124 145
106 124 145
106 124 145
106 124 145
106 124 145
106 124 145
106 124 145
106 124 145
106 124 145
106 124 145
106 124 145
106 124 145
106 124 145
106 124 145
106 124 145
106 124 145
106 124 145
106 124 145
106 124 145
106 124 145
106 124 145
106 124 145
106 124 145
106 124 145
106 124 145
106 124 145
106 124 145
106 124 145
106 124 145
106 124 145
106 124 145
106 124 145
106 124 145
106 124 145
106 124 145
106 124 145
106 124 145
106 124 145
106 124 145
106 124 145
106 124 145
106 124 145
106 124 145
106 124 145
106 124 145
106 124 145
106 124 145
106 124 145
106 124 145
106 124 145
106 124 145
106 124 145
106 124 145
106 124 145
106 124 145
106 124 145
106 124 145
106 124 145
106 124 145
106 124 145
106 124 145
106 124 145
106 124 145
106 124 145
106 124 145
106 124 145
106 124 145
106 124 145
106 124 145
106 124 145
106 124 145
106 124 145
106 124 145
106 124 145
106 124 145
106 124 145
106 124 145
106 124 145
106 124 145
106 124 145
106 124 145
17 24 32
17 24 32
17 24 32
17 24 32
17 24 32
17 24 32
17 24 32
17 24 32
17 24 32
17 24 32
17 24 32
17 24 32
17 24 32
17 24 32
17 24 32
17 24 32
17 24 32
17 24 32
17 24 32
17 24 32
17 24 32
17 24 32
17 24 32
17 24 32
106 124 145
106 124 145
106 124 145
106 124 145
106 124 145
106 124 145
106 124 145
106 124 145
106 124 145
106 124 145
106 124 145
106 124 145
106 124 145
106 124 145
106 124 145
106 124 145
106 124 145
106 124 145
106 124 145
106 124 145
106 124 145
106 124 145
106 124 145
106 124 145
106 124 145
106 124 145
106 124 145
106 124 145
106 124 145
106 124 145
106 124 145
106 124 145
106 124 145
106 124 145
106 124 145
106 124 145
106 124 145
106 124 145
106 124 145
106 124 145
106 124 145
106 124 145
106 124 145
106 124 145
106 124 145
106 124 145
106 124 145
106 124 145
106 124 145
106 124 145
106 124 145
106 124 145
106 124 145
106 124 145
106 124 145
106 124 145
106 124 145
106 124 145
106 124 145
106 124 145
106 124 145
106 124 145
106 124 145
106 124 145
106 124 145
106 124 145
106 124 145
106 124 145
106 124 145
106 124 145
106 124 145
106 124 145
106 124 145
106 124 145
106 124 145
106 124 145
106 124 145
106 124 145
106 124 145
106 124 145
106 124 145
106 124 145
106 124 145
106 124 145
106 124 145
106 124 145
106 124 145
106 124 145
106 124 145
106 124 145
106 124 145
106 124 145
106 124 145
106 124 145
106 124 145
106 124 145
106 124 145
106 124 145
106 124 145
106 124 145
106 124 145
106 124 145
106 124 145
106 124 145
106 124 145
106 124 145
106 124 145
106 124 145
106 124 145
106 124 145
106 124 145
106 124 145
106 124 145
106 124 145
106 124 145
106 124 145
106 124 145
106 124 145
106 124 145
106 124 145
106 124 145
106 124 145
106 124 145
106 124 145
106 124 145
106 124 145
106 124 145
106 124 145
106 124 145
106 124 145
106 124 145
106 124 145
106 124 145
106 124 145
106 124 145
106 124 145
106 124 145
106 124 145
106 124 145
106 124 145
106 124 145
106 124 145
106 124 145
106 124 145
106 124 145
106 124 145
106 124 145
106 124 145
106 124 145
106 124 145
106 124 145
106 124 145
106 124 145
106 124 145
106 124 145
106 124 145
106 124 145
106 124 145
106 124 145
106 124 145
106 124 145
106 124 145
106 124 145
106 124 145
106 124 145
106 124 145
106 124 145
106 124 145
106 124 145
106 124 145
106 124 145
106 124 145
106 124 145
106 124 145
106 124 145
106 124 145
106 124 145
106 124 145
106 124 145
106 124 145
106 124 145
106 124 145
106 124 145
106 124 145
106 124 145
106 124 145
106 124 145
106 124 145
106 124 145
106 124 145
106 124 145
106 124 145
106 124 145
106 124 145
106 124 145
106 124 145
106 124 145
106 124 145
106 124 145
106 124 145
106 124 145
106 124 145
106 124 145
106 124 145
106 124 145
106 124 145
106 124 145
106 124 145
106 124 145
106 124 145
106 124 145
106 124 145
106 124 145
106 124 145
106 124 145
106 124 145
106 124 145
106 124 145
106 124 145
106 124 145
106 124 145
106 124 145
106 124 145
106 124 145
106 124 145
106 124 145
106 124 145
106 124 145
106 124 145
106 124 145
106 124 145
106 124 145
106 124 145
106 124 145
106 124 145
106 124 145
106 124 145
106 124 145
106 124 145
106 124 145
106 124 145
106 124 145
106 124 145
106 124 145
106 124 145
106 124 145
106 124 145
106 124 145
106 124 145
106 124 145
106 124 145
106 124 145
106 124 145
106 124 145
106 124 145
106 124 145
106 124 145
106 124 145
106 124 145
106 124 145
106 124 145
106 124 145
106 124 145
106 124 145
106 124 145
106 124 145
106 124 145
106 124 145
106 124 145
106 124 145
106 124 145
106 124 145
106 124 145
106 124 145
106 124 145
106 124 145
106 124 145
106 124 145
106 124 145
106 124 145
106 124 145
106 124 145
106 124 145
106 124 145
106 124 145
106 124 145
106 124 145
106 124 145
106 124 145
106 124 145
106 124 145
106 124 145
106 124 145
106 124 145
106 124 145
106 124 145
17 24 32
17 24 32
17 24 32
17 24 32
17 24 32
17 24 32
17 24 32
17 24 32
17 24 32
17 24 32
17 24 32
17 24 32
17 24 32
17 24 32
17 24 32
17 24 32
17 24 32
17 24 32
17 24 32
17 24 32
17 24 32
17 24 32
17 24 32
17 24 32
106 124 145
106 124 145
32 42 53
32 42 53
32 42 53
32 42 53
32 42 53
32 42 53
32 42 53
32 42 53
32 42 53
32 42 53
32 42 53
32 42 53
32 42 53
32 42 53
32 42 53
32 42 53
32 42 53
32 42 53
32 42 53
32 42 53
32 42 53
32 42 53
32 42 53
32 42 53
32 42 53
32 42 53
32 42 53
32 42 53
32 42 53
32 42 53
32 42 53
32 42 53
32 42 53
32 42 53
32 42 53
32 42 53
32 42 53
32 42 53
32 42 53
32 42 53
32 42 53
32 42 53
32 42 53
32 42 53
32 42 53
32 42 53
32 42 53
32 42 53
32 42 53
32 42 53
32 42 53
32 42 53
32 42 53
32 42 53
32 42 53
32 42 53
32 42 53
32 42 53
32 42 53
32 42 53
32 42 53
32 42 53
32 42 53
32 42 53
32 42 53
32 42 53
32 42 53
32 42 53
32 42 53
32 42 53
32 42 53
32 42 53
32 42 53
32 42 53
32 42 53
32 42 53
32 42 53
32 42 53
32 42 53
32 42 53
32 42 53
32 42 53
32 42 53
32 42 53
32 42 53
32 42 53
32 42 53
32 42 53
32 42 53
32 42 53
32 42 53
32 42 53
32 42 53
32 42 53
32 42 53
32 42 53
32 42 53
32 42 53
32 42 53
32 42 53
32 42 53
32 42 53
32 42 53
32 42 53
32 42 53
32 42 53
32 42 53
32 42 53
32 42 53
32 42 53
32 42 53
32 42 53
32 42 53
32 42 53
32 42 53
32 42 53
32 42 53
32 42 53
32 42 53
32 42 53
32 42 53
32 42 53
32 42 53
32 42 53
32 42 53
32 42 53
32 42 53
32 42 53
32 42 53
32 42 53
32 42 53
32 42 53
32 42 53
32 42 53
32 42 53
32 42 53
32 42 53
32 42 53
32 42 53
32 42 53
32 42 53
32 42 53
32 42 53
32 42 53
32 42 53
32 42 53
32 42 53
32 42 53
32 42 53
32 42 53
32 42 53
32 42 53
32 42 53
32 42 53
32 42 53
32 42 53
32 42 53
32 42 53
32 42 53
32 42 53
32 42 53
32 42 53
32 42 53
32 42 53
32 42 53
32 42 53
32 42 53
32 42 53
32 42 53
32 42 53
32 42 53
32 42 53
32 42 53
32 42 53
32 42 53
32 42 53
32 42 53
32 42 53
32 42 53
32 42 53
32 42 53
32 42 53
32 42 53
32 42 53
32 42 53
32 42 53
32 42 53
32 42 53
32 42 53
32 42 53
32 42 53
32 42 53
32 42 53
32 42 53
32 42 53
32 42 53
32 42 53
32 42 53
32 42 53
32 42 53
32 42 53
32 42 53
32 42 53
32 42 53
32 42 53
32 42 53
32 42 53
32 42 53
32 42 53
32 42 53
32 42 53
32 42 53
32 42 53
32 42 53
32 42 53
32 42 53
32 42 53
32 42 53
32 42 53
32 42 53
32 42 53
32 42 53
32 42 53
32 42 53
32 42 53
32 42 53
32 42 53
32 42 53
32 42 53
32 42 53
32 42 53
32 42 53
32 42 53
32 42 53
32 42 53
32 42 53
32 42 53
32 42 53
32 42 53
32 42 53
32 42 53
32 42 53
32 42 53
32 42 53
32 42 53
32 42 53
32 42 53
32 42 53
32 42 53
32 42 53
32 42 53
32 42 53
32 42 53
32 42 53
32 42 53
32 42 53
32 42 53
32 42 53
32 42 53
32 42 53
32 42 53
32 42 53
32 42 53
32 42 53
32 42 53
32 42 53
32 42 53
32 42 53
32 42 53
32 42 53
32 42 53
32 42 53
32 42 53
32 42 53
32 42 53
32 42 53
32 42 53
32 42 53
32 42 53
32 42 53
32 42 53
32 42 53
32 42 53
32 42 53
32 42 53
32 42 53
32 42 53
32 42 53
32 42 53
32 42 53
32 42 53
32 42 53
106 124 145
106 124 145
17 24 32
17 24 32
17 24 32
17 24 32
17 24 32
17 24 32
17 24 32
17 24 32
17 24 32
17 24 32
17 24 32
17 24 32
17 24 32
17 24 32
17 24 32
17 24 32
17 24 32
17 24 32
17 24 32
17 24 32
17 24 32
17 24 32
17 24 32
17 24 32
106 124 145
106 124 145
32 42 53
32 42 53
32 42 53
32 42 53
32 42 53
32 42 53
32 42 53
32 42 53
32 42 53
32 42 53
32 42 53
32 42 53
32 42 53
32 42 53
32 42 53
32 42 53
32 42 53
32 42 53
32 42 53
32 42 53
32 42 53
32 42 53
32 42 53
32 42 53
32 42 53
32 42 53
32 42 53
32 42 53
32 42 53
32 42 53
32 42 53
32 42 53
32 42 53
32 42 53
32 42 53
32 42 53
32 42 53
32 42 53
32 42 53
32 42 53
32 42 53
32 42 53
32 42 53
32 42 53
32 42 53
32 42 53
32 42 53
32 42 53
32 42 53
32 42 53
32 42 53
32 42 53
32 42 53
32 42 53
32 42 53
32 42 53
32 42 53
32 42 53
32 42 53
32 42 53
32 42 53
32 42 53
32 42 53
32 42 53
32 42 53
32 42 53
32 42 53
32 42 53
32 42 53
32 42 53
32 42 53
32 42 53
32 42 53
32 42 53
32 42 53
32 42 53
32 42 53
32 42 53
32 42 53
32 42 53
32 42 53
32 42 53
32 42 53
32 42 53
32 42 53
32 42 53
32 42 53
32 42 53
32 42 53
32 42 53
32 42 53
32 42 53
32 42 53
32 42 53
32 42 53
32 42 53
32 42 53
32 42 53
32 42 53
32 42 53
32 42 53
32 42 53
32 42 53
32 42 53
32 42 53
32 42 53
32 42 53
32 42 53
32 42 53
32 42 53
32 42 53
32 42 53
32 42 53
32 42 53
32 42 53
32 42 53
32 42 53
32 42 53
32 42 53
32 42 53
32 42 53
32 42 53
32 42 53
32 42 53
32 42 53
32 42 53
32 42 53
32 42 53
32 42 53
32 42 53
32 42 53
32 42 53
32 42 53
32 42 53
32 42 53
32 42 53
32 42 53
32 42 53
32 42 53
32 42 53
32 42 53
32 42 53
32 42 53
32 42 53
32 42 53
32 42 53
32 42 53
32 42 53
32 42 53
32 42 53
32 42 53
32 42 53
32 42 53
32 42 53
32 42 53
32 42 53
32 42 53
32 42 53
32 42 53
32 42 53
32 42 53
32 42 53
32 42 53
32 42 53
32 42 53
32 42 53
32 42 53
32 42 53
32 42 53
32 42 53
32 42 53
32 42 53
32 42 53
32 42 53
32 42 53
32 42 53
32 42 53
32 42 53
32 42 53
32 42 53
32 42 53
32 42 53
32 42 53
32 42 53
32 42 53
32 42 53
32 42 53
32 42 53
32 42 53
32 42 53
32 42 53
32 42 53
32 42 53
32 42 53
32 42 53
32 42 53
32 42 53
32 42 53
32 42 53
32 42 53
32 42 53
32 42 53
32 42 53
32 42 53
32 42 53
32 42 53
32 42 53
32 42 53
32 42 53
32 42 53
32 42 53
32 42 53
32 42 53
32 42 53
32 42 53
32 42 53
32 42 53
32 42 53
32 42 53
32 42 53
32 42 53
32 42 53
32 42 53
32 42 53
32 42 53
32 42 53
32 42 53
32 42 53
32 42 53
32 42 53
32 42 53
32 42 53
32 42 53
32 42 53
32 42 53
32 42 53
32 42 53
32 42 53
32 42 53
32 42 53
32 42 53
32 42 53
32 42 53
32 42 53
32 42 53
32 42 53
32 42 53
32 42 53
32 42 53
32 42 53
32 42 53
32 42 53
32 42 53
32 42 53
32 42 53
32 42 53
32 42 53
32 42 53
32 42 53
32 42 53
32 42 53
32 42 53
32 42 53
32 42 53
32 42 53
32 42 53
32 42 53
32 42 53
32 42 53
32 42 53
32 42 53
32 42 53
32 42 53
32 42 53
32 42 53
32 42 53
32 42 53
32 42 53
32 42 53
32 42 53
32 42 53
32 42 53
32 42 53
32 42 53
32 42 53
32 42 53
32 42 53
32 42 53
32 42 53
32 42 53
32 42 53
32 42 53
106 124 145
106 124 145
17 24 32
17 24 32
17 24 32
17 24 32
17 24 32
17 24 32
17 24 32
17 24 32
17 24 32
17 24 32
17 24 32
17 24 32
17 24 32
17 24 32
17 24 32
17 24 32
17 24 32
17 24 32
17 24 32
17 24 32
17 24 32
17 24 32
17 24 32
17 24 32
106 124 145
106 124 145
32 42 53
32 42 53
32 42 53
32 42 53
32 42 53
32 42 53
32 42 53
32 42 53
32 42 53
32 42 53
32 42 53
32 42 53
32 42 53
32 42 53
32 42 53
32 42 53
32 42 53
32 42 53
32 42 53
32 42 53
32 42 53
32 42 53
32 42 53
32 42 53
32 42 53
32 42 53
32 42 53
32 42 53
32 42 53
32 42 53
32 42 53
32 42 53
32 42 53
32 42 53
32 42 53
32 42 53
32 42 53
32 42 53
32 42 53
32 42 53
32 42 53
32 42 53
32 42 53
32 42 53
32 42 53
32 42 53
32 42 53
32 42 53
32 42 53
32 42 53
32 42 53
32 42 53
32 42 53
32 42 53
32 42 53
32 42 53
32 42 53
32 42 53
32 42 53
32 42 53
32 42 53
32 42 53
32 42 53
32 42 53
32 42 53
32 42 53
32 42 53
32 42 53
32 42 53
32 42 53
32 42 53
32 42 53
32 42 53
32 42 53
32 42 53
32 42 53
32 42 53
32 42 53
32 42 53
32 42 53
32 42 53
32 42 53
32 42 53
32 42 53
32 42 53
32 42 53
32 42 53
32 42 53
32 42 53
32 42 53
32 42 53
32 42 53
32 42 53
32 42 53
32 42 53
32 42 53
32 42 53
32 42 53
32 42 53
32 42 53
32 42 53
32 42 53
32 42 53
32 42 53
32 42 53
32 42 53
32 42 53
32 42 53
32 42 53
32 42 53
32 42 53
32 42 53
32 42 53
32 42 53
32 42 53
32 42 53
32 42 53
32 42 53
32 42 53
32 42 53
32 42 53
32 42 53
32 42 53
32 42 53
32 42 53
32 42 53
32 42 53
32 42 53
32 42 53
32 42 53
32 42 53
32 42 53
32 42 53
32 42 53
32 42 53
32 42 53
32 42 53
32 42 53
32 42 53
32 42 53
32 42 53
32 42 53
32 42 53
32 42 53
32 42 53
32 42 53
32 42 53
32 42 53
32 42 53
32 42 53
32 42 53
32 42 53
32 42 53
32 42 53
32 42 53
32 42 53
32 42 53
32 42 53
32 42 53
32 42 53
32 42 53
32 42 53
32 42 53
32 42 53
32 42 53
32 42 53
32 42 53
32 42 53
32 42 53
32 42 53
32 42 53
32 42 53
32 42 53
32 42 53
32 42 53
32 42 53
32 42 53
32 42 53
32 42 53
32 42 53
32 42 53
32 42 53
32 42 53
32 42 53
32 42 53
32 42 53
32 42 53
32 42 53
32 42 53
32 42 53
32 42 53
32 42 53
32 42 53
32 42 53
32 42 53
32 42 53
32 42 53
32 42 53
32 42 53
32 42 53
32 42 53
32 42 53
32 42 53
32 42 53
32 42 53
32 42 53
32 42 53
32 42 53
32 42 53
32 42 53
32 42 53
32 42 53
32 42 53
32 42 53
32 42 53
32 42 53
32 42 53
32 42 53
32 42 53
32 42 53
32 42 53
32 42 53
32 42 53
32 42 53
32 42 53
32 42 53
32 42 53
32 42 53
32 42 53
32 42 53
32 42 53
32 42 53
32 42 53
32 42 53
32 42 53
32 42 53
32 42 53
32 42 53
32 42 53
32 42 53
32 42 53
32 42 53
32 42 53
32 42 53
32 42 53
32 42 53
32 42 53
32 42 53
32 42 53
32 42 53
32 42 53
32 42 53
32 42 53
32 42 53
32 42 53
32 42 53
32 42 53
32 42 53
32 42 53
32 42 53
32 42 53
32 42 53
32 42 53
32 42 53
32 42 53
32 42 53
32 42 53
32 42 53
32 42 53
32 42 53
32 42 53
32 42 53
32 42 53
32 42 53
32 42 53
32 42 53
32 42 53
32 42 53
32 42 53
32 42 53
32 42 53
32 42 53
32 42 53
32 42 53
32 42 53
32 42 53
32 42 53
32 42 53
32 42 53
32 42 53
32 42 53
32 42 53
106 124 145
106 124 145
17 24 32
17 24 32
17 24 32
17 24 32
17 24 32
17 24 32
17 24 32
17 24 32
17 24 32
17 24 32
17 24 32
17 24 32
17 24 32
17 24 32
17 24 32
17 24 32
17 24 32
17 24 32
17 24 32
17 24 32
17 24 32
17 24 32
17 24 32
17 24 32
106 124 145
106 124 145
32 42 53
32 42 53
32 42 53
32 42 53
32 42 53
32 42 53
32 42 53
32 42 53
32 42 53
32 42 53
32 42 53
32 42 53
32 42 53
32 42 53
32 42 53
32 42 53
32 42 53
32 42 53
32 42 53
32 42 53
32 42 53
32 42 53
32 42 53
32 42 53
32 42 53
32 42 53
32 42 53
32 42 53
32 42 53
32 42 53
32 42 53
32 42 53
32 42 53
32 42 53
32 42 53
32 42 53
32 42 53
32 42 53
32 42 53
32 42 53
32 42 53
32 42 53
32 42 53
32 42 53
32 42 53
32 42 53
32 42 53
32 42 53
32 42 53
32 42 53
32 42 53
32 42 53
32 42 53
32 42 53
32 42 53
32 42 53
32 42 53
32 42 53
32 42 53
32 42 53
32 42 53
32 42 53
32 42 53
32 42 53
32 42 53
32 42 53
32 42 53
32 42 53
32 42 53
32 42 53
32 42 53
32 42 53
32 42 53
32 42 53
32 42 53
32 42 53
32 42 53
32 42 53
32 42 53
32 42 53
32 42 53
32 42 53
32 42 53
32 42 53
32 42 53
32 42 53
32 42 53
32 42 53
32 42 53
32 42 53
32 42 53
32 42 53
32 42 53
32 42 53
32 42 53
32 42 53
32 42 53
32 42 53
32 42 53
32 42 53
32 42 53
32 42 53
32 42 53
32 42 53
32 42 53
32 42 53
32 42 53
32 42 53
32 42 53
32 42 53
32 42 53
32 42 53
32 42 53
32 42 53
32 42 53
32 42 53
32 42 53
32 42 53
32 42 53
32 42 53
32 42 53
32 42 53
32 42 53
32 42 53
32 42 53
32 42 53
32 42 53
32 42 53
32 42 53
32 42 53
32 42 53
32 42 53
32 42 53
32 42 53
32 42 53
32 42 53
32 42 53
32 42 53
32 42 53
32 42 53
32 42 53
32 42 53
32 42 53
32 42 53
32 42 53
32 42 53
32 42 53
32 42 53
32 42 53
32 42 53
32 42 53
32 42 53
32 42 53
32 42 53
32 42 53
32 42 53
32 42 53
32 42 53
32 42 53
32 42 53
32 42 53
32 42 53
32 42 53
32 42 53
32 42 53
32 42 53
32 42 53
32 42 53
32 42 53
32 42 53
32 42 53
32 42 53
32 42 53
32 42 53
32 42 53
32 42 53
32 42 53
32 42 53
32 42 53
32 42 53
32 42 53
32 42 53
32 42 53
32 42 53
32 42 53
32 42 53
32 42 53
32 42 53
32 42 53
32 42 53
32 42 53
32 42 53
32 42 53
32 42 53
32 42 53
32 42 53
32 42 53
32 42 53
32 42 53
32 42 53
32 42 53
32 42 53
32 42 53
32 42 53
32 42 53
32 42 53
32 42 53
32 42 53
32 42 53
32 42 53
32 42 53
32 42 53
32 42 53
32 42 53
32 42 53
32 42 53
32 42 53
32 42 53
32 42 53
32 42 53
32 42 53
32 42 53
32 42 53
32 42 53
32 42 53
32 42 53
32 42 53
32 42 53
32 42 53
32 42 53
32 42 53
32 42 53
32 42 53
32 42 53
32 42 53
32 42 53
32 42 53
32 42 53
32 42 53
32 42 53
32 42 53
32 42 53
32 42 53
32 42 53
32 42 53
32 42 53
32 42 53
32 42 53
32 42 53
32 42 53
32 42 53
32 42 53
32 42 53
32 42 53
32 42 53
32 42 53
32 42 53
32 42 53
32 42 53
32 42 53
32 42 53
32 42 53
32 42 53
32 42 53
32 42 53
32 42 53
32 42 53
32 42 53
32 42 53
32 42 53
32 42 53
32 42 53
32 42 53
32 42 53
32 42 53
32 42 53
32 42 53
32 42 53
32 42 53
32 42 53
32 42 53
32 42 53
32 42 53
32 42 53
32 42 53
32 42 53
32 42 53
32 42 53
32 42 53
32 42 53
32 42 53
32 42 53
106 124 145
106 124 145
17 24 32
17 24 32
17 24 32
17 24 32
17 24 32
17 24 32
17 24 32
17 24 32
17 24 32
17 24 32
17 24 32
17 24 32
17 24 32
17 24 32
17 24 32
17 24 32
17 24 32
17 24 32
17 24 32
17 24 32
17 24 32
17 24 32
17 24 32
17 24 32
106 124 145
106 124 145
32 42 53
32 42 53
32 42 53
32 42 53
32 42 53
32 42 53
32 42 53
32 42 53
32 42 53
32 42 53
32 42 53
32 42 53
32 42 53
32 42 53
32 42 53
32 42 53
32 42 53
32 42 53
32 42 53
32 42 53
32 42 53
32 42 53
32 42 53
32 42 53
32 42 53
32 42 53
32 42 53
32 42 53
32 42 53
32 42 53
32 42 53
32 42 53
32 42 53
32 42 53
32 42 53
32 42 53
32 42 53
32 42 53
32 42 53
32 42 53
32 42 53
32 42 53
32 42 53
32 42 53
32 42 53
32 42 53
32 42 53
32 42 53
32 42 53
32 42 53
32 42 53
32 42 53
32 42 53
32 42 53
32 42 53
32 42 53
32 42 53
32 42 53
32 42 53
32 42 53
32 42 53
32 42 53
32 42 53
32 42 53
32 42 53
32 42 53
32 42 53
32 42 53
32 42 53
32 42 53
32 42 53
32 42 53
32 42 53
32 42 53
32 42 53
32 42 53
32 42 53
32 42 53
32 42 53
32 42 53
32 42 53
32 42 53
32 42 53
32 42 53
32 42 53
32 42 53
32 42 53
32 42 53
32 42 53
32 42 53
32 42 53
32 42 53
32 42 53
32 42 53
32 42 53
32 42 53
32 42 53
32 42 53
32 42 53
32 42 53
32 42 53
32 42 53
32 42 53
32 42 53
32 42 53
32 42 53
32 42 53
32 42 53
32 42 53
32 42 53
32 42 53
32 42 53
32 42 53
32 42 53
32 42 53
32 42 53
32 42 53
32 42 53
32 42 53
32 42 53
32 42 53
32 42 53
32 42 53
32 42 53
32 42 53
32 42 53
32 42 53
32 42 53
32 42 53
32 42 53
32 42 53
32 42 53
32 42 53
32 42 53
32 42 53
32 42 53
32 42 53
32 42 53
32 42 53
32 42 53
32 42 53
32 42 53
32 42 53
32 42 53
32 42 53
32 42 53
32 42 53
32 42 53
32 42 53
32 42 53
32 42 53
32 42 53
32 42 53
32 42 53
32 42 53
32 42 53
32 42 53
32 42 53
32 42 53
32 42 53
32 42 53
32 42 53
32 42 53
32 42 53
32 42 53
32 42 53
32 42 53
32 42 53
32 42 53
32 42 53
32 42 53
32 42 53
32 42 53
32 42 53
32 42 53
32 42 53
32 42 53
32 42 53
32 42 53
32 42 53
32 42 53
32 42 53
32 42 53
32 42 53
32 42 53
32 42 53
32 42 53
32 42 53
32 42 53
32 42 53
32 42 53
32 42 53
32 42 53
32 42 53
32 42 53
32 42 53
32 42 53
32 42 53
32 42 53
32 42 53
32 42 53
32 42 53
32 42 53
32 42 53
32 42 53
32 42 53
32 42 53
32 42 53
32 42 53
32 42 53
32 42 53
32 42 53
32 42 53
32 42 53
32 42 53
32 42 53
32 42 53
32 42 53
32 42 53
32 42 53
32 42 53
32 42 53
32 42 53
32 42 53
32 42 53
32 42 53
32 42 53
32 42 53
32 42 53
32 42 53
32 42 53
32 42 53
32 42 53
32 42 53
32 42 53
32 42 53
32 42 53
32 42 53
32 42 53
32 42 53
32 42 53
32 42 53
32 42 53
32 42 53
32 42 53
32 42 53
32 42 53
32 42 53
32 42 53
32 42 53
32 42 53
32 42 53
32 42 53
32 42 53
32 42 53
32 42 53
32 42 53
32 42 53
32 42 53
32 42 53
32 42 53
32 42 53
32 42 53
32 42 53
32 42 53
32 42 53
32 42 53
32 42 53
32 42 53
32 42 53
32 42 53
32 42 53
32 42 53
32 42 53
32 42 53
32 42 53
32 42 53
32 42 53
32 42 53
32 42 53
32 42 53
32 42 53
32 42 53
32 42 53
32 42 53
32 42 53
32 42 53
32 42 53
32 42 53
32 42 53
32 42 53
32 42 53
106 124 145
106 124 145
17 24 32
17 24 32
17 24 32
17 24 32
17 24 32
17 24 32
17 24 32
17 24 32
17 24 32
17 24 32
17 24 32
17 24 32
17 24 32
17 24 32
17 24 32
17 24 32
17 24 32
17 24 32
17 24 32
17 24 32
17 24 32
17 24 32
17 24 32
17 24 32
106 124 145
106 124 145
32 42 53
32 42 53
32 42 53
32 42 53
32 42 53
32 42 53
32 42 53
32 42 53
32 42 53
32 42 53
32 42 53
32 42 53
32 42 53
32 42 53
32 42 53
32 42 53
32 42 53
32 42 53
32 42 53
32 42 53
32 42 53
32 42 53
32 42 53
32 42 53
32 42 53
32 42 53
32 42 53
32 42 53
32 42 53
32 42 53
32 42 53
32 42 53
32 42 53
32 42 53
32 42 53
32 42 53
32 42 53
32 42 53
32 42 53
32 42 53
32 42 53
32 42 53
32 42 53
32 42 53
32 42 53
32 42 53
32 42 53
32 42 53
32 42 53
32 42 53
32 42 53
32 42 53
32 42 53
32 42 53
32 42 53
32 42 53
32 42 53
32 42 53
32 42 53
32 42 53
32 42 53
32 42 53
32 42 53
32 42 53
32 42 53
32 42 53
32 42 53
32 42 53
32 42 53
32 42 53
32 42 53
32 42 53
32 42 53
32 42 53
32 42 53
32 42 53
32 42 53
32 42 53
32 42 53
32 42 53
32 42 53
32 42 53
32 42 53
32 42 53
32 42 53
32 42 53
32 42 53
32 42 53
32 42 53
32 42 53
32 42 53
32 42 53
32 42 53
32 42 53
32 42 53
32 42 53
32 42 53
32 42 53
32 42 53
32 42 53
32 42 53
32 42 53
32 42 53
32 42 53
32 42 53
32 42 53
32 42 53
32 42 53
32 42 53
32 42 53
32 42 53
32 42 53
32 42 53
32 42 53
32 42 53
32 42 53
32 42 53
32 42 53
32 42 53
32 42 53
32 42 53
32 42 53
32 42 53
32 42 53
32 42 53
32 42 53
32 42 53
32 42 53
32 42 53
32 42 53
32 42 53
32 42 53
32 42 53
32 42 53
32 42 53
32 42 53
32 42 53
32 42 53
32 42 53
32 42 53
32 42 53
32 42 53
32 42 53
32 42 53
32 42 53
32 42 53
32 42 53
32 42 53
32 42 53
32 42 53
32 42 53
32 42 53
32 42 53
32 42 53
32 42 53
32 42 53
32 42 53
32 42 53
32 42 53
32 42 53
32 42 53
32 42 53
32 42 53
32 42 53
32 42 53
32 42 53
32 42 53
32 42 53
32 42 53
32 42 53
32 42 53
32 42 53
32 42 53
32 42 53
32 42 53
32 42 53
32 42 53
32 42 53
32 42 53
32 42 53
32 42 53
32 42 53
32 42 53
32 42 53
32 42 53
32 42 53
32 42 53
32 42 53
32 42 53
32 42 53
32 42 53
32 42 53
32 42 53
32 42 53
32 42 53
32 42 53
32 42 53
32 42 53
32 42 53
32 42 53
32 42 53
32 42 53
32 42 53
32 42 53
32 42 53
32 42 53
32 42 53
32 42 53
32 42 53
32 42 53
32 42 53
32 42 53
32 42 53
32 42 53
32 42 53
32 42 53
32 42 53
32 42 53
32 42 53
32 42 53
32 42 53
32 42 53
32 42 53
32 42 53
32 42 53
32 42 53
32 42 53
32 42 53
32 42 53
32 42 53
32 42 53
32 42 53
32 42 53
32 42 53
32 42 53
32 42 53
32 42 53
32 42 53
32 42 53
32 42 53
32 42 53
32 42 53
32 42 53
32 42 53
32 42 53
32 42 53
32 42 53
32 42 53
32 42 53
32 42 53
32 42 53
32 42 53
32 42 53
32 42 53
32 42 53
32 42 53
32 42 53
32 42 53
32 42 53
32 42 53
32 42 53
32 42 53
32 42 53
32 42 53
32 42 53
32 42 53
32 42 53
32 42 53
32 42 53
32 42 53
32 42 53
32 42 53
32 42 53
32 42 53
32 42 53
32 42 53
32 42 53
32 42 53
32 42 53
32 42 53
32 42 53
32 42 53
32 42 53
32 42 53
32 42 53
32 42 53
32 42 53
32 42 53
32 42 53
32 42 53
32 42 53
32 42 53
106 124 145
106 124 145
17 24 32
17 24 32
17 24 32
17 24 32
17 24 32
17 24 32
17 24 32
17 24 32
17 24 32
17 24 32
17 24 32
17 24 32
17 24 32
17 24 32
17 24 32
17 24 32
17 24 32
17 24 32
17 24 32
17 24 32
17 24 32
17 24 32
17 24 32
17 24 32
106 124 145
106 124 145
32 42 53
32 42 53
32 42 53
32 42 53
32 42 53
32 42 53
32 42 53
32 42 53
32 42 53
32 42 53
32 42 53
32 42 53
32 42 53
32 42 53
32 42 53
32 42 53
32 42 53
32 42 53
32 42 53
32 42 53
32 42 53
32 42 53
32 42 53
32 42 53
32 42 53
32 42 53
32 42 53
32 42 53
32 42 53
32 42 53
32 42 53
32 42 53
32 42 53
32 42 53
32 42 53
32 42 53
32 42 53
32 42 53
32 42 53
32 42 53
32 42 53
32 42 53
32 42 53
32 42 53
32 42 53
32 42 53
32 42 53
32 42 53
32 42 53
32 42 53
32 42 53
32 42 53
32 42 53
32 42 53
32 42 53
32 42 53
32 42 53
32 42 53
32 42 53
32 42 53
32 42 53
32 42 53
32 42 53
32 42 53
32 42 53
32 42 53
32 42 53
32 42 53
32 42 53
32 42 53
32 42 53
32 42 53
32 42 53
32 42 53
32 42 53
32 42 53
32 42 53
32 42 53
32 42 53
32 42 53
32 42 53
32 42 53
32 42 53
32 42 53
32 42 53
32 42 53
32 42 53
32 42 53
32 42 53
32 42 53
32 42 53
32 42 53
32 42 53
32 42 53
32 42 53
32 42 53
32 42 53
32 42 53
32 42 53
32 42 53
32 42 53
32 42 53
32 42 53
32 42 53
32 42 53
32 42 53
32 42 53
32 42 53
32 42 53
32 42 53
32 42 53
32 42 53
32 42 53
32 42 53
32 42 53
32 42 53
32 42 53
32 42 53
32 42 53
32 42 53
32 42 53
32 42 53
32 42 53
32 42 53
32 42 53
32 42 53
32 42 53
32 42 53
32 42 53
32 42 53
32 42 53
32 42 53
32 42 53
32 42 53
32 42 53
32 42 53
32 42 53
32 42 53
32 42 53
32 42 53
32 42 53
32 42 53
32 42 53
32 42 53
32 42 53
32 42 53
32 42 53
32 42 53
32 42 53
32 42 53
32 42 53
32 42 53
32 42 53
32 42 53
32 42 53
32 42 53
32 42 53
32 42 53
32 42 53
32 42 53
32 42 53
32 42 53
32 42 53
32 42 53
32 42 53
32 42 53
32 42 53
32 42 53
32 42 53
32 42 53
32 42 53
32 42 53
32 42 53
32 42 53
32 42 53
32 42 53
32 42 53
32 42 53
32 42 53
32 42 53
32 42 53
32 42 53
32 42 53
32 42 53
32 42 53
32 42 53
32 42 53
32 42 53
32 42 53
32 42 53
32 42 53
32 42 53
32 42 53
32 42 53
32 42 53
32 42 53
32 42 53
32 42 53
32 42 53
32 42 53
32 42 53
32 42 53
32 42 53
32 42 53
32 42 53
32 42 53
32 42 53
32 42 53
32 42 53
32 42 53
32 42 53
32 42 53
32 42 53
32 42 53
32 42 53
32 42 53
32 42 53
32 42 53
32 42 53
32 42 53
32 42 53
32 42 53
32 42 53
32 42 53
32 42 53
32 42 53
32 42 53
32 42 53
32 42 53
32 42 53
32 42 53
32 42 53
32 42 53
32 42 53
32 42 53
32 42 53
32 42 53
32 42 53
32 42 53
32 42 53
32 42 53
32 42 53
32 42 53
32 42 53
32 42 53
32 42 53
32 42 53
32 42 53
32 42 53
32 42 53
32 42 53
32 42 53
32 42 53
32 42 53
32 42 53
32 42 53
32 42 53
32 42 53
32 42 53
32 42 53
32 42 53
32 42 53
32 42 53
32 42 53
32 42 53
32 42 53
32 42 53
32 42 53
32 42 53
32 42 53
32 42 53
32 42 53
32 42 53
32 42 53
32 42 53
32 42 53
32 42 53
32 42 53
32 42 53
32 42 53
32 42 53
32 42 53
32 42 53
32 42 53
32 42 53
32 42 53
32 42 53
32 42 53
32 42 53
32 42 53
32 42 53
32 42 53
106 124 145
106 124 145
17 24 32
17 24 32
17 24 32
17 24 32
17 24 32
17 24 32
17 24 32
17 24 32
17 24 32
17 24 32
17 24 32
17 24 32
17 24 32
17 24 32
17 24 32
17 24 32
17 24 32
17 24 32
17 24 32
17 24 32
17 24 32
17 24 32
17 24 32
17 24 32
106 124 145
106 124 145
32 42 53
32 42 53
32 42 53
32 42 53
32 42 53
32 42 53
32 42 53
32 42 53
32 42 53
32 42 53
32 42 53
32 42 53
32 42 53
32 42 53
32 42 53
32 42 53
32 42 53
32 42 53
32 42 53
32 42 53
32 42 53
32 42 53
32 42 53
32 42 53
32 42 53
32 42 53
32 42 53
32 42 53
32 42 53
32 42 53
32 42 53
32 42 53
32 42 53
32 42 53
32 42 53
32 42 53
32 42 53
32 42 53
32 42 53
32 42 53
32 42 53
32 42 53
32 42 53
32 42 53
32 42 53
32 42 53
32 42 53
32 42 53
32 42 53
32 42 53
32 42 53
32 42 53
32 42 53
32 42 53
32 42 53
32 42 53
32 42 53
32 42 53
32 42 53
32 42 53
32 42 53
32 42 53
32 42 53
32 42 53
32 42 53
32 42 53
32 42 53
32 42 53
32 42 53
32 42 53
32 42 53
32 42 53
32 42 53
32 42 53
32 42 53
32 42 53
32 42 53
32 42 53
32 42 53
32 42 53
32 42 53
32 42 53
32 42 53
32 42 53
32 42 53
32 42 53
32 42 53
32 42 53
32 42 53
32 42 53
32 42 53
32 42 53
32 42 53
32 42 53
32 42 53
32 42 53
32 42 53
32 42 53
32 42 53
32 42 53
32 42 53
32 42 53
32 42 53
32 42 53
32 42 53
32 42 53
32 42 53
32 42 53
32 42 53
32 42 53
32 42 53
32 42 53
32 42 53
32 42 53
32 42 53
32 42 53
32 42 53
32 42 53
32 42 53
32 42 53
32 42 53
32 42 53
32 42 53
32 42 53
32 42 53
32 42 53
32 42 53
32 42 53
32 42 53
32 42 53
32 42 53
32 42 53
32 42 53
32 42 53
32 42 53
32 42 53
32 42 53
32 42 53
32 42 53
32 42 53
32 42 53
32 42 53
32 42 53
32 42 53
32 42 53
32 42 53
32 42 53
32 42 53
32 42 53
32 42 53
32 42 53
32 42 53
32 42 53
32 42 53
32 42 53
32 42 53
32 42 53
32 42 53
32 42 53
32 42 53
32 42 53
32 42 53
32 42 53
32 42 53
32 42 53
32 42 53
32 42 53
32 42 53
32 42 53
32 42 53
32 42 53
32 42 53
32 42 53
32 42 53
32 42 53
32 42 53
32 42 53
32 42 53
32 42 53
32 42 53
32 42 53
32 42 53
32 42 53
32 42 53
32 42 53
32 42 53
32 42 53
32 42 53
32 42 53
32 42 53
32 42 53
32 42 53
32 42 53
32 42 53
32 42 53
32 42 53
32 42 53
32 42 53
32 42 53
32 42 53
32 42 53
32 42 53
32 42 53
32 42 53
32 42 53
32 42 53
32 42 53
32 42 53
32 42 53
32 42 53
32 42 53
32 42 53
32 42 53
32 42 53
32 42 53
32 42 53
32 42 53
32 42 53
32 42 53
32 42 53
32 42 53
32 42 53
32 42 53
32 42 53
32 42 53
32 42 53
32 42 53
32 42 53
32 42 53
32 42 53
32 42 53
32 42 53
32 42 53
32 42 53
32 42 53
32 42 53
32 42 53
32 42 53
32 42 53
32 42 53
32 42 53
32 42 53
32 42 53
32 42 53
32 42 53
32 42 53
32 42 53
32 42 53
32 42 53
32 42 53
32 42 53
32 42 53
32 42 53
32 42 53
32 42 53
32 42 53
32 42 53
32 42 53
32 42 53
32 42 53
32 42 53
32 42 53
32 42 53
32 42 53
32 42 53
32 42 53
32 42 53
32 42 53
32 42 53
32 42 53
32 42 53
32 42 53
32 42 53
32 42 53
32 42 53
32 42 53
32 42 53
32 42 53
32 42 53
32 42 53
32 42 53
32 42 53
32 42 53
32 42 53
32 42 53
32 42 53
32 42 53
32 42 53
32 42 53
32 42 53
32 42 53
32 42 53
106 124 145
106 124 145
17 24 32
17 24 32
17 24 32
17 24 32
17 24 32
17 24 32
17 24 32
17 24 32
17 24 32
17 24 32
17 24 32
17 24 32
17 24 32
17 24 32
17 24 32
17 24 32
17 24 32
17 24 32
17 24 32
17 24 32
17 24 32
17 24 32
17 24 32
17 24 32
106 124 145
106 124 145
32 42 53
32 42 53
32 42 53
32 42 53
32 42 53
32 42 53
32 42 53
32 42 53
32 42 53
32 42 53
32 42 53
32 42 53
32 42 53
32 42 53
32 42 53
32 42 53
32 42 53
32 42 53
32 42 53
32 42 53
32 42 53
32 42 53
32 42 53
32 42 53
32 42 53
32 42 53
32 42 53
32 42 53
32 42 53
32 42 53
32 42 53
32 42 53
32 42 53
32 42 53
32 42 53
32 42 53
32 42 53
32 42 53
32 42 53
32 42 53
32 42 53
32 42 53
32 42 53
32 42 53
32 42 53
32 42 53
32 42 53
32 42 53
32 42 53
32 42 53
32 42 53
32 42 53
32 42 53
32 42 53
32 42 53
32 42 53
32 42 53
32 42 53
32 42 53
32 42 53
32 42 53
32 42 53
32 42 53
32 42 53
32 42 53
32 42 53
32 42 53
32 42 53
32 42 53
32 42 53
32 42 53
32 42 53
32 42 53
32 42 53
32 42 53
32 42 53
32 42 53
32 42 53
32 42 53
32 42 53
32 42 53
32 42 53
32 42 53
32 42 53
32 42 53
32 42 53
32 42 53
32 42 53
32 42 53
32 42 53
32 42 53
32 42 53
32 42 53
32 42 53
32 42 53
32 42 53
32 42 53
32 42 53
32 42 53
32 42 53
32 42 53
32 42 53
32 42 53
32 42 53
32 42 53
32 42 53
32 42 53
32 42 53
32 42 53
32 42 53
32 42 53
32 42 53
32 42 53
32 42 53
32 42 53
32 42 53
32 42 53
32 42 53
32 42 53
32 42 53
32 42 53
32 42 53
32 42 53
32 42 53
32 42 53
32 42 53
32 42 53
32 42 53
32 42 53
32 42 53
32 42 53
32 42 53
32 42 53
32 42 53
32 42 53
32 42 53
32 42 53
32 42 53
32 42 53
32 42 53
32 42 53
32 42 53
32 42 53
32 42 53
32 42 53
32 42 53
32 42 53
32 42 53
32 42 53
32 42 53
32 42 53
32 42 53
32 42 53
32 42 53
32 42 53
32 42 53
32 42 53
32 42 53
32 42 53
32 42 53
32 42 53
32 42 53
32 42 53
32 42 53
32 42 53
32 42 53
32 42 53
32 42 53
32 42 53
32 42 53
32 42 53
32 42 53
32 42 53
32 42 53
32 42 53
32 42 53
32 42 53
32 42 53
32 42 53
32 42 53
32 42 53
32 42 53
32 42 53
32 42 53
32 42 53
32 42 53
32 42 53
32 42 53
32 42 53
32 42 53
32 42 53
32 42 53
32 42 53
32 42 53
32 42 53
32 42 53
32 42 53
32 42 53
32 42 53
32 42 53
32 42 53
32 42 53
32 42 53
32 42 53
32 42 53
32 42 53
32 42 53
32 42 53
32 42 53
32 42 53
32 42 53
32 42 53
32 42 53
32 42 53
32 42 53
32 42 53
32 42 53
32 42 53
32 42 53
32 42 53
32 42 53
32 42 53
32 42 53
32 42 53
32 42 53
32 42 53
32 42 53
32 42 53
32 42 53
32 42 53
32 42 53
32 42 53
32 42 53
32 42 53
32 42 53
32 42 53
32 42 53
32 42 53
32 42 53
32 42 53
32 42 53
32 42 53
32 42 53
32 42 53
32 42 53
32 42 53
32 42 53
32 42 53
32 42 53
32 42 53
32 42 53
32 42 53
32 42 53
32 42 53
32 42 53
32 42 53
32 42 53
32 42 53
32 42 53
32 42 53
32 42 53
32 42 53
32 42 53
32 42 53
32 42 53
32 42 53
32 42 53
32 42 53
32 42 53
32 42 53
32 42 53
32 42 53
32 42 53
32 42 53
32 42 53
32 42 53
32 42 53
32 42 53
32 42 53
32 42 53
32 42 53
32 42 53
32 42 53
32 42 53
32 42 53
32 42 53
32 42 53
32 42 53
32 42 53
32 42 53
32 42 53
32 42 53
106 124 145
106 124 145
17 24 32
17 24 32
17 24 32
17 24 32
17 24 32
17 24 32
17 24 32
17 24 32
17 24 32
17 24 32
17 24 32
17 24 32
17 24 32
17 24 32
17 24 32
17 24 32
17 24 32
17 24 32
17 24 32
17 24 32
17 24 32
17 24 32
17 24 32
17 24 32
106 124 145
106 124 145
32 42 53
32 42 53
32 42 53
32 42 53
32 42 53
32 42 53
32 42 53
32 42 53
32 42 53
32 42 53
32 42 53
32 42 53
32 42 53
32 42 53
32 42 53
32 42 53
32 42 53
32 42 53
32 42 53
32 42 53
32 42 53
32 42 53
32 42 53
32 42 53
32 42 53
32 42 53
32 42 53
32 42 53
32 42 53
32 42 53
32 42 53
32 42 53
32 42 53
32 42 53
32 42 53
32 42 53
32 42 53
32 42 53
32 42 53
32 42 53
32 42 53
32 42 53
32 42 53
32 42 53
32 42 53
32 42 53
32 42 53
32 42 53
32 42 53
32 42 53
32 42 53
32 42 53
32 42 53
32 42 53
32 42 53
32 42 53
32 42 53
32 42 53
32 42 53
32 42 53
32 42 53
32 42 53
32 42 53
32 42 53
32 42 53
32 42 53
32 42 53
32 42 53
32 42 53
32 42 53
32 42 53
32 42 53
32 42 53
32 42 53
32 42 53
32 42 53
32 42 53
32 42 53
32 42 53
32 42 53
32 42 53
32 42 53
32 42 53
32 42 53
32 42 53
32 42 53
32 42 53
32 42 53
32 42 53
32 42 53
32 42 53
32 42 53
32 42 53
32 42 53
32 42 53
32 42 53
32 42 53
32 42 53
32 42 53
32 42 53
32 42 53
32 42 53
32 42 53
32 42 53
32 42 53
32 42 53
32 42 53
32 42 53
32 42 53
32 42 53
32 42 53
32 42 53
32 42 53
32 42 53
32 42 53
32 42 53
32 42 53
32 42 53
32 42 53
32 42 53
32 42 53
32 42 53
32 42 53
32 42 53
32 42 53
32 42 53
32 42 53
32 42 53
32 42 53
32 42 53
32 42 53
32 42 53
32 42 53
32 42 53
32 42 53
32 42 53
32 42 53
32 42 53
32 42 53
32 42 53
32 42 53
32 42 53
32 42 53
32 42 53
32 42 53
32 42 53
32 42 53
32 42 53
32 42 53
32 42 53
32 42 53
32 42 53
32 42 53
32 42 53
32 42 53
32 42 53
32 42 53
32 42 53
32 42 53
32 42 53
32 42 53
32 42 53
32 42 53
32 42 53
32 42 53
32 42 53
32 42 53
32 42 53
32 42 53
32 42 53
32 42 53
32 42 53
32 42 53
32 42 53
32 42 53
32 42 53
32 42 53
32 42 53
32 42 53
32 42 53
32 42 53
32 42 53
32 42 53
32 42 53
32 42 53
32 42 53
32 42 53
32 42 53
32 42 53
32 42 53
32 42 53
32 42 53
32 42 53
32 42 53
32 42 53
32 42 53
32 42 53
32 42 53
32 42 53
32 42 53
32 42 53
32 42 53
32 42 53
32 42 53
32 42 53
32 42 53
32 42 53
32 42 53
32 42 53
32 42 53
32 42 53
32 42 53
32 42 53
32 42 53
32 42 53
32 42 53
32 42 53
32 42 53
32 42 53
32 42 53
32 42 53
32 42 53
32 42 53
32 42 53
32 42 53
32 42 53
32 42 53
32 42 53
32 42 53
32 42 53
32 42 53
32 42 53
32 42 53
32 42 53
32 42 53
32 42 53
32 42 53
32 42 53
32 42 53
32 42 53
32 42 53
32 42 53
32 42 53
32 42 53
32 42 53
32 42 53
32 42 53
32 42 53
32 42 53
32 42 53
32 42 53
32 42 53
32 42 53
32 42 53
32 42 53
32 42 53
32 42 53
32 42 53
32 42 53
32 42 53
32 42 53
32 42 53
32 42 53
32 42 53
32 42 53
32 42 53
32 42 53
32 42 53
32 42 53
32 42 53
32 42 53
32 42 53
32 42 53
32 42 53
32 42 53
32 42 53
32 42 53
32 42 53
32 42 53
32 42 53
32 42 53
32 42 53
32 42 53
32 42 53
32 42 53
32 42 53
32 42 53
32 42 53
32 42 53
32 42 53
32 42 53
32 42 53
106 124 145
106 124 145
17 24 32
17 24 32
17 24 32
17 24 32
17 24 32
17 24 32
17 24 32
17 24 32
17 24 32
17 24 32
17 24 32
17 24 32
17 24 32
17 24 32
17 24 32
17 24 32
17 24 32
17 24 32
17 24 32
17 24 32
17 24 32
17 24 32
17 24 32
17 24 32
106 124 145
106 124 145
32 42 53
32 42 53
32 42 53
32 42 53
32 42 53
32 42 53
32 42 53
32 42 53
32 42 53
32 42 53
32 42 53
32 42 53
32 42 53
32 42 53
32 42 53
32 42 53
32 42 53
32 42 53
32 42 53
32 42 53
32 42 53
32 42 53
32 42 53
32 42 53
32 42 53
32 42 53
32 42 53
32 42 53
32 42 53
32 42 53
32 42 53
32 42 53
32 42 53
32 42 53
32 42 53
32 42 53
32 42 53
32 42 53
32 42 53
32 42 53
32 42 53
32 42 53
32 42 53
32 42 53
32 42 53
32 42 53
32 42 53
32 42 53
32 42 53
32 42 53
32 42 53
32 42 53
32 42 53
32 42 53
32 42 53
32 42 53
32 42 53
32 42 53
32 42 53
32 42 53
32 42 53
32 42 53
32 42 53
32 42 53
32 42 53
32 42 53
32 42 53
32 42 53
32 42 53
32 42 53
32 42 53
32 42 53
32 42 53
32 42 53
32 42 53
32 42 53
32 42 53
32 42 53
32 42 53
32 42 53
32 42 53
32 42 53
32 42 53
32 42 53
32 42 53
32 42 53
32 42 53
32 42 53
32 42 53
32 42 53
32 42 53
32 42 53
32 42 53
32 42 53
32 42 53
32 42 53
32 42 53
32 42 53
32 42 53
32 42 53
32 42 53
32 42 53
32 42 53
32 42 53
32 42 53
32 42 53
32 42 53
32 42 53
32 42 53
32 42 53
32 42 53
32 42 53
32 42 53
32 42 53
32 42 53
32 42 53
32 42 53
32 42 53
32 42 53
32 42 53
32 42 53
32 42 53
32 42 53
32 42 53
32 42 53
32 42 53
32 42 53
32 42 53
32 42 53
32 42 53
32 42 53
32 42 53
32 42 53
32 42 53
32 42 53
32 42 53
32 42 53
32 42 53
32 42 53
32 42 53
32 42 53
32 42 53
32 42 53
32 42 53
32 42 53
32 42 53
32 42 53
32 42 53
32 42 53
32 42 53
32 42 53
32 42 53
32 42 53
32 42 53
32 42 53
32 42 53
32 42 53
32 42 53
32 42 53
32 42 53
32 42 53
32 42 53
32 42 53
32 42 53
32 42 53
32 42 53
32 42 53
32 42 53
32 42 53
32 42 53
32 42 53
32 42 53
32 42 53
32 42 53
32 42 53
32 42 53
32 42 53
32 42 53
32 42 53
32 42 53
32 42 53
32 42 53
32 42 53
32 42 53
32 42 53
32 42 53
32 42 53
32 42 53
32 42 53
32 42 53
32 42 53
32 42 53
32 42 53
32 42 53
32 42 53
32 42 53
32 42 53
32 42 53
32 42 53
32 42 53
32 42 53
32 42 53
32 42 53
32 42 53
32 42 53
32 42 53
32 42 53
32 42 53
32 42 53
32 42 53
32 42 53
32 42 53
32 42 53
32 42 53
32 42 53
32 42 53
32 42 53
32 42 53
32 42 53
32 42 53
32 42 53
32 42 53
32 42 53
32 42 53
32 42 53
32 42 53
32 42 53
32 42 53
32 42 53
32 42 53
32 42 53
32 42 53
32 42 53
32 42 53
32 42 53
32 42 53
32 42 53
32 42 53
32 42 53
32 42 53
32 42 53
32 42 53
32 42 53
32 42 53
32 42 53
32 42 53
32 42 53
32 42 53
32 42 53
32 42 53
32 42 53
32 42 53
32 42 53
32 42 53
32 42 53
32 42 53
32 42 53
32 42 53
32 42 53
32 42 53
32 42 53
32 42 53
32 42 53
32 42 53
32 42 53
32 42 53
32 42 53
32 42 53
32 42 53
32 42 53
32 42 53
32 42 53
32 42 53
32 42 53
32 42 53
32 42 53
32 42 53
32 42 53
32 42 53
32 42 53
32 42 53
32 42 53
32 42 53
32 42 53
32 42 53
32 42 53
32 42 53
32 42 53
32 42 53
32 42 53
32 42 53
32 42 53
106 124 145
106 124 145
17 24 32
17 24 32
17 24 32
17 24 32
17 24 32
17 24 32
17 24 32
17 24 32
17 24 32
17 24 32
17 24 32
17 24 32
17 24 32
17 24 32
17 24 32
17 24 32
17 24 32
17 24 32
17 24 32
17 24 32
17 24 32
17 24 32
17 24 32
17 24 32
106 124 145
106 124 145
32 42 53
32 42 53
32 42 53
32 42 53
32 42 53
32 42 53
32 42 53
32 42 53
32 42 53
32 42 53
32 42 53
32 42 53
32 42 53
32 42 53
32 42 53
32 42 53
32 42 53
32 42 53
32 42 53
32 42 53
32 42 53
32 42 53
32 42 53
32 42 53
32 42 53
32 42 53
32 42 53
32 42 53
32 42 53
32 42 53
32 42 53
32 42 53
32 42 53
32 42 53
32 42 53
32 42 53
32 42 53
32 42 53
32 42 53
32 42 53
32 42 53
32 42 53
32 42 53
32 42 53
32 42 53
32 42 53
32 42 53
32 42 53
32 42 53
32 42 53
32 42 53
32 42 53
32 42 53
32 42 53
32 42 53
32 42 53
32 42 53
32 42 53
32 42 53
32 42 53
32 42 53
32 42 53
32 42 53
32 42 53
32 42 53
32 42 53
32 42 53
32 42 53
32 42 53
32 42 53
32 42 53
32 42 53
32 42 53
32 42 53
32 42 53
32 42 53
32 42 53
32 42 53
32 42 53
32 42 53
32 42 53
32 42 53
32 42 53
32 42 53
32 42 53
32 42 53
32 42 53
32 42 53
32 42 53
32 42 53
32 42 53
32 42 53
32 42 53
32 42 53
32 42 53
32 42 53
32 42 53
32 42 53
32 42 53
32 42 53
32 42 53
32 42 53
32 42 53
32 42 53
32 42 53
32 42 53
32 42 53
32 42 53
32 42 53
32 42 53
32 42 53
32 42 53
32 42 53
32 42 53
32 42 53
32 42 53
32 42 53
32 42 53
32 42 53
32 42 53
32 42 53
32 42 53
32 42 53
32 42 53
32 42 53
32 42 53
32 42 53
32 42 53
32 42 53
32 42 53
32 42 53
32 42 53
32 42 53
32 42 53
32 42 53
32 42 53
32 42 53
32 42 53
32 42 53
32 42 53
32 42 53
32 42 53
32 42 53
32 42 53
32 42 53
32 42 53
32 42 53
32 42 53
32 42 53
32 42 53
32 42 53
32 42 53
32 42 53
32 42 53
32 42 53
32 42 53
32 42 53
32 42 53
32 42 53
32 42 53
32 42 53
32 42 53
32 42 53
32 42 53
32 42 53
32 42 53
32 42 53
32 42 53
32 42 53
32 42 53
32 42 53
32 42 53
32 42 53
32 42 53
32 42 53
32 42 53
32 42 53
32 42 53
32 42 53
32 42 53
32 42 53
32 42 53
32 42 53
32 42 53
32 42 53
32 42 53
32 42 53
32 42 53
32 42 53
32 42 53
32 42 53
32 42 53
32 42 53
32 42 53
32 42 53
32 42 53
32 42 53
32 42 53
32 42 53
32 42 53
32 42 53
32 42 53
32 42 53
32 42 53
32 42 53
32 42 53
32 42 53
32 42 53
32 42 53
32 42 53
32 42 53
32 42 53
32 42 53
32 42 53
32 42 53
32 42 53
32 42 53
32 42 53
32 42 53
32 42 53
32 42 53
32 42 53
32 42 53
32 42 53
32 42 53
32 42 53
32 42 53
32 42 53
32 42 53
32 42 53
32 42 53
32 42 53
32 42 53
32 42 53
32 42 53
32 42 53
32 42 53
32 42 53
32 42 53
32 42 53
32 42 53
32 42 53
32 42 53
32 42 53
32 42 53
32 42 53
32 42 53
32 42 53
32 42 53
32 42 53
32 42 53
32 42 53
32 42 53
32 42 53
32 42 53
32 42 53
32 42 53
32 42 53
32 42 53
32 42 53
32 42 53
32 42 53
32 42 53
32 42 53
32 42 53
32 42 53
32 42 53
32 42 53
32 42 53
32 42 53
32 42 53
32 42 53
32 42 53
32 42 53
32 42 53
32 42 53
32 42 53
32 42 53
32 42 53
32 42 53
32 42 53
32 42 53
32 42 53
32 42 53
32 42 53
32 42 53
32 42 53
32 42 53
32 42 53
32 42 53
32 42 53
32 42 53
106 124 145
106 124 145
17 24 32
17 24 32
17 24 32
17 24 32
17 24 32
17 24 32
17 24 32
17 24 32
17 24 32
17 24 32
17 24 32
17 24 32
17 24 32
17 24 32
17 24 32
17 24 32
17 24 32
17 24 32
17 24 32
17 24 32
17 24 32
17 24 32
17 24 32
17 24 32
106 124 145
106 124 145
32 42 53
32 42 53
32 42 53
32 42 53
32 42 53
32 42 53
32 42 53
32 42 53
32 42 53
32 42 53
32 42 53
32 42 53
32 42 53
32 42 53
242 247 255
242 247 255
242 247 255
242 247 255
242 247 255
242 247 255
32 42 53
32 42 53
32 42 53
32 42 53
32 42 53
32 42 53
32 42 53
32 42 53
32 42 53
32 42 53
32 42 53
32 42 53
32 42 53
32 42 53
32 42 53
32 42 53
32 42 53
32 42 53
32 42 53
32 42 53
32 42 53
32 42 53
32 42 53
32 42 53
32 42 53
32 42 53
32 42 53
32 42 53
32 42 53
32 42 53
32 42 53
32 42 53
32 42 53
32 42 53
32 42 53
32 42 53
32 42 53
32 42 53
32 42 53
32 42 53
32 42 53
32 42 53
32 42 53
32 42 53
32 42 53
32 42 53
32 42 53
32 42 53
32 42 53
32 42 53
32 42 53
32 42 53
32 42 53
32 42 53
32 42 53
32 42 53
32 42 53
32 42 53
32 42 53
32 42 53
32 42 53
32 42 53
32 42 53
32 42 53
32 42 53
32 42 53
32 42 53
32 42 53
32 42 53
32 42 53
32 42 53
32 42 53
32 42 53
32 42 53
32 42 53
32 42 53
32 42 53
32 42 53
32 42 53
32 42 53
32 42 53
32 42 53
32 42 53
32 42 53
32 42 53
32 42 53
32 42 53
32 42 53
32 42 53
32 42 53
242 247 255
242 247 255
242 247 255
242 247 255
242 247 255
242 247 255
242 247 255
242 247 255
32 42 53
32 42 53
32 42 53
32 42 53
32 42 53
32 42 53
32 42 53
32 42 53
32 42 53
32 42 53
32 42 53
32 42 53
32 42 53
32 42 53
32 42 53
32 42 53
32 42 53
32 42 53
32 42 53
32 42 53
32 42 53
32 42 53
32 42 53
32 42 53
32 42 53
32 42 53
32 42 53
32 42 53
32 42 53
32 42 53
32 42 53
32 42 53
32 42 53
32 42 53
32 42 53
32 42 53
32 42 53
32 42 53
32 42 53
32 42 53
32 42 53
32 42 53
32 42 53
32 42 53
32 42 53
32 42 53
32 42 53
32 42 53
32 42 53
32 42 53
32 42 53
32 42 53
32 42 53
32 42 53
32 42 53
32 42 53
32 42 53
32 42 53
32 42 53
32 42 53
32 42 53
32 42 53
32 42 53
32 42 53
32 42 53
32 42 53
32 42 53
32 42 53
32 42 53
32 42 53
32 42 53
32 42 53
32 42 53
32 42 53
32 42 53
32 42 53
32 42 53
32 42 53
32 42 53
32 42 53
32 42 53
32 42 53
32 42 53
32 42 53
32 42 53
32 42 53
32 42 53
32 42 53
242 247 255
242 247 255
32 42 53
32 42 53
32 42 53
32 42 53
32 42 53
32 42 53
242 247 255
242 247 255
32 42 53
32 42 53
32 42 53
32 42 53
32 42 53
32 42 53
32 42 53
32 42 53
242 247 255
242 247 255
32 42 53
32 42 53
32 42 53
32 42 53
32 42 53
32 42 53
32 42 53
32 42 53
32 42 53
32 42 53
32 42 53
32 42 53
32 42 53
32 42 53
32 42 53
32 42 53
32 42 53
32 42 53
32 42 53
32 42 53
32 42 53
32 42 53
32 42 53
32 42 53
32 42 53
32 42 53
32 42 53
32 42 53
32 42 53
32 42 53
242 247 255
242 247 255
32 42 53
32 42 53
32 42 53
32 42 53
32 42 53
32 42 53
32 42 53
32 42 53
32 42 53
32 42 53
32 42 53
32 42 53
32 42 53
32 42 53
32 42 53
32 42 53
32 42 53
32 42 53
32 42 53
32 42 53
32 42 53
32 42 53
32 42 53
32 42 53
32 42 53
32 42 53
32 42 53
32 42 53
32 42 53
32 42 53
32 42 53
32 42 53
32 42 53
32 42 53
106 124 145
106 124 145
17 24 32
17 24 32
17 24 32
17 24 32
17 24 32
17 24 32
17 24 32
17 24 32
17 24 32
17 24 32
17 24 32
17 24 32
17 24 32
17 24 32
17 24 32
17 24 32
17 24 32
17 24 32
17 24 32
17 24 32
17 24 32
17 24 32
17 24 32
17 24 32
106 124 145
106 124 145
32 42 53
32 42 53
32 42 53
32 42 53
32 42 53
32 42 53
32 42 53
32 42 53
32 42 53
32 42 53
32 42 53
32 42 53
32 42 53
32 42 53
242 247 255
242 247 255
242 247 255
242 247 255
242 247 255
242 247 255
32 42 53
32 42 53
32 42 53
32 42 53
32 42 53
32 42 53
32 42 53
32 42 53
32 42 53
32 42 53
32 42 53
32 42 53
32 42 53
32 42 53
32 42 53
32 42 53
32 42 53
32 42 53
32 42 53
32 42 53
32 42 53
32 42 53
32 42 53
32 42 53
32 42 53
32 42 53
32 42 53
32 42 53
32 42 53
32 42 53
32 42 53
32 42 53
32 42 53
32 42 53
32 42 53
32 42 53
32 42 53
32 42 53
32 42 53
32 42 53
32 42 53
32 42 53
32 42 53
32 42 53
32 42 53
32 42 53
32 42 53
32 42 53
32 42 53
32 42 53
32 42 53
32 42 53
32 42 53
32 42 53
32 42 53
32 42 53
32 42 53
32 42 53
32 42 53
32 42 53
32 42 53
32 42 53
32 42 53
32 42 53
32 42 53
32 42 53
32 42 53
32 42 53
32 42 53
32 42 53
32 42 53
32 42 53
32 42 53
32 42 53
32 42 53
32 42 53
32 42 53
32 42 53
32 42 53
32 42 53
32 42 53
32 42 53
32 42 53
32 42 53
32 42 53
32 42 53
32 42 53
32 42 53
32 42 53
32 42 53
242 247 255
242 247 255
242 247 255
242 247 255
242 247 255
242 247 255
242 247 255
242 247 255
32 42 53
32 42 53
32 42 53
32 42 53
32 42 53
32 42 53
32 42 53
32 42 53
32 42 53
32 42 53
32 42 53
32 42 53
32 42 53
32 42 53
32 42 53
32 42 53
32 42 53
32 42 53
32 42 53
32 42 53
32 42 53
32 42 53
32 42 53
32 42 53
32 42 53
32 42 53
32 42 53
32 42 53
32 42 53
32 42 53
32 42 53
32 42 53
32 42 53
32 42 53
32 42 53
32 42 53
32 42 53
32 42 53
32 42 53
32 42 53
32 42 53
32 42 53
32 42 53
32 42 53
32 42 53
32 42 53
32 42 53
32 42 53
32 42 53
32 42 53
32 42 53
32 42 53
32 42 53
32 42 53
32 42 53
32 42 53
32 42 53
32 42 53
32 42 53
32 42 53
32 42 53
32 42 53
32 42 53
32 42 53
32 42 53
32 42 53
32 42 53
32 42 53
32 42 53
32 42 53
32 42 53
32 42 53
32 42 53
32 42 53
32 42 53
32 42 53
32 42 53
32 42 53
32 42 53
32 42 53
32 42 53
32 42 53
32 42 53
32 42 53
32 42 53
32 42 53
32 42 53
32 42 53
242 247 255
242 247 255
32 42 53
32 42 53
32 42 53
32 42 53
32 42 53
32 42 53
242 247 255
242 247 255
32 42 53
32 42 53
32 42 53
32 42 53
32 42 53
32 42 53
32 42 53
32 42 53
242 247 255
242 247 255
32 42 53
32 42 53
32 42 53
32 42 53
32 42 53
32 42 53
32 42 53
32 42 53
32 42 53
32 42 53
32 42 53
32 42 53
32 42 53
32 42 53
32 42 53
32 42 53
32 42 53
32 42 53
32 42 53
32 42 53
32 42 53
32 42 53
32 42 53
32 42 53
32 42 53
32 42 53
32 42 53
32 42 53
32 42 53
32 42 53
242 247 255
242 247 255
32 42 53
32 42 53
32 42 53
32 42 53
32 42 53
32 42 53
32 42 53
32 42 53
32 42 53
32 42 53
32 42 53
32 42 53
32 42 53
32 42 53
32 42 53
32 42 53
32 42 53
32 42 53
32 42 53
32 42 53
32 42 53
32 42 53
32 42 53
32 42 53
32 42 53
32 42 53
32 42 53
32 42 53
32 42 53
32 42 53
32 42 53
32 42 53
32 42 53
32 42 53
106 124 145
106 124 145
17 24 32
17 24 32
17 24 32
17 24 32
17 24 32
17 24 32
17 24 32
17 24 32
17 24 32
17 24 32
17 24 32
17 24 32
17 24 32
17 24 32
17 24 32
17 24 32
17 24 32
17 24 32
17 24 32
17 24 32
17 24 32
17 24 32
17 24 32
17 24 32
106 124 145
106 124 145
32 42 53
32 42 53
32 42 53
32 42 53
32 42 53
32 42 53
32 42 53
32 42 53
32 42 53
32 42 53
32 42 53
32 42 53
32 42 53
32 42 53
32 42 53
32 42 53
242 247 255
242 247 255
32 42 53
32 42 53
32 42 53
32 42 53
32 42 53
32 42 53
32 42 53
32 42 53
32 42 53
32 42 53
32 42 53
32 42 53
32 42 53
32 42 53
32 42 53
32 42 53
32 42 53
32 42 53
32 42 53
32 42 53
32 42 53
32 42 53
32 42 53
32 42 53
32 42 53
32 42 53
32 42 53
32 42 53
32 42 53
32 42 53
32 42 53
32 42 53
32 42 53
32 42 53
32 42 53
32 42 53
32 42 53
32 42 53
32 42 53
32 42 53
32 42 53
32 42 53
32 42 53
32 42 53
32 42 53
32 42 53
32 42 53
32 42 53
32 42 53
32 42 53
32 42 53
32 42 53
32 42 53
32 42 53
32 42 53
32 42 53
32 42 53
32 42 53
32 42 53
32 42 53
32 42 53
32 42 53
32 42 53
32 42 53
32 42 53
32 42 53
32 42 53
32 42 53
32 42 53
32 42 53
32 42 53
32 42 53
32 42 53
32 42 53
32 42 53
32 42 53
32 42 53
32 42 53
32 42 53
32 42 53
32 42 53
32 42 53
32 42 53
32 42 53
32 42 53
32 42 53
32 42 53
32 42 53
32 42 53
32 42 53
242 247 255
242 247 255
32 42 53
32 42 53
32 42 53
32 42 53
32 42 53
32 42 53
32 42 53
32 42 53
32 42 53
32 42 53
32 42 53
32 42 53
32 42 53
32 42 53
32 42 53
32 42 53
32 42 53
32 42 53
32 42 53
32 42 53
32 42 53
32 42 53
32 42 53
32 42 53
32 42 53
32 42 53
32 42 53
32 42 53
32 42 53
32 42 53
32 42 53
32 42 53
32 42 53
32 42 53
32 42 53
32 42 53
32 42 53
32 42 53
32 42 53
32 42 53
32 42 53
32 42 53
32 42 53
32 42 53
32 42 53
32 42 53
32 42 53
32 42 53
32 42 53
32 42 53
32 42 53
32 42 53
32 42 53
32 42 53
32 42 53
32 42 53
32 42 53
32 42 53
32 42 53
32 42 53
32 42 53
32 42 53
32 42 53
32 42 53
32 42 53
32 42 53
32 42 53
32 42 53
32 42 53
32 42 53
32 42 53
32 42 53
32 42 53
32 42 53
32 42 53
32 42 53
32 42 53
32 42 53
32 42 53
32 42 53
32 42 53
32 42 53
32 42 53
32 42 53
32 42 53
32 42 53
32 42 53
32 42 53
32 42 53
32 42 53
32 42 53
32 42 53
32 42 53
32 42 53
32 42 53
32 42 53
242 247 255
242 247 255
32 42 53
32 42 53
32 42 53
32 42 53
32 42 53
32 42 53
242 247 255
242 247 255
32 42 53
32 42 53
32 42 53
32 42 53
32 42 53
32 42 53
32 42 53
32 42 53
32 42 53
32 42 53
32 42 53
32 42 53
32 42 53
32 42 53
32 42 53
32 42 53
32 42 53
32 42 53
32 42 53
32 42 53
32 42 53
32 42 53
32 42 53
32 42 53
32 42 53
32 42 53
32 42 53
32 42 53
32 42 53
32 42 53
32 42 53
32 42 53
32 42 53
32 42 53
32 42 53
32 42 53
32 42 53
32 42 53
32 42 53
32 42 53
242 247 255
242 247 255
32 42 53
32 42 53
32 42 53
32 42 53
32 42 53
32 42 53
32 42 53
32 42 53
32 42 53
32 42 53
32 42 53
32 42 53
32 42 53
32 42 53
32 42 53
32 42 53
32 42 53
32 42 53
32 42 53
32 42 53
32 42 53
32 42 53
32 42 53
32 42 53
32 42 53
32 42 53
32 42 53
32 42 53
32 42 53
32 42 53
32 42 53
32 42 53
32 42 53
32 42 53
106 124 145
106 124 145
17 24 32
17 24 32
17 24 32
17 24 32
17 24 32
17 24 32
17 24 32
17 24 32
17 24 32
17 24 32
17 24 32
17 24 32
17 24 32
17 24 32
17 24 32
17 24 32
17 24 32
17 24 32
17 24 32
17 24 32
17 24 32
17 24 32
17 24 32
17 24 32
106 124 145
106 124 145
32 42 53
32 42 53
32 42 53
32 42 53
32 42 53
32 42 53
32 42 53
32 42 53
32 42 53
32 42 53
32 42 53
32 42 53
32 42 53
32 42 53
32 42 53
32 42 53
242 247 255
242 247 255
32 42 53
32 42 53
32 42 53
32 42 53
32 42 53
32 42 53
32 42 53
32 42 53
32 42 53
32 42 53
32 42 53
32 42 53
32 42 53
32 42 53
32 42 53
32 42 53
32 42 53
32 42 53
32 42 53
32 42 53
32 42 53
32 42 53
32 42 53
32 42 53
32 42 53
32 42 53
32 42 53
32 42 53
32 42 53
32 42 53
32 42 53
32 42 53
32 42 53
32 42 53
32 42 53
32 42 53
32 42 53
32 42 53
32 42 53
32 42 53
32 42 53
32 42 53
32 42 53
32 42 53
32 42 53
32 42 53
32 42 53
32 42 53
32 42 53
32 42 53
32 42 53
32 42 53
32 42 53
32 42 53
32 42 53
32 42 53
32 42 53
32 42 53
32 42 53
32 42 53
32 42 53
32 42 53
32 42 53
32 42 53
32 42 53
32 42 53
32 42 53
32 42 53
32 42 53
32 42 53
32 42 53
32 42 53
32 42 53
32 42 53
32 42 53
32 42 53
32 42 53
32 42 53
32 42 53
32 42 53
32 42 53
32 42 53
32 42 53
32 42 53
32 42 53
32 42 53
32 42 53
32 42 53
32 42 53
32 42 53
242 247 255
242 247 255
32 42 53
32 42 53
32 42 53
32 42 53
32 42 53
32 42 53
32 42 53
32 42 53
32 42 53
32 42 53
32 42 53
32 42 53
32 42 53
32 42 53
32 42 53
32 42 53
32 42 53
32 42 53
32 42 53
32 42 53
32 42 53
32 42 53
32 42 53
32 42 53
32 42 53
32 42 53
32 42 53
32 42 53
32 42 53
32 42 53
32 42 53
32 42 53
32 42 53
32 42 53
32 42 53
32 42 53
32 42 53
32 42 53
32 42 53
32 42 53
32 42 53
32 42 53
32 42 53
32 42 53
32 42 53
32 42 53
32 42 53
32 42 53
32 42 53
32 42 53
32 42 53
32 42 53
32 42 53
32 42 53
32 42 53
32 42 53
32 42 53
32 42 53
32 42 53
32 42 53
32 42 53
32 42 53
32 42 53
32 42 53
32 42 53
32 42 53
32 42 53
32 42 53
32 42 53
32 42 53
32 42 53
32 42 53
32 42 53
32 42 53
32 42 53
32 42 53
32 42 53
32 42 53
32 42 53
32 42 53
32 42 53
32 42 53
32 42 53
32 42 53
32 42 53
32 42 53
32 42 53
32 42 53
32 42 53
32 42 53
32 42 53
32 42 53
32 42 53
32 42 53
32 42 53
32 42 53
242 247 255
242 247 255
32 42 53
32 42 53
32 42 53
32 42 53
32 42 53
32 42 53
242 247 255
242 247 255
32 42 53
32 42 53
32 42 53
32 42 53
32 42 53
32 42 53
32 42 53
32 42 53
32 42 53
32 42 53
32 42 53
32 42 53
32 42 53
32 42 53
32 42 53
32 42 53
32 42 53
32 42 53
32 42 53
32 42 53
32 42 53
32 42 53
32 42 53
32 42 53
32 42 53
32 42 53
32 42 53
32 42 53
32 42 53
32 42 53
32 42 53
32 42 53
32 42 53
32 42 53
32 42 53
32 42 53
32 42 53
32 42 53
32 42 53
32 42 53
242 247 255
242 247 255
32 42 53
32 42 53
32 42 53
32 42 53
32 42 53
32 42 53
32 42 53
32 42 53
32 42 53
32 42 53
32 42 53
32 42 53
32 42 53
32 42 53
32 42 53
32 42 53
32 42 53
32 42 53
32 42 53
32 42 53
32 42 53
32 42 53
32 42 53
32 42 53
32 42 53
32 42 53
32 42 53
32 42 53
32 42 53
32 42 53
32 42 53
32 42 53
32 42 53
32 42 53
106 124 145
106 124 145
17 24 32
17 24 32
17 24 32
17 24 32
17 24 32
17 24 32
17 24 32
17 24 32
17 24 32
17 24 32
17 24 32
17 24 32
17 24 32
17 24 32
17 24 32
17 24 32
17 24 32
17 24 32
17 24 32
17 24 32
17 24 32
17 24 32
17 24 32
17 24 32
106 124 145
106 124 145
32 42 53
32 42 53
32 42 53
32 42 53
32 42 53
32 42 53
32 42 53
32 42 53
32 42 53
32 42 53
32 42 53
32 42 53
32 42 53
32 42 53
32 42 53
32 42 53
242 247 255
242 247 255
32 42 53
32 42 53
32 42 53
32 42 53
32 42 53
32 42 53
32 42 53
32 42 53
242 247 255
242 247 255
242 247 255
242 247 255
242 247 255
242 247 255
32 42 53
32 42 53
32 42 53
32 42 53
32 42 53
32 42 53
242 247 255
242 247 255
32 42 53
32 42 53
32 42 53
32 42 53
32 42 53
32 42 53
242 247 255
242 247 255
32 42 53
32 42 53
32 42 53
32 42 53
32 42 53
32 42 53
242 247 255
242 247 255
242 247 255
242 247 255
242 247 255
242 247 255
32 42 53
32 42 53
32 42 53
32 42 53
32 42 53
32 42 53
32 42 53
32 42 53
242 247 255
242 247 255
242 247 255
242 247 255
242 247 255
242 247 255
242 247 255
242 247 255
32 42 53
32 42 53
32 42 53
32 42 53
32 42 53
32 42 53
242 247 255
242 247 255
242 247 255
242 247 255
242 247 255
242 247 255
242 247 255
242 247 255
32 42 53
32 42 53
32 42 53
32 42 53
32 42 53
32 42 53
32 42 53
32 42 53
32 42 53
32 42 53
32 42 53
32 42 53
32 42 53
32 42 53
32 42 53
32 42 53
32 42 53
32 42 53
242 247 255
242 247 255
32 42 53
32 42 53
32 42 53
32 42 53
32 42 53
32 42 53
32 42 53
32 42 53
32 42 53
32 42 53
32 42 53
32 42 53
32 42 53
32 42 53
242 247 255
242 247 255
242 247 255
242 247 255
242 247 255
242 247 255
32 42 53
32 42 53
32 42 53
32 42 53
32 42 53
32 42 53
242 247 255
242 247 255
32 42 53
32 42 53
242 247 255
242 247 255
242 247 255
242 247 255
32 42 53
32 42 53
32 42 53
32 42 53
32 42 53
32 42 53
242 247 255
242 247 255
32 42 53
32 42 53
32 42 53
32 42 53
32 42 53
32 42 53
242 247 255
242 247 255
32 42 53
32 42 53
32 42 53
32 42 53
32 42 53
32 42 53
242 247 255
242 247 255
242 247 255
242 247 255
242 247 255
242 247 255
32 42 53
32 42 53
32 42 53
32 42 53
32 42 53
32 42 53
32 42 53
32 42 53
242 247 255
242 247 255
242 247 255
242 247 255
242 247 255
242 247 255
242 247 255
242 247 255
32 42 53
32 42 53
32 42 53
32 42 53
32 42 53
32 42 53
32 42 53
32 42 53
32 42 53
32 42 53
32 42 53
32 42 53
32 42 53
32 42 53
32 42 53
32 42 53
32 42 53
32 42 53
242 247 255
242 247 255
32 42 53
32 42 53
32 42 53
32 42 53
32 42 53
32 42 53
242 247 255
242 247 255
32 42 53
32 42 53
32 42 53
32 42 53
32 42 53
32 42 53
242 247 255
242 247 255
242 247 255
242 247 255
32 42 53
32 42 53
32 42 53
32 42 53
32 42 53
32 42 53
32 42 53
32 42 53
242 247 255
242 247 255
32 42 53
32 42 53
242 247 255
242 247 255
242 247 255
242 247 255
32 42 53
32 42 53
32 42 53
32 42 53
32 42 53
32 42 53
32 42 53
32 42 53
242 247 255
242 247 255
242 247 255
242 247 255
32 42 53
32 42 53
242 247 255
242 247 255
32 42 53
32 42 53
32 42 53
32 42 53
32 42 53
32 42 53
242 247 255
242 247 255
242 247 255
242 247 255
242 247 255
242 247 255
32 42 53
32 42 53
32 42 53
32 42 53
32 42 53
32 42 53
242 247 255
242 247 255
32 42 53
32 42 53
32 42 53
32 42 53
32 42 53
32 42 53
242 247 255
242 247 255
32 42 53
32 42 53
32 42 53
32 42 53
32 42 53
32 42 53
106 124 145
106 124 145
17 24 32
17 24 32
17 24 32
17 24 32
17 24 32
17 24 32
17 24 32
17 24 32
17 24 32
17 24 32
17 24 32
17 24 32
17 24 32
17 24 32
17 24 32
17 24 32
17 24 32
17 24 32
17 24 32
17 24 32
17 24 32
17 24 32
17 24 32
17 24 32
106 124 145
106 124 145
32 42 53
32 42 53
32 42 53
32 42 53
32 42 53
32 42 53
32 42 53
32 42 53
32 42 53
32 42 53
32 42 53
32 42 53
32 42 53
32 42 53
32 42 53
32 42 53
242 247 255
242 247 255
32 42 53
32 42 53
32 42 53
32 42 53
32 42 53
32 42 53
32 42 53
32 42 53
242 247 255
242 247 255
242 247 255
242 247 255
242 247 255
242 247 255
32 42 53
32 42 53
32 42 53
32 42 53
32 42 53
32 42 53
242 247 255
242 247 255
32 42 53
32 42 53
32 42 53
32 42 53
32 42 53
32 42 53
242 247 255
242 247 255
32 42 53
32 42 53
32 42 53
32 42 53
32 42 53
32 42 53
242 247 255
242 247 255
242 247 255
242 247 255
242 247 255
242 247 255
32 42 53
32 42 53
32 42 53
32 42 53
32 42 53
32 42 53
32 42 53
32 42 53
242 247 255
242 247 255
242 247 255
242 247 255
242 247 255
242 247 255
242 247 255
242 247 255
32 42 53
32 42 53
32 42 53
32 42 53
32 42 53
32 42 53
242 247 255
242 247 255
242 247 255
242 247 255
242 247 255
242 247 255
242 247 255
242 247 255
32 42 53
32 42 53
32 42 53
32 42 53
32 42 53
32 42 53
32 42 53
32 42 53
32 42 53
32 42 53
32 42 53
32 42 53
32 42 53
32 42 53
32 42 53
32 42 53
32 42 53
32 42 53
242 247 255
242 247 255
32 42 53
32 42 53
32 42 53
32 42 53
32 42 53
32 42 53
32 42 53
32 42 53
32 42 53
32 42 53
32 42 53
32 42 53
32 42 53
32 42 53
242 247 255
242 247 255
242 247 255
242 247 255
242 247 255
242 247 255
32 42 53
32 42 53
32 42 53
32 42 53
32 42 53
32 42 53
242 247 255
242 247 255
32 42 53
32 42 53
242 247 255
242 247 255
242 247 255
242 247 255
32 42 53
32 42 53
32 42 53
32 42 53
32 42 53
32 42 53
242 247 255
242 247 255
32 42 53
32 42 53
32 42 53
32 42 53
32 42 53
32 42 53
242 247 255
242 247 255
32 42 53
32 42 53
32 42 53
32 42 53
32 42 53
32 42 53
242 247 255
242 247 255
242 247 255
242 247 255
242 247 255
242 247 255
32 42 53
32 42 53
32 42 53
32 42 53
32 42 53
32 42 53
32 42 53
32 42 53
242 247 255
242 247 255
242 247 255
242 247 255
242 247 255
242 247 255
242 247 255
242 247 255
32 42 53
32 42 53
32 42 53
32 42 53
32 42 53
32 42 53
32 42 53
32 42 53
32 42 53
32 42 53
32 42 53
32 42 53
32 42 53
32 42 53
32 42 53
32 42 53
32 42 53
32 42 53
242 247 255
242 247 255
32 42 53
32 42 53
32 42 53
32 42 53
32 42 53
32 42 53
242 247 255
242 247 255
32 42 53
32 42 53
32 42 53
32 42 53
32 42 53
32 42 53
242 247 255
242 247 255
242 247 255
242 247 255
32 42 53
32 42 53
32 42 53
32 42 53
32 42 53
32 42 53
32 42 53
32 42 53
242 247 255
242 247 255
32 42 53
32 42 53
242 247 255
242 247 255
242 247 255
242 247 255
32 42 53
32 42 53
32 42 53
32 42 53
32 42 53
32 42 53
32 42 53
32 42 53
242 247 255
242 247 255
242 247 255
242 247 255
32 42 53
32 42 53
242 247 255
242 247 255
32 42 53
32 42 53
32 42 53
32 42 53
32 42 53
32 42 53
242 247 255
242 247 255
242 247 255
242 247 255
242 247 255
242 247 255
32 42 53
32 42 53
32 42 53
32 42 53
32 42 53
32 42 53
242 247 255
242 247 255
32 42 53
32 42 53
32 42 53
32 42 53
32 42 53
32 42 53
242 247 255
242 247 255
32 42 53
32 42 53
32 42 53
32 42 53
32 42 53
32 42 53
106 124 145
106 124 145
17 24 32
17 24 32
17 24 32
17 24 32
17 24 32
17 24 32
17 24 32
17 24 32
17 24 32
17 24 32
17 24 32
17 24 32
17 24 32
17 24 32
17 24 32
17 24 32
17 24 32
17 24 32
17 24 32
17 24 32
17 24 32
17 24 32
17 24 32
17 24 32
106 124 145
106 124 145
32 42 53
32 42 53
32 42 53
32 42 53
32 42 53
32 42 53
32 42 53
32 42 53
32 42 53
32 42 53
32 42 53
32 42 53
32 42 53
32 42 53
32 42 53
32 42 53
242 247 255
242 247 255
32 42 53
32 42 53
32 42 53
32 42 53
32 42 53
32 42 53
32 42 53
32 42 53
32 42 53
32 42 53
32 42 53
32 42 53
32 42 53
32 42 53
242 247 255
242 247 255
32 42 53
32 42 53
32 42 53
32 42 53
242 247 255
242 247 255
32 42 53
32 42 53
32 42 53
32 42 53
32 42 53
32 42 53
242 247 255
242 247 255
32 42 53
32 42 53
32 42 53
32 42 53
242 247 255
242 247 255
32 42 53
32 42 53
32 42 53
32 42 53
32 42 53
32 42 53
242 247 255
242 247 255
32 42 53
32 42 53
32 42 53
32 42 53
242 247 255
242 247 255
32 42 53
32 42 53
32 42 53
32 42 53
32 42 53
32 42 53
32 42 53
32 42 53
32 42 53
32 42 53
32 42 53
32 42 53
242 247 255
242 247 255
32 42 53
32 42 53
32 42 53
32 42 53
32 42 53
32 42 53
32 42 53
32 42 53
32 42 53
32 42 53
32 42 53
32 42 53
32 42 53
32 42 53
32 42 53
32 42 53
32 42 53
32 42 53
32 42 53
32 42 53
32 42 53
32 42 53
32 42 53
32 42 53
32 42 53
32 42 53
242 247 255
242 247 255
32 42 53
32 42 53
32 42 53
32 42 53
32 42 53
32 42 53
32 42 53
32 42 53
32 42 53
32 42 53
32 42 53
32 42 53
32 42 53
32 42 53
32 42 53
32 42 53
32 42 53
32 42 53
32 42 53
32 42 53
242 247 255
242 247 255
32 42 53
32 42 53
32 42 53
32 42 53
242 247 255
242 247 255
242 247 255
242 247 255
32 42 53
32 42 53
32 42 53
32 42 53
242 247 255
242 247 255
32 42 53
32 42 53
32 42 53
32 42 53
242 247 255
242 247 255
32 42 53
32 42 53
32 42 53
32 42 53
32 42 53
32 42 53
242 247 255
242 247 255
32 42 53
32 42 53
32 42 53
32 42 53
32 42 53
32 42 53
32 42 53
32 42 53
32 42 53
32 42 53
32 42 53
32 42 53
242 247 255
242 247 255
32 42 53
32 42 53
32 42 53
32 42 53
242 247 255
242 247 255
32 42 53
32 42 53
32 42 53
32 42 53
32 42 53
32 42 53
32 42 53
32 42 53
32 42 53
32 42 53
32 42 53
32 42 53
32 42 53
32 42 53
32 42 53
32 42 53
32 42 53
32 42 53
32 42 53
32 42 53
32 42 53
32 42 53
32 42 53
32 42 53
32 42 53
32 42 53
242 247 255
242 247 255
32 42 53
32 42 53
242 247 255
242 247 255
32 42 53
32 42 53
242 247 255
242 247 255
32 42 53
32 42 53
32 42 53
32 42 53
32 42 53
32 42 53
32 42 53
32 42 53
242 247 255
242 247 255
32 42 53
32 42 53
32 42 53
32 42 53
32 42 53
32 42 53
32 42 53
32 42 53
242 247 255
242 247 255
242 247 255
242 247 255
32 42 53
32 42 53
32 42 53
32 42 53
242 247 255
242 247 255
32 42 53
32 42 53
32 42 53
32 42 53
242 247 255
242 247 255
32 42 53
32 42 53
32 42 53
32 42 53
242 247 255
242 247 255
242 247 255
242 247 255
32 42 53
32 42 53
32 42 53
32 42 53
242 247 255
242 247 255
32 42 53
32 42 53
32 42 53
32 42 53
32 42 53
32 42 53
242 247 255
242 247 255
32 42 53
32 42 53
32 42 53
32 42 53
242 247 255
242 247 255
32 42 53
32 42 53
242 247 255
242 247 255
32 42 53
32 42 53
242 247 255
242 247 255
32 42 53
32 42 53
32 42 53
32 42 53
32 42 53
32 42 53
106 124 145
106 124 145
17 24 32
17 24 32
17 24 32
17 24 32
17 24 32
17 24 32
17 24 32
17 24 32
17 24 32
17 24 32
17 24 32
17 24 32
17 24 32
17 24 32
17 24 32
17 24 32
17 24 32
17 24 32
17 24 32
17 24 32
17 24 32
17 24 32
17 24 32
17 24 32
106 124 145
106 124 145
32 42 53
32 42 53
32 42 53
32 42 53
32 42 53
32 42 53
32 42 53
32 42 53
32 42 53
32 42 53
32 42 53
32 42 53
32 42 53
32 42 53
32 42 53
32 42 53
242 247 255
242 247 255
32 42 53
32 42 53
32 42 53
32 42 53
32 42 53
32 42 53
32 42 53
32 42 53
32 42 53
32 42 53
32 42 53
32 42 53
32 42 53
32 42 53
242 247 255
242 247 255
32 42 53
32 42 53
32 42 53
32 42 53
242 247 255
242 247 255
32 42 53
32 42 53
32 42 53
32 42 53
32 42 53
32 42 53
242 247 255
242 247 255
32 42 53
32 42 53
32 42 53
32 42 53
242 247 255
242 247 255
32 42 53
32 42 53
32 42 53
32 42 53
32 42 53
32 42 53
242 247 255
242 247 255
32 42 53
32 42 53
32 42 53
32 42 53
242 247 255
242 247 255
32 42 53
32 42 53
32 42 53
32 42 53
32 42 53
32 42 53
32 42 53
32 42 53
32 42 53
32 42 53
32 42 53
32 42 53
242 247 255
242 247 255
32 42 53
32 42 53
32 42 53
32 42 53
32 42 53
32 42 53
32 42 53
32 42 53
32 42 53
32 42 53
32 42 53
32 42 53
32 42 53
32 42 53
32 42 53
32 42 53
32 42 53
32 42 53
32 42 53
32 42 53
32 42 53
32 42 53
32 42 53
32 42 53
32 42 53
32 42 53
242 247 255
242 247 255
32 42 53
32 42 53
32 42 53
32 42 53
32 42 53
32 42 53
32 42 53
32 42 53
32 42 53
32 42 53
32 42 53
32 42 53
32 42 53
32 42 53
32 42 53
32 42 53
32 42 53
32 42 53
32 42 53
32 42 53
242 247 255
242 247 255
32 42 53
32 42 53
32 42 53
32 42 53
242 247 255
242 247 255
242 247 255
242 247 255
32 42 53
32 42 53
32 42 53
32 42 53
242 247 255
242 247 255
32 42 53
32 42 53
32 42 53
32 42 53
242 247 255
242 247 255
32 42 53
32 42 53
32 42 53
32 42 53
32 42 53
32 42 53
242 247 255
242 247 255
32 42 53
32 42 53
32 42 53
32 42 53
32 42 53
32 42 53
32 42 53
32 42 53
32 42 53
32 42 53
32 42 53
32 42 53
242 247 255
242 247 255
32 42 53
32 42 53
32 42 53
32 42 53
242 247 255
242 247 255
32 42 53
32 42 53
32 42 53
32 42 53
32 42 53
32 42 53
32 42 53
32 42 53
32 42 53
32 42 53
32 42 53
32 42 53
32 42 53
32 42 53
32 42 53
32 42 53
32 42 53
32 42 53
32 42 53
32 42 53
32 42 53
32 42 53
32 42 53
32 42 53
32 42 53
32 42 53
242 247 255
242 247 255
32 42 53
32 42 53
242 247 255
242 247 255
32 42 53
32 42 53
242 247 255
242 247 255
32 42 53
32 42 53
32 42 53
32 42 53
32 42 53
32 42 53
32 42 53
32 42 53
242 247 255
242 247 255
32 42 53
32 42 53
32 42 53
32 42 53
32 42 53
32 42 53
32 42 53
32 42 53
242 247 255
242 247 255
242 247 255
242 247 255
32 42 53
32 42 53
32 42 53
32 42 53
242 247 255
242 247 255
32 42 53
32 42 53
32 42 53
32 42 53
242 247 255
242 247 255
32 42 53
32 42 53
32 42 53
32 42 53
242 247 255
242 247 255
242 247 255
242 247 255
32 42 53
32 42 53
32 42 53
32 42 53
242 247 255
242 247 255
32 42 53
32 42 53
32 42 53
32 42 53
32 42 53
32 42 53
242 247 255
242 247 255
32 42 53
32 42 53
32 42 53
32 42 53
242 247 255
242 247 255
32 42 53
32 42 53
242 247 255
242 247 255
32 42 53
32 42 53
242 247 255
242 247 255
32 42 53
32 42 53
32 42 53
32 42 53
32 42 53
32 42 53
106 124 145
106 124 145
17 24 32
17 24 32
17 24 32
17 24 32
17 24 32
17 24 32
17 24 32
17 24 32
17 24 32
17 24 32
17 24 32
17 24 32
17 24 32
17 24 32
17 24 32
17 24 32
17 24 32
17 24 32
17 24 32
17 24 32
17 24 32
17 24 32
17 24 32
17 24 32
106 124 145
106 124 145
32 42 53
32 42 53
32 42 53
32 42 53
32 42 53
32 42 53
32 42 53
32 42 53
32 42 53
32 42 53
32 42 53
32 42 53
32 42 53
32 42 53
32 42 53
32 42 53
242 247 255
242 247 255
32 42 53
32 42 53
32 42 53
32 42 53
32 42 53
32 42 53
32 42 53
32 42 53
242 247 255
242 247 255
242 247 255
242 247 255
242 247 255
242 247 255
242 247 255
242 247 255
32 42 53
32 42 53
32 42 53
32 42 53
32 42 53
32 42 53
242 247 255
242 247 255
242 247 255
242 247 255
242 247 255
242 247 255
242 247 255
242 247 255
32 42 53
32 42 53
32 42 53
32 42 53
242 247 255
242 247 255
242 247 255
242 247 255
242 247 255
242 247 255
242 247 255
242 247 255
242 247 255
242 247 255
32 42 53
32 42 53
32 42 53
32 42 53
32 42 53
32 42 53
242 247 255
242 247 255
242 247 255
242 247 255
242 247 255
242 247 255
32 42 53
32 42 53
32 42 53
32 42 53
32 42 53
32 42 53
32 42 53
32 42 53
242 247 255
242 247 255
242 247 255
242 247 255
242 247 255
242 247 255
32 42 53
32 42 53
32 42 53
32 42 53
32 42 53
32 42 53
32 42 53
32 42 53
32 42 53
32 42 53
32 42 53
32 42 53
32 42 53
32 42 53
32 42 53
32 42 53
32 42 53
32 42 53
32 42 53
32 42 53
242 247 255
242 247 255
32 42 53
32 42 53
32 42 53
32 42 53
32 42 53
32 42 53
32 42 53
32 42 53
32 42 53
32 42 53
32 42 53
32 42 53
32 42 53
32 42 53
242 247 255
242 247 255
242 247 255
242 247 255
242 247 255
242 247 255
242 247 255
242 247 255
32 42 53
32 42 53
32 42 53
32 42 53
242 247 255
242 247 255
32 42 53
32 42 53
32 42 53
32 42 53
32 42 53
32 42 53
242 247 255
242 247 255
32 42 53
32 42 53
32 42 53
32 42 53
242 247 255
242 247 255
32 42 53
32 42 53
32 42 53
32 42 53
32 42 53
32 42 53
242 247 255
242 247 255
32 42 53
32 42 53
32 42 53
32 42 53
32 42 53
32 42 53
242 247 255
242 247 255
242 247 255
242 247 255
242 247 255
242 247 255
242 247 255
242 247 255
32 42 53
32 42 53
32 42 53
32 42 53
32 42 53
32 42 53
242 247 255
242 247 255
242 247 255
242 247 255
242 247 255
242 247 255
32 42 53
32 42 53
32 42 53
32 42 53
32 42 53
32 42 53
32 42 53
32 42 53
32 42 53
32 42 53
32 42 53
32 42 53
32 42 53
32 42 53
32 42 53
32 42 53
32 42 53
32 42 53
32 42 53
32 42 53
242 247 255
242 247 255
32 42 53
32 42 53
242 247 255
242 247 255
32 42 53
32 42 53
242 247 255
242 247 255
32 42 53
32 42 53
32 42 53
32 42 53
32 42 53
32 42 53
32 42 53
32 42 53
242 247 255
242 247 255
32 42 53
32 42 53
32 42 53
32 42 53
32 42 53
32 42 53
32 42 53
32 42 53
242 247 255
242 247 255
32 42 53
32 42 53
32 42 53
32 42 53
32 42 53
32 42 53
242 247 255
242 247 255
32 42 53
32 42 53
32 42 53
32 42 53
242 247 255
242 247 255
32 42 53
32 42 53
32 42 53
32 42 53
32 42 53
32 42 53
242 247 255
242 247 255
32 42 53
32 42 53
32 42 53
32 42 53
242 247 255
242 247 255
32 42 53
32 42 53
32 42 53
32 42 53
32 42 53
32 42 53
242 247 255
242 247 255
32 42 53
32 42 53
32 42 53
32 42 53
242 247 255
242 247 255
32 42 53
32 42 53
242 247 255
242 247 255
32 42 53
32 42 53
242 247 255
242 247 255
32 42 53
32 42 53
32 42 53
32 42 53
32 42 53
32 42 53
106 124 145
106 124 145
17 24 32
17 24 32
17 24 32
17 24 32
17 24 32
17 24 32
17 24 32
17 24 32
17 24 32
17 24 32
17 24 32
17 24 32
17 24 32
17 24 32
17 24 32
17 24 32
17 24 32
17 24 32
17 24 32
17 24 32
17 24 32
17 24 32
17 24 32
17 24 32
106 124 145
106 124 145
32 42 53
32 42 53
32 42 53
32 42 53
32 42 53
32 42 53
32 42 53
32 42 53
32 42 53
32 42 53
32 42 53
32 42 53
32 42 53
32 42 53
32 42 53
32 42 53
242 247 255
242 247 255
32 42 53
32 42 53
32 42 53
32 42 53
32 42 53
32 42 53
32 42 53
32 42 53
242 247 255
242 247 255
242 247 255
242 247 255
242 247 255
242 247 255
242 247 255
242 247 255
32 42 53
32 42 53
32 42 53
32 42 53
32 42 53
32 42 53
242 247 255
242 247 255
242 247 255
242 247 255
242 247 255
242 247 255
242 247 255
242 247 255
32 42 53
32 42 53
32 42 53
32 42 53
242 247 255
242 247 255
242 247 255
242 247 255
242 247 255
242 247 255
242 247 255
242 247 255
242 247 255
242 247 255
32 42 53
32 42 53
32 42 53
32 42 53
32 42 53
32 42 53
242 247 255
242 247 255
242 247 255
242 247 255
242 247 255
242 247 255
32 42 53
32 42 53
32 42 53
32 42 53
32 42 53
32 42 53
32 42 53
32 42 53
242 247 255
242 247 255
242 247 255
242 247 255
242 247 255
242 247 255
32 42 53
32 42 53
32 42 53
32 42 53
32 42 53
32 42 53
32 42 53
32 42 53
32 42 53
32 42 53
32 42 53
32 42 53
32 42 53
32 42 53
32 42 53
32 42 53
32 42 53
32 42 53
32 42 53
32 42 53
242 247 255
242 247 255
32 42 53
32 42 53
32 42 53
32 42 53
32 42 53
32 42 53
32 42 53
32 42 53
32 42 53
32 42 53
32 42 53
32 42 53
32 42 53
32 42 53
242 247 255
242 247 255
242 247 255
242 247 255
242 247 255
242 247 255
242 247 255
242 247 255
32 42 53
32 42 53
32 42 53
32 42 53
242 247 255
242 247 255
32 42 53
32 42 53
32 42 53
32 42 53
32 42 53
32 42 53
242 247 255
242 247 255
32 42 53
32 42 53
32 42 53
32 42 53
242 247 255
242 247 255
32 42 53
32 42 53
32 42 53
32 42 53
32 42 53
32 42 53
242 247 255
242 247 255
32 42 53
32 42 53
32 42 53
32 42 53
32 42 53
32 42 53
242 247 255
242 247 255
242 247 255
242 247 255
242 247 255
242 247 255
242 247 255
242 247 255
32 42 53
32 42 53
32 42 53
32 42 53
32 42 53
32 42 53
242 247 255
242 247 255
242 247 255
242 247 255
242 247 255
242 247 255
32 42 53
32 42 53
32 42 53
32 42 53
32 42 53
32 42 53
32 42 53
32 42 53
32 42 53
32 42 53
32 42 53
32 42 53
32 42 53
32 42 53
32 42 53
32 42 53
32 42 53
32 42 53
32 42 53
32 42 53
242 247 255
242 247 255
32 42 53
32 42 53
242 247 255
242 247 255
32 42 53
32 42 53
242 247 255
242 247 255
32 42 53
32 42 53
32 42 53
32 42 53
32 42 53
32 42 53
32 42 53
32 42 53
242 247 255
242 247 255
32 42 53
32 42 53
32 42 53
32 42 53
32 42 53
32 42 53
32 42 53
32 42 53
242 247 255
242 247 255
32 42 53
32 42 53
32 42 53
32 42 53
32 42 53
32 42 53
242 247 255
242 247 255
32 42 53
32 42 53
32 42 53
32 42 53
242 247 255
242 247 255
32 42 53
32 42 53
32 42 53
32 42 53
32 42 53
32 42 53
242 247 255
242 247 255
32 42 53
32 42 53
32 42 53
32 42 53
242 247 255
242 247 255
32 42 53
32 42 53
32 42 53
32 42 53
32 42 53
32 42 53
242 247 255
242 247 255
32 42 53
32 42 53
32 42 53
32 42 53
242 247 255
242 247 255
32 42 53
32 42 53
242 247 255
242 247 255
32 42 53
32 42 53
242 247 255
242 247 255
32 42 53
32 42 53
32 42 53
32 42 53
32 42 53
32 42 53
106 124 145
106 124 145
17 24 32
17 24 32
17 24 32
17 24 32
17 24 32
17 24 32
17 24 32
17 24 32
17 24 32
17 24 32
17 24 32
17 24 32
17 24 32
17 24 32
17 24 32
17 24 32
17 24 32
17 24 32
17 24 32
17 24 32
17 24 32
17 24 32
17 24 32
17 24 32
106 124 145
106 124 145
32 42 53
32 42 53
32 42 53
32 42 53
32 42 53
32 42 53
32 42 53
32 42 53
32 42 53
32 42 53
242 247 255
242 247 255
32 42 53
32 42 53
32 42 53
32 42 53
242 247 255
242 247 255
32 42 53
32 42 53
32 42 53
32 42 53
32 42 53
32 42 53
242 247 255
242 247 255
32 42 53
32 42 53
32 42 53
32 42 53
32 42 53
32 42 53
242 247 255
242 247 255
32 42 53
32 42 53
32 42 53
32 42 53
32 42 53
32 42 53
32 42 53
32 42 53
32 42 53
32 42 53
32 42 53
32 42 53
242 247 255
242 247 255
32 42 53
32 42 53
32 42 53
32 42 53
242 247 255
242 247 255
32 42 53
32 42 53
32 42 53
32 42 53
32 42 53
32 42 53
32 42 53
32 42 53
32 42 53
32 42 53
32 42 53
32 42 53
32 42 53
32 42 53
32 42 53
32 42 53
32 42 53
32 42 53
32 42 53
32 42 53
242 247 255
242 247 255
32 42 53
32 42 53
32 42 53
32 42 53
32 42 53
32 42 53
32 42 53
32 42 53
32 42 53
32 42 53
32 42 53
32 42 53
242 247 255
242 247 255
32 42 53
32 42 53
32 42 53
32 42 53
32 42 53
32 42 53
32 42 53
32 42 53
32 42 53
32 42 53
32 42 53
32 42 53
32 42 53
32 42 53
32 42 53
32 42 53
32 42 53
32 42 53
242 247 255
242 247 255
32 42 53
32 42 53
32 42 53
32 42 53
32 42 53
32 42 53
32 42 53
32 42 53
32 42 53
32 42 53
32 42 53
32 42 53
242 247 255
242 247 255
32 42 53
32 42 53
32 42 53
32 42 53
32 42 53
32 42 53
242 247 255
242 247 255
32 42 53
32 42 53
32 42 53
32 42 53
242 247 255
242 247 255
32 42 53
32 42 53
32 42 53
32 42 53
32 42 53
32 42 53
242 247 255
242 247 255
32 42 53
32 42 53
32 42 53
32 42 53
32 42 53
32 42 53
242 247 255
242 247 255
32 42 53
32 42 53
242 247 255
242 247 255
32 42 53
32 42 53
32 42 53
32 42 53
32 42 53
32 42 53
242 247 255
242 247 255
32 42 53
32 42 53
32 42 53
32 42 53
32 42 53
32 42 53
242 247 255
242 247 255
32 42 53
32 42 53
32 42 53
32 42 53
32 42 53
32 42 53
32 42 53
32 42 53
32 42 53
32 42 53
32 42 53
32 42 53
242 247 255
242 247 255
32 42 53
32 42 53
32 42 53
32 42 53
32 42 53
32 42 53
32 42 53
32 42 53
32 42 53
32 42 53
32 42 53
32 42 53
32 42 53
32 42 53
32 42 53
32 42 53
32 42 53
32 42 53
242 247 255
242 247 255
32 42 53
32 42 53
242 247 255
242 247 255
32 42 53
32 42 53
242 247 255
242 247 255
32 42 53
32 42 53
32 42 53
32 42 53
32 42 53
32 42 53
32 42 53
32 42 53
242 247 255
242 247 255
32 42 53
32 42 53
32 42 53
32 42 53
32 42 53
32 42 53
32 42 53
32 42 53
242 247 255
242 247 255
32 42 53
32 42 53
32 42 53
32 42 53
32 42 53
32 42 53
242 247 255
242 247 255
32 42 53
32 42 53
32 42 53
32 42 53
242 247 255
242 247 255
32 42 53
32 42 53
32 42 53
32 42 53
32 42 53
32 42 53
242 247 255
242 247 255
32 42 53
32 42 53
32 42 53
32 42 53
242 247 255
242 247 255
32 42 53
32 42 53
32 42 53
32 42 53
32 42 53
32 42 53
242 247 255
242 247 255
32 42 53
32 42 53
32 42 53
32 42 53
242 247 255
242 247 255
32 42 53
32 42 53
242 247 255
242 247 255
32 42 53
32 42 53
242 247 255
242 247 255
32 42 53
32 42 53
32 42 53
32 42 53
32 42 53
32 42 53
106 124 145
106 124 145
17 24 32
17 24 32
17 24 32
17 24 32
17 24 32
17 24 32
17 24 32
17 24 32
17 24 32
17 24 32
17 24 32
17 24 32
17 24 32
17 24 32
17 24 32
17 24 32
17 24 32
17 24 32
17 24 32
17 24 32
17 24 32
17 24 32
17 24 32
17 24 32
106 124 145
106 124 145
32 42 53
32 42 53
32 42 53
32 42 53
32 42 53
32 42 53
32 42 53
32 42 53
32 42 53
32 42 53
242 247 255
242 247 255
32 42 53
32 42 53
32 42 53
32 42 53
242 247 255
242 247 255
32 42 53
32 42 53
32 42 53
32 42 53
32 42 53
32 42 53
242 247 255
242 247 255
32 42 53
32 42 53
32 42 53
32 42 53
32 42 53
32 42 53
242 247 255
242 247 255
32 42 53
32 42 53
32 42 53
32 42 53
32 42 53
32 42 53
32 42 53
32 42 53
32 42 53
32 42 53
32 42 53
32 42 53
242 247 255
242 247 255
32 42 53
32 42 53
32 42 53
32 42 53
242 247 255
242 247 255
32 42 53
32 42 53
32 42 53
32 42 53
32 42 53
32 42 53
32 42 53
32 42 53
32 42 53
32 42 53
32 42 53
32 42 53
32 42 53
32 42 53
32 42 53
32 42 53
32 42 53
32 42 53
32 42 53
32 42 53
242 247 255
242 247 255
32 42 53
32 42 53
32 42 53
32 42 53
32 42 53
32 42 53
32 42 53
32 42 53
32 42 53
32 42 53
32 42 53
32 42 53
242 247 255
242 247 255
32 42 53
32 42 53
32 42 53
32 42 53
32 42 53
32 42 53
32 42 53
32 42 53
32 42 53
32 42 53
32 42 53
32 42 53
32 42 53
32 42 53
32 42 53
32 42 53
32 42 53
32 42 53
242 247 255
242 247 255
32 42 53
32 42 53
32 42 53
32 42 53
32 42 53
32 42 53
32 42 53
32 42 53
32 42 53
32 42 53
32 42 53
32 42 53
242 247 255
242 247 255
32 42 53
32 42 53
32 42 53
32 42 53
32 42 53
32 42 53
242 247 255
242 247 255
32 42 53
32 42 53
32 42 53
32 42 53
242 247 255
242 247 255
32 42 53
32 42 53
32 42 53
32 42 53
32 42 53
32 42 53
242 247 255
242 247 255
32 42 53
32 42 53
32 42 53
32 42 53
32 42 53
32 42 53
242 247 255
242 247 255
32 42 53
32 42 53
242 247 255
242 247 255
32 42 53
32 42 53
32 42 53
32 42 53
32 42 53
32 42 53
242 247 255
242 247 255
32 42 53
32 42 53
32 42 53
32 42 53
32 42 53
32 42 53
242 247 255
242 247 255
32 42 53
32 42 53
32 42 53
32 42 53
32 42 53
32 42 53
32 42 53
32 42 53
32 42 53
32 42 53
32 42 53
32 42 53
242 247 255
242 247 255
32 42 53
32 42 53
32 42 53
32 42 53
32 42 53
32 42 53
32 42 53
32 42 53
32 42 53
32 42 53
32 42 53
32 42 53
32 42 53
32 42 53
32 42 53
32 42 53
32 42 53
32 42 53
242 247 255
242 247 255
32 42 53
32 42 53
242 247 255
242 247 255
32 42 53
32 42 53
242 247 255
242 247 255
32 42 53
32 42 53
32 42 53
32 42 53
32 42 53
32 42 53
32 42 53
32 42 53
242 247 255
242 247 255
32 42 53
32 42 53
32 42 53
32 42 53
32 42 53
32 42 53
32 42 53
32 42 53
242 247 255
242 247 255
32 42 53
32 42 53
32 42 53
32 42 53
32 42 53
32 42 53
242 247 255
242 247 255
32 42 53
32 42 53
32 42 53
32 42 53
242 247 255
242 247 255
32 42 53
32 42 53
32 42 53
32 42 53
32 42 53
32 42 53
242 247 255
242 247 255
32 42 53
32 42 53
32 42 53
32 42 53
242 247 255
242 247 255
32 42 53
32 42 53
32 42 53
32 42 53
32 42 53
32 42 53
242 247 255
242 247 255
32 42 53
32 42 53
32 42 53
32 42 53
242 247 255
242 247 255
32 42 53
32 42 53
242 247 255
242 247 255
32 42 53
32 42 53
242 247 255
242 247 255
32 42 53
32 42 53
32 42 53
32 42 53
32 42 53
32 42 53
106 124 145
106 124 145
17 24 32
17 24 32
17 24 32
17 24 32
17 24 32
17 24 32
17 24 32
17 24 32
17 24 32
17 24 32
17 24 32
17 24 32
17 24 32
17 24 32
17 24 32
17 24 32
17 24 32
17 24 32
17 24 32
17 24 32
17 24 32
17 24 32
17 24 32
17 24 32
106 124 145
106 124 145
32 42 53
32 42 53
32 42 53
32 42 53
32 42 53
32 42 53
32 42 53
32 42 53
32 42 53
32 42 53
32 42 53
32 42 53
242 247 255
242 247 255
242 247 255
242 247 255
32 42 53
32 42 53
32 42 53
32 42 53
32 42 53
32 42 53
32 42 53
32 42 53
32 42 53
32 42 53
242 247 255
242 247 255
242 247 255
242 247 255
242 247 255
242 247 255
242 247 255
242 247 255
32 42 53
32 42 53
32 42 53
32 42 53
32 42 53
32 42 53
242 247 255
242 247 255
242 247 255
242 247 255
242 247 255
242 247 255
32 42 53
32 42 53
32 42 53
32 42 53
32 42 53
32 42 53
32 42 53
32 42 53
242 247 255
242 247 255
242 247 255
242 247 255
242 247 255
242 247 255
32 42 53
32 42 53
32 42 53
32 42 53
32 42 53
32 42 53
242 247 255
242 247 255
242 247 255
242 247 255
242 247 255
242 247 255
242 247 255
242 247 255
32 42 53
32 42 53
32 42 53
32 42 53
32 42 53
32 42 53
242 247 255
242 247 255
242 247 255
242 247 255
242 247 255
242 247 255
242 247 255
242 247 255
32 42 53
32 42 53
32 42 53
32 42 53
32 42 53
32 42 53
32 42 53
32 42 53
32 42 53
32 42 53
32 42 53
32 42 53
32 42 53
32 42 53
32 42 53
32 42 53
32 42 53
32 42 53
32 42 53
32 42 53
32 42 53
32 42 53
242 247 255
242 247 255
242 247 255
242 247 255
242 247 255
242 247 255
242 247 255
242 247 255
32 42 53
32 42 53
32 42 53
32 42 53
32 42 53
32 42 53
242 247 255
242 247 255
242 247 255
242 247 255
242 247 255
242 247 255
242 247 255
242 247 255
32 42 53
32 42 53
32 42 53
32 42 53
242 247 255
242 247 255
32 42 53
32 42 53
32 42 53
32 42 53
32 42 53
32 42 53
242 247 255
242 247 255
32 42 53
32 42 53
32 42 53
32 42 53
32 42 53
32 42 53
32 42 53
32 42 53
242 247 255
242 247 255
32 42 53
32 42 53
32 42 53
32 42 53
32 42 53
32 42 53
32 42 53
32 42 53
32 42 53
32 42 53
242 247 255
242 247 255
242 247 255
242 247 255
242 247 255
242 247 255
242 247 255
242 247 255
32 42 53
32 42 53
32 42 53
32 42 53
242 247 255
242 247 255
242 247 255
242 247 255
242 247 255
242 247 255
242 247 255
242 247 255
32 42 53
32 42 53
32 42 53
32 42 53
32 42 53
32 42 53
32 42 53
32 42 53
32 42 53
32 42 53
32 42 53
32 42 53
32 42 53
32 42 53
32 42 53
32 42 53
32 42 53
32 42 53
32 42 53
32 42 53
32 42 53
32 42 53
242 247 255
242 247 255
32 42 53
32 42 53
242 247 255
242 247 255
32 42 53
32 42 53
32 42 53
32 42 53
32 42 53
32 42 53
32 42 53
32 42 53
242 247 255
242 247 255
242 247 255
242 247 255
242 247 255
242 247 255
32 42 53
32 42 53
32 42 53
32 42 53
32 42 53
32 42 53
242 247 255
242 247 255
32 42 53
32 42 53
32 42 53
32 42 53
32 42 53
32 42 53
242 247 255
242 247 255
32 42 53
32 42 53
32 42 53
32 42 53
32 42 53
32 42 53
242 247 255
242 247 255
242 247 255
242 247 255
242 247 255
242 247 255
242 247 255
242 247 255
32 42 53
32 42 53
32 42 53
32 42 53
32 42 53
32 42 53
242 247 255
242 247 255
242 247 255
242 247 255
242 247 255
242 247 255
32 42 53
32 42 53
32 42 53
32 42 53
32 42 53
32 42 53
32 42 53
32 42 53
242 247 255
242 247 255
32 42 53
32 42 53
242 247 255
242 247 255
32 42 53
32 42 53
32 42 53
32 42 53
32 42 53
32 42 53
32 42 53
32 42 53
106 124 145
106 124 145
17 24 32
17 24 32
17 24 32
17 24 32
17 24 32
17 24 32
17 24 32
17 24 32
17 24 32
17 24 32
17 24 32
17 24 32
17 24 32
17 24 32
17 24 32
17 24 32
17 24 32
17 24 32
17 24 32
17 24 32
17 24 32
17 24 32
17 24 32
17 24 32
106 124 145
106 124 145
32 42 53
32 42 53
32 42 53
32 42 53
32 42 53
32 42 53
32 42 53
32 42 53
32 42 53
32 42 53
32 42 53
32 42 53
242 247 255
242 247 255
242 247 255
242 247 255
32 42 53
32 42 53
32 42 53
32 42 53
32 42 53
32 42 53
32 42 53
32 42 53
32 42 53
32 42 53
242 247 255
242 247 255
242 247 255
242 247 255
242 247 255
242 247 255
242 247 255
242 247 255
32 42 53
32 42 53
32 42 53
32 42 53
32 42 53
32 42 53
242 247 255
242 247 255
242 247 255
242 247 255
242 247 255
242 247 255
32 42 53
32 42 53
32 42 53
32 42 53
32 42 53
32 42 53
32 42 53
32 42 53
242 247 255
242 247 255
242 247 255
242 247 255
242 247 255
242 247 255
32 42 53
32 42 53
32 42 53
32 42 53
32 42 53
32 42 53
242 247 255
242 247 255
242 247 255
242 247 255
242 247 255
242 247 255
242 247 255
242 247 255
32 42 53
32 42 53
32 42 53
32 42 53
32 42 53
32 42 53
242 247 255
242 247 255
242 247 255
242 247 255
242 247 255
242 247 255
242 247 255
242 247 255
32 42 53
32 42 53
32 42 53
32 42 53
32 42 53
32 42 53
32 42 53
32 42 53
32 42 53
32 42 53
32 42 53
32 42 53
32 42 53
32 42 53
32 42 53
32 42 53
32 42 53
32 42 53
32 42 53
32 42 53
32 42 53
32 42 53
242 247 255
242 247 255
242 247 255
242 247 255
242 247 255
242 247 255
242 247 255
242 247 255
32 42 53
32 42 53
32 42 53
32 42 53
32 42 53
32 42 53
242 247 255
242 247 255
242 247 255
242 247 255
242 247 255
242 247 255
242 247 255
242 247 255
32 42 53
32 42 53
32 42 53
32 42 53
242 247 255
242 247 255
32 42 53
32 42 53
32 42 53
32 42 53
32 42 53
32 42 53
242 247 255
242 247 255
32 42 53
32 42 53
32 42 53
32 42 53
32 42 53
32 42 53
32 42 53
32 42 53
242 247 255
242 247 255
32 42 53
32 42 53
32 42 53
32 42 53
32 42 53
32 42 53
32 42 53
32 42 53
32 42 53
32 42 53
242 247 255
242 247 255
242 247 255
242 247 255
242 247 255
242 247 255
242 247 255
242 247 255
32 42 53
32 42 53
32 42 53
32 42 53
242 247 255
242 247 255
242 247 255
242 247 255
242 247 255
242 247 255
242 247 255
242 247 255
32 42 53
32 42 53
32 42 53
32 42 53
32 42 53
32 42 53
32 42 53
32 42 53
32 42 53
32 42 53
32 42 53
32 42 53
32 42 53
32 42 53
32 42 53
32 42 53
32 42 53
32 42 53
32 42 53
32 42 53
32 42 53
32 42 53
242 247 255
242 247 255
32 42 53
32 42 53
242 247 255
242 247 255
32 42 53
32 42 53
32 42 53
32 42 53
32 42 53
32 42 53
32 42 53
32 42 53
242 247 255
242 247 255
242 247 255
242 247 255
242 247 255
242 247 255
32 42 53
32 42 53
32 42 53
32 42 53
32 42 53
32 42 53
242 247 255
242 247 255
32 42 53
32 42 53
32 42 53
32 42 53
32 42 53
32 42 53
242 247 255
242 247 255
32 42 53
32 42 53
32 42 53
32 42 53
32 42 53
32 42 53
242 247 255
242 247 255
242 247 255
242 247 255
242 247 255
242 247 255
242 247 255
242 247 255
32 42 53
32 42 53
32 42 53
32 42 53
32 42 53
32 42 53
242 247 255
242 247 255
242 247 255
242 247 255
242 247 255
242 247 255
32 42 53
32 42 53
32 42 53
32 42 53
32 42 53
32 42 53
32 42 53
32 42 53
242 247 255
242 247 255
32 42 53
32 42 53
242 247 255
242 247 255
32 42 53
32 42 53
32 42 53
32 42 53
32 42 53
32 42 53
32 42 53
32 42 53
106 124 145
106 124 145
17 24 32
17 24 32
17 24 32
17 24 32
17 24 32
17 24 32
17 24 32
17 24 32
17 24 32
17 24 32
17 24 32
17 24 32
17 24 32
17 24 32
17 24 32
17 24 32
17 24 32
17 24 32
17 24 32
17 24 32
17 24 32
17 24 32
17 24 32
17 24 32
106 124 145
106 124 145
32 42 53
32 42 53
32 42 53
32 42 53
32 42 53
32 42 53
32 42 53
32 42 53
32 42 53
32 42 53
32 42 53
32 42 53
32 42 53
32 42 53
32 42 53
32 42 53
32 42 53
32 42 53
32 42 53
32 42 53
32 42 53
32 42 53
32 42 53
32 42 53
32 42 53
32 42 53
32 42 53
32 42 53
32 42 53
32 42 53
32 42 53
32 42 53
32 42 53
32 42 53
32 42 53
32 42 53
32 42 53
32 42 53
32 42 53
32 42 53
32 42 53
32 42 53
32 42 53
32 42 53
32 42 53
32 42 53
32 42 53
32 42 53
32 42 53
32 42 53
32 42 53
32 42 53
32 42 53
32 42 53
32 42 53
32 42 53
32 42 53
32 42 53
32 42 53
32 42 53
32 42 53
32 42 53
32 42 53
32 42 53
32 42 53
32 42 53
32 42 53
32 42 53
32 42 53
32 42 53
32 42 53
32 42 53
32 42 53
32 42 53
32 42 53
32 42 53
32 42 53
32 42 53
32 42 53
32 42 53
32 42 53
32 42 53
32 42 53
32 42 53
32 42 53
32 42 53
32 42 53
32 42 53
32 42 53
32 42 53
32 42 53
32 42 53
32 42 53
32 42 53
32 42 53
32 42 53
32 42 53
32 42 53
32 42 53
32 42 53
32 42 53
32 42 53
32 42 53
32 42 53
32 42 53
32 42 53
32 42 53
32 42 53
32 42 53
32 42 53
32 42 53
32 42 53
32 42 53
32 42 53
32 42 53
32 42 53
32 42 53
32 42 53
32 42 53
32 42 53
32 42 53
32 42 53
32 42 53
32 42 53
32 42 53
32 42 53
32 42 53
32 42 53
32 42 53
32 42 53
32 42 53
32 42 53
32 42 53
32 42 53
32 42 53
32 42 53
32 42 53
32 42 53
32 42 53
32 42 53
32 42 53
32 42 53
32 42 53
32 42 53
32 42 53
32 42 53
32 42 53
32 42 53
32 42 53
32 42 53
32 42 53
32 42 53
32 42 53
32 42 53
32 42 53
32 42 53
32 42 53
32 42 53
32 42 53
32 42 53
32 42 53
32 42 53
32 42 53
32 42 53
32 42 53
32 42 53
32 42 53
32 42 53
32 42 53
32 42 53
32 42 53
32 42 53
32 42 53
32 42 53
32 42 53
32 42 53
32 42 53
32 42 53
32 42 53
32 42 53
32 42 53
32 42 53
32 42 53
32 42 53
32 42 53
32 42 53
32 42 53
32 42 53
32 42 53
32 42 53
32 42 53
32 42 53
32 42 53
32 42 53
32 42 53
32 42 53
32 42 53
32 42 53
32 42 53
32 42 53
32 42 53
32 42 53
32 42 53
32 42 53
32 42 53
32 42 53
32 42 53
32 42 53
32 42 53
32 42 53
32 42 53
32 42 53
32 42 53
32 42 53
32 42 53
32 42 53
32 42 53
32 42 53
32 42 53
32 42 53
32 42 53
32 42 53
32 42 53
32 42 53
32 42 53
32 42 53
32 42 53
32 42 53
32 42 53
32 42 53
32 42 53
32 42 53
32 42 53
32 42 53
32 42 53
32 42 53
32 42 53
32 42 53
32 42 53
32 42 53
32 42 53
32 42 53
32 42 53
32 42 53
32 42 53
32 42 53
32 42 53
32 42 53
32 42 53
32 42 53
32 42 53
32 42 53
32 42 53
32 42 53
32 42 53
32 42 53
32 42 53
32 42 53
32 42 53
32 42 53
32 42 53
32 42 53
32 42 53
32 42 53
32 42 53
32 42 53
32 42 53
32 42 53
32 42 53
32 42 53
32 42 53
32 42 53
32 42 53
32 42 53
32 42 53
32 42 53
32 42 53
32 42 53
32 42 53
32 42 53
32 42 53
32 42 53
32 42 53
32 42 53
32 42 53
32 42 53
32 42 53
32 42 53
32 42 53
32 42 53
32 42 53
32 42 53
106 124 145
106 124 145
17 24 32
17 24 32
17 24 32
17 24 32
17 24 32
17 24 32
17 24 32
17 24 32
17 24 32
17 24 32
17 24 32
17 24 32
17 24 32
17 24 32
17 24 32
17 24 32
17 24 32
17 24 32
17 24 32
17 24 32
17 24 32
17 24 32
17 24 32
17 24 32
106 124 145
106 124 145
32 42 53
32 42 53
32 42 53
32 42 53
32 42 53
32 42 53
32 42 53
32 42 53
32 42 53
32 42 53
32 42 53
32 42 53
32 42 53
32 42 53
32 42 53
32 42 53
32 42 53
32 42 53
32 42 53
32 42 53
32 42 53
32 42 53
32 42 53
32 42 53
32 42 53
32 42 53
32 42 53
32 42 53
32 42 53
32 42 53
32 42 53
32 42 53
32 42 53
32 42 53
32 42 53
32 42 53
32 42 53
32 42 53
32 42 53
32 42 53
32 42 53
32 42 53
32 42 53
32 42 53
32 42 53
32 42 53
32 42 53
32 42 53
32 42 53
32 42 53
32 42 53
32 42 53
32 42 53
32 42 53
32 42 53
32 42 53
32 42 53
32 42 53
32 42 53
32 42 53
32 42 53
32 42 53
32 42 53
32 42 53
32 42 53
32 42 53
32 42 53
32 42 53
32 42 53
32 42 53
32 42 53
32 42 53
32 42 53
32 42 53
32 42 53
32 42 53
32 42 53
32 42 53
32 42 53
32 42 53
32 42 53
32 42 53
32 42 53
32 42 53
32 42 53
32 42 53
32 42 53
32 42 53
32 42 53
32 42 53
32 42 53
32 42 53
32 42 53
32 42 53
32 42 53
32 42 53
32 42 53
32 42 53
32 42 53
32 42 53
32 42 53
32 42 53
32 42 53
32 42 53
32 42 53
32 42 53
32 42 53
32 42 53
32 42 53
32 42 53
32 42 53
32 42 53
32 42 53
32 42 53
32 42 53
32 42 53
32 42 53
32 42 53
32 42 53
32 42 53
32 42 53
32 42 53
32 42 53
32 42 53
32 42 53
32 42 53
32 42 53
32 42 53
32 42 53
32 42 53
32 42 53
32 42 53
32 42 53
32 42 53
32 42 53
32 42 53
32 42 53
32 42 53
32 42 53
32 42 53
32 42 53
32 42 53
32 42 53
32 42 53
32 42 53
32 42 53
32 42 53
32 42 53
32 42 53
32 42 53
32 42 53
32 42 53
32 42 53
32 42 53
32 42 53
32 42 53
32 42 53
32 42 53
32 42 53
32 42 53
32 42 53
32 42 53
32 42 53
32 42 53
32 42 53
32 42 53
32 42 53
32 42 53
32 42 53
32 42 53
32 42 53
32 42 53
32 42 53
32 42 53
32 42 53
32 42 53
32 42 53
32 42 53
32 42 53
32 42 53
32 42 53
32 42 53
32 42 53
32 42 53
32 42 53
32 42 53
32 42 53
32 42 53
32 42 53
32 42 53
32 42 53
32 42 53
32 42 53
32 42 53
32 42 53
32 42 53
32 42 53
32 42 53
32 42 53
32 42 53
32 42 53
32 42 53
32 42 53
32 42 53
32 42 53
32 42 53
32 42 53
32 42 53
32 42 53
32 42 53
32 42 53
32 42 53
32 42 53
32 42 53
32 42 53
32 42 53
32 42 53
32 42 53
32 42 53
32 42 53
32 42 53
32 42 53
32 42 53
32 42 53
32 42 53
32 42 53
32 42 53
32 42 53
32 42 53
32 42 53
32 42 53
32 42 53
32 42 53
32 42 53
32 42 53
32 42 53
32 42 53
32 42 53
32 42 53
32 42 53
32 42 53
32 42 53
32 42 53
32 42 53
32 42 53
32 42 53
32 42 53
32 42 53
32 42 53
32 42 53
32 42 53
32 42 53
32 42 53
32 42 53
32 42 53
32 42 53
32 42 53
32 42 53
32 42 53
32 42 53
32 42 53
32 42 53
32 42 53
32 42 53
32 42 53
32 42 53
32 42 53
32 42 53
32 42 53
32 42 53
32 42 53
32 42 53
32 42 53
32 42 53
32 42 53
32 42 53
32 42 53
32 42 53
32 42 53
32 42 53
32 42 53
32 42 53
32 42 53
32 42 53
32 42 53
32 42 53
32 42 53
32 42 53
32 42 53
32 42 53
32 42 53
32 42 53
106 124 145
106 124 145
17 24 32
17 24 32
17 24 32
17 24 32
17 24 32
17 24 32
17 24 32
17 24 32
17 24 32
17 24 32
17 24 32
17 24 32
17 24 32
17 24 32
17 24 32
17 24 32
17 24 32
17 24 32
17 24 32
17 24 32
17 24 32
17 24 32
17 24 32
17 24 32
106 124 145
106 124 145
32 42 53
32 42 53
32 42 53
32 42 53
32 42 53
32 42 53
32 42 53
32 42 53
32 42 53
32 42 53
32 42 53
32 42 53
32 42 53
32 42 53
32 42 53
32 42 53
32 42 53
32 42 53
32 42 53
32 42 53
32 42 53
32 42 53
32 42 53
32 42 53
32 42 53
32 42 53
32 42 53
32 42 53
32 42 53
32 42 53
32 42 53
32 42 53
32 42 53
32 42 53
32 42 53
32 42 53
32 42 53
32 42 53
32 42 53
32 42 53
32 42 53
32 42 53
32 42 53
32 42 53
32 42 53
32 42 53
32 42 53
32 42 53
32 42 53
32 42 53
32 42 53
32 42 53
32 42 53
32 42 53
32 42 53
32 42 53
32 42 53
32 42 53
32 42 53
32 42 53
32 42 53
32 42 53
32 42 53
32 42 53
32 42 53
32 42 53
32 42 53
32 42 53
32 42 53
32 42 53
32 42 53
32 42 53
32 42 53
32 42 53
32 42 53
32 42 53
32 42 53
32 42 53
32 42 53
32 42 53
32 42 53
32 42 53
32 42 53
32 42 53
32 42 53
32 42 53
32 42 53
32 42 53
32 42 53
32 42 53
32 42 53
32 42 53
32 42 53
32 42 53
32 42 53
32 42 53
32 42 53
32 42 53
32 42 53
32 42 53
32 42 53
32 42 53
32 42 53
32 42 53
32 42 53
32 42 53
32 42 53
32 42 53
32 42 53
32 42 53
32 42 53
32 42 53
32 42 53
32 42 53
32 42 53
32 42 53
32 42 53
32 42 53
32 42 53
32 42 53
32 42 53
32 42 53
32 42 53
32 42 53
32 42 53
32 42 53
32 42 53
32 42 53
32 42 53
32 42 53
32 42 53
32 42 53
32 42 53
32 42 53
32 42 53
32 42 53
32 42 53
32 42 53
32 42 53
32 42 53
32 42 53
32 42 53
32 42 53
32 42 53
32 42 53
32 42 53
32 42 53
32 42 53
32 42 53
32 42 53
32 42 53
32 42 53
32 42 53
32 42 53
32 42 53
32 42 53
32 42 53
32 42 53
32 42 53
32 42 53
32 42 53
32 42 53
32 42 53
32 42 53
32 42 53
32 42 53
32 42 53
32 42 53
32 42 53
32 42 53
32 42 53
32 42 53
32 42 53
32 42 53
32 42 53
32 42 53
32 42 53
32 42 53
32 42 53
32 42 53
32 42 53
32 42 53
32 42 53
32 42 53
32 42 53
32 42 53
32 42 53
32 42 53
32 42 53
32 42 53
32 42 53
32 42 53
32 42 53
32 42 53
32 42 53
32 42 53
32 42 53
32 42 53
32 42 53
32 42 53
32 42 53
32 42 53
32 42 53
32 42 53
32 42 53
32 42 53
32 42 53
32 42 53
32 42 53
32 42 53
32 42 53
32 42 53
32 42 53
32 42 53
32 42 53
32 42 53
32 42 53
32 42 53
32 42 53
32 42 53
32 42 53
32 42 53
32 42 53
32 42 53
32 42 53
32 42 53
32 42 53
32 42 53
32 42 53
32 42 53
32 42 53
32 42 53
32 42 53
32 42 53
32 42 53
32 42 53
32 42 53
32 42 53
32 42 53
32 42 53
32 42 53
32 42 53
32 42 53
32 42 53
32 42 53
32 42 53
32 42 53
32 42 53
32 42 53
32 42 53
32 42 53
32 42 53
32 42 53
32 42 53
32 42 53
32 42 53
32 42 53
32 42 53
32 42 53
32 42 53
32 42 53
32 42 53
32 42 53
32 42 53
32 42 53
32 42 53
32 42 53
32 42 53
32 42 53
32 42 53
32 42 53
32 42 53
32 42 53
32 42 53
32 42 53
32 42 53
32 42 53
32 42 53
32 42 53
32 42 53
32 42 53
32 42 53
32 42 53
32 42 53
32 42 53
32 42 53
32 42 53
32 42 53
32 42 53
32 42 53
32 42 53
32 42 53
106 124 145
106 124 145
17 24 32
17 24 32
17 24 32
17 24 32
17 24 32
17 24 32
17 24 32
17 24 32
17 24 32
17 24 32
17 24 32
17 24 32
17 24 32
17 24 32
17 24 32
17 24 32
17 24 32
17 24 32
17 24 32
17 24 32
17 24 32
17 24 32
17 24 32
17 24 32
106 124 145
106 124 145
32 42 53
32 42 53
32 42 53
32 42 53
32 42 53
32 42 53
32 42 53
32 42 53
32 42 53
32 42 53
32 42 53
32 42 53
32 42 53
32 42 53
32 42 53
32 42 53
32 42 53
32 42 53
32 42 53
32 42 53
32 42 53
32 42 53
32 42 53
32 42 53
32 42 53
32 42 53
32 42 53
32 42 53
32 42 53
32 42 53
32 42 53
32 42 53
32 42 53
32 42 53
32 42 53
32 42 53
32 42 53
32 42 53
32 42 53
32 42 53
32 42 53
32 42 53
32 42 53
32 42 53
32 42 53
32 42 53
32 42 53
32 42 53
32 42 53
32 42 53
32 42 53
32 42 53
32 42 53
32 42 53
32 42 53
32 42 53
32 42 53
32 42 53
32 42 53
32 42 53
32 42 53
32 42 53
32 42 53
32 42 53
32 42 53
32 42 53
32 42 53
32 42 53
32 42 53
32 42 53
32 42 53
32 42 53
32 42 53
32 42 53
32 42 53
32 42 53
32 42 53
32 42 53
32 42 53
32 42 53
32 42 53
32 42 53
32 42 53
32 42 53
32 42 53
32 42 53
32 42 53
32 42 53
32 42 53
32 42 53
32 42 53
32 42 53
32 42 53
32 42 53
32 42 53
32 42 53
32 42 53
32 42 53
32 42 53
32 42 53
32 42 53
32 42 53
32 42 53
32 42 53
32 42 53
32 42 53
32 42 53
32 42 53
32 42 53
32 42 53
32 42 53
32 42 53
32 42 53
32 42 53
32 42 53
32 42 53
32 42 53
32 42 53
32 42 53
32 42 53
32 42 53
32 42 53
32 42 53
32 42 53
32 42 53
32 42 53
32 42 53
32 42 53
32 42 53
32 42 53
32 42 53
32 42 53
32 42 53
32 42 53
32 42 53
32 42 53
32 42 53
32 42 53
32 42 53
32 42 53
32 42 53
32 42 53
32 42 53
32 42 53
32 42 53
32 42 53
32 42 53
32 42 53
32 42 53
32 42 53
32 42 53
32 42 53
32 42 53
32 42 53
32 42 53
32 42 53
32 42 53
32 42 53
32 42 53
32 42 53
32 42 53
32 42 53
32 42 53
32 42 53
32 42 53
32 42 53
32 42 53
32 42 53
32 42 53
32 42 53
32 42 53
32 42 53
32 42 53
32 42 53
32 42 53
32 42 53
32 42 53
32 42 53
32 42 53
32 42 53
32 42 53
32 42 53
32 42 53
32 42 53
32 42 53
32 42 53
32 42 53
32 42 53
32 42 53
32 42 53
32 42 53
32 42 53
32 42 53
32 42 53
32 42 53
32 42 53
32 42 53
32 42 53
32 42 53
32 42 53
32 42 53
32 42 53
32 42 53
32 42 53
32 42 53
32 42 53
32 42 53
32 42 53
32 42 53
32 42 53
32 42 53
32 42 53
32 42 53
32 42 53
32 42 53
32 42 53
32 42 53
32 42 53
32 42 53
32 42 53
32 42 53
32 42 53
32 42 53
32 42 53
32 42 53
32 42 53
32 42 53
32 42 53
32 42 53
32 42 53
32 42 53
32 42 53
32 42 53
32 42 53
32 42 53
32 42 53
32 42 53
32 42 53
32 42 53
32 42 53
32 42 53
32 42 53
32 42 53
32 42 53
32 42 53
32 42 53
32 42 53
32 42 53
32 42 53
32 42 53
32 42 53
32 42 53
32 42 53
32 42 53
32 42 53
32 42 53
32 42 53
32 42 53
32 42 53
32 42 53
32 42 53
32 42 53
32 42 53
32 42 53
32 42 53
32 42 53
32 42 53
32 42 53
32 42 53
32 42 53
32 42 53
32 42 53
32 42 53
32 42 53
32 42 53
32 42 53
32 42 53
32 42 53
32 42 53
32 42 53
32 42 53
32 42 53
32 42 53
32 42 53
32 42 53
32 42 53
32 42 53
32 42 53
32 42 53
32 42 53
32 42 53
32 42 53
106 124 145
106 124 145
17 24 32
17 24 32
17 24 32
17 24 32
17 24 32
17 24 32
17 24 32
17 24 32
17 24 32
17 24 32
17 24 32
17 24 32
17 24 32
17 24 32
17 24 32
17 24 32
17 24 32
17 24 32
17 24 32
17 24 32
17 24 32
17 24 32
17 24 32
17 24 32
106 124 145
106 124 145
32 42 53
32 42 53
32 42 53
32 42 53
32 42 53
32 42 53
32 42 53
32 42 53
32 42 53
32 42 53
32 42 53
32 42 53
32 42 53
32 42 53
32 42 53
32 42 53
32 42 53
32 42 53
32 42 53
32 42 53
32 42 53
32 42 53
32 42 53
32 42 53
32 42 53
32 42 53
32 42 53
32 42 53
32 42 53
32 42 53
32 42 53
32 42 53
32 42 53
32 42 53
32 42 53
32 42 53
32 42 53
32 42 53
32 42 53
32 42 53
32 42 53
32 42 53
32 42 53
32 42 53
32 42 53
32 42 53
32 42 53
32 42 53
32 42 53
32 42 53
32 42 53
32 42 53
32 42 53
32 42 53
32 42 53
32 42 53
32 42 53
32 42 53
32 42 53
32 42 53
32 42 53
32 42 53
32 42 53
32 42 53
32 42 53
32 42 53
32 42 53
32 42 53
32 42 53
32 42 53
32 42 53
32 42 53
32 42 53
32 42 53
32 42 53
32 42 53
32 42 53
32 42 53
32 42 53
32 42 53
32 42 53
32 42 53
32 42 53
32 42 53
32 42 53
32 42 53
32 42 53
32 42 53
32 42 53
32 42 53
32 42 53
32 42 53
32 42 53
32 42 53
32 42 53
32 42 53
32 42 53
32 42 53
32 42 53
32 42 53
32 42 53
32 42 53
32 42 53
32 42 53
32 42 53
32 42 53
32 42 53
32 42 53
32 42 53
32 42 53
32 42 53
32 42 53
32 42 53
32 42 53
32 42 53
32 42 53
32 42 53
32 42 53
32 42 53
32 42 53
32 42 53
32 42 53
32 42 53
32 42 53
32 42 53
32 42 53
32 42 53
32 42 53
32 42 53
32 42 53
32 42 53
32 42 53
32 42 53
32 42 53
32 42 53
32 42 53
32 42 53
32 42 53
32 42 53
32 42 53
32 42 53
32 42 53
32 42 53
32 42 53
32 42 53
32 42 53
32 42 53
32 42 53
32 42 53
32 42 53
32 42 53
32 42 53
32 42 53
32 42 53
32 42 53
32 42 53
32 42 53
32 42 53
32 42 53
32 42 53
32 42 53
32 42 53
32 42 53
32 42 53
32 42 53
32 42 53
32 42 53
32 42 53
32 42 53
32 42 53
32 42 53
32 42 53
32 42 53
32 42 53
32 42 53
32 42 53
32 42 53
32 42 53
32 42 53
32 42 53
32 42 53
32 42 53
32 42 53
32 42 53
32 42 53
32 42 53
32 42 53
32 42 53
32 42 53
32 42 53
32 42 53
32 42 53
32 42 53
32 42 53
32 42 53
32 42 53
32 42 53
32 42 53
32 42 53
32 42 53
32 42 53
32 42 53
32 42 53
32 42 53
32 42 53
32 42 53
32 42 53
32 42 53
32 42 53
32 42 53
32 42 53
32 42 53
32 42 53
32 42 53
32 42 53
32 42 53
32 42 53
32 42 53
32 42 53
32 42 53
32 42 53
32 42 53
32 42 53
32 42 53
32 42 53
32 42 53
32 42 53
32 42 53
32 42 53
32 42 53
32 42 53
32 42 53
32 42 53
32 42 53
32 42 53
32 42 53
32 42 53
32 42 53
32 42 53
32 42 53
32 42 53
32 42 53
32 42 53
32 42 53
32 42 53
32 42 53
32 42 53
32 42 53
32 42 53
32 42 53
32 42 53
32 42 53
32 42 53
32 42 53
32 42 53
32 42 53
32 42 53
32 42 53
32 42 53
32 42 53
32 42 53
32 42 53
32 42 53
32 42 53
32 42 53
32 42 53
32 42 53
32 42 53
32 42 53
32 42 53
32 42 53
32 42 53
32 42 53
32 42 53
32 42 53
32 42 53
32 42 53
32 42 53
32 42 53
32 42 53
32 42 53
32 42 53
32 42 53
32 42 53
32 42 53
32 42 53
32 42 53
32 42 53
32 42 53
32 42 53
32 42 53
32 42 53
106 124 145
106 124 145
17 24 32
17 24 32
17 24 32
17 24 32
17 24 32
17 24 32
17 24 32
17 24 32
17 24 32
17 24 32
17 24 32
17 24 32
17 24 32
17 24 32
17 24 32
17 24 32
17 24 32
17 24 32
17 24 32
17 24 32
17 24 32
17 24 32
17 24 32
17 24 32
106 124 145
106 124 145
32 42 53
32 42 53
32 42 53
32 42 53
32 42 53
32 42 53
32 42 53
32 42 53
32 42 53
32 42 53
32 42 53
32 42 53
32 42 53
32 42 53
32 42 53
32 42 53
32 42 53
32 42 53
32 42 53
32 42 53
32 42 53
32 42 53
32 42 53
32 42 53
32 42 53
32 42 53
32 42 53
32 42 53
32 42 53
32 42 53
32 42 53
32 42 53
32 42 53
32 42 53
32 42 53
32 42 53
32 42 53
32 42 53
32 42 53
32 42 53
32 42 53
32 42 53
32 42 53
32 42 53
32 42 53
32 42 53
32 42 53
32 42 53
32 42 53
32 42 53
32 42 53
32 42 53
32 42 53
32 42 53
32 42 53
32 42 53
32 42 53
32 42 53
32 42 53
32 42 53
32 42 53
32 42 53
32 42 53
32 42 53
32 42 53
32 42 53
32 42 53
32 42 53
32 42 53
32 42 53
32 42 53
32 42 53
32 42 53
32 42 53
32 42 53
32 42 53
32 42 53
32 42 53
32 42 53
32 42 53
32 42 53
32 42 53
32 42 53
32 42 53
32 42 53
32 42 53
32 42 53
32 42 53
32 42 53
32 42 53
32 42 53
32 42 53
32 42 53
32 42 53
32 42 53
32 42 53
32 42 53
32 42 53
32 42 53
32 42 53
32 42 53
32 42 53
32 42 53
32 42 53
32 42 53
32 42 53
32 42 53
32 42 53
32 42 53
32 42 53
32 42 53
32 42 53
32 42 53
32 42 53
32 42 53
32 42 53
32 42 53
32 42 53
32 42 53
32 42 53
32 42 53
32 42 53
32 42 53
32 42 53
32 42 53
32 42 53
32 42 53
32 42 53
32 42 53
32 42 53
32 42 53
32 42 53
32 42 53
32 42 53
32 42 53
32 42 53
32 42 53
32 42 53
32 42 53
32 42 53
32 42 53
32 42 53
32 42 53
32 42 53
32 42 53
32 42 53
32 42 53
32 42 53
32 42 53
32 42 53
32 42 53
32 42 53
32 42 53
32 42 53
32 42 53
32 42 53
32 42 53
32 42 53
32 42 53
32 42 53
32 42 53
32 42 53
32 42 53
32 42 53
32 42 53
32 42 53
32 42 53
32 42 53
32 42 53
32 42 53
32 42 53
32 42 53
32 42 53
32 42 53
32 42 53
32 42 53
32 42 53
32 42 53
32 42 53
32 42 53
32 42 53
32 42 53
32 42 53
32 42 53
32 42 53
32 42 53
32 42 53
32 42 53
32 42 53
32 42 53
32 42 53
32 42 53
32 42 53
32 42 53
32 42 53
32 42 53
32 42 53
32 42 53
32 42 53
32 42 53
32 42 53
32 42 53
32 42 53
32 42 53
32 42 53
32 42 53
32 42 53
32 42 53
32 42 53
32 42 53
32 42 53
32 42 53
32 42 53
32 42 53
32 42 53
32 42 53
32 42 53
32 42 53
32 42 53
32 42 53
32 42 53
32 42 53
32 42 53
32 42 53
32 42 53
32 42 53
32 42 53
32 42 53
32 42 53
32 42 53
32 42 53
32 42 53
32 42 53
32 42 53
32 42 53
32 42 53
32 42 53
32 42 53
32 42 53
32 42 53
32 42 53
32 42 53
32 42 53
32 42 53
32 42 53
32 42 53
32 42 53
32 42 53
32 42 53
32 42 53
32 42 53
32 42 53
32 42 53
32 42 53
32 42 53
32 42 53
32 42 53
32 42 53
32 42 53
32 42 53
32 42 53
32 42 53
32 42 53
32 42 53
32 42 53
32 42 53
32 42 53
32 42 53
32 42 53
32 42 53
32 42 53
32 42 53
32 42 53
32 42 53
32 42 53
32 42 53
32 42 53
32 42 53
32 42 53
32 42 53
32 42 53
32 42 53
32 42 53
32 42 53
32 42 53
32 42 53
32 42 53
32 42 53
32 42 53
32 42 53
32 42 53
32 42 53
106 124 145
106 124 145
17 24 32
17 24 32
17 24 32
17 24 32
17 24 32
17 24 32
17 24 32
17 24 32
17 24 32
17 24 32
17 24 32
17 24 32
17 24 32
17 24 32
17 24 32
17 24 32
17 24 32
17 24 32
17 24 32
17 24 32
17 24 32
17 24 32
17 24 32
17 24 32
106 124 145
106 124 145
32 42 53
32 42 53
32 42 53
32 42 53
32 42 53
32 42 53
32 42 53
32 42 53
32 42 53
32 42 53
32 42 53
32 42 53
32 42 53
32 42 53
32 42 53
32 42 53
32 42 53
32 42 53
32 42 53
32 42 53
32 42 53
32 42 53
32 42 53
32 42 53
32 42 53
32 42 53
32 42 53
32 42 53
32 42 53
32 42 53
32 42 53
32 42 53
32 42 53
32 42 53
32 42 53
32 42 53
32 42 53
32 42 53
32 42 53
32 42 53
32 42 53
32 42 53
32 42 53
32 42 53
32 42 53
32 42 53
32 42 53
32 42 53
32 42 53
32 42 53
32 42 53
32 42 53
32 42 53
32 42 53
32 42 53
32 42 53
32 42 53
32 42 53
32 42 53
32 42 53
32 42 53
32 42 53
32 42 53
32 42 53
32 42 53
32 42 53
32 42 53
32 42 53
32 42 53
32 42 53
32 42 53
32 42 53
32 42 53
32 42 53
32 42 53
32 42 53
32 42 53
32 42 53
32 42 53
32 42 53
32 42 53
32 42 53
32 42 53
32 42 53
32 42 53
32 42 53
32 42 53
32 42 53
32 42 53
32 42 53
32 42 53
32 42 53
32 42 53
32 42 53
32 42 53
32 42 53
32 42 53
32 42 53
32 42 53
32 42 53
32 42 53
32 42 53
32 42 53
32 42 53
32 42 53
32 42 53
32 42 53
32 42 53
32 42 53
32 42 53
32 42 53
32 42 53
32 42 53
32 42 53
32 42 53
32 42 53
32 42 53
32 42 53
32 42 53
32 42 53
32 42 53
32 42 53
32 42 53
32 42 53
32 42 53
32 42 53
32 42 53
32 42 53
32 42 53
32 42 53
32 42 53
32 42 53
32 42 53
32 42 53
32 42 53
32 42 53
32 42 53
32 42 53
32 42 53
32 42 53
32 42 53
32 42 53
32 42 53
32 42 53
32 42 53
32 42 53
32 42 53
32 42 53
32 42 53
32 42 53
32 42 53
32 42 53
32 42 53
32 42 53
32 42 53
32 42 53
32 42 53
32 42 53
32 42 53
32 42 53
32 42 53
32 42 53
32 42 53
32 42 53
32 42 53
32 42 53
32 42 53
32 42 53
32 42 53
32 42 53
32 42 53
32 42 53
32 42 53
32 42 53
32 42 53
32 42 53
32 42 53
32 42 53
32 42 53
32 42 53
32 42 53
32 42 53
32 42 53
32 42 53
32 42 53
32 42 53
32 42 53
32 42 53
32 42 53
32 42 53
32 42 53
32 42 53
32 42 53
32 42 53
32 42 53
32 42 53
32 42 53
32 42 53
32 42 53
32 42 53
32 42 53
32 42 53
32 42 53
32 42 53
32 42 53
32 42 53
32 42 53
32 42 53
32 42 53
32 42 53
32 42 53
32 42 53
32 42 53
32 42 53
32 42 53
32 42 53
32 42 53
32 42 53
32 42 53
32 42 53
32 42 53
32 42 53
32 42 53
32 42 53
32 42 53
32 42 53
32 42 53
32 42 53
32 42 53
32 42 53
32 42 53
32 42 53
32 42 53
32 42 53
32 42 53
32 42 53
32 42 53
32 42 53
32 42 53
32 42 53
32 42 53
32 42 53
32 42 53
32 42 53
32 42 53
32 42 53
32 42 53
32 42 53
32 42 53
32 42 53
32 42 53
32 42 53
32 42 53
32 42 53
32 42 53
32 42 53
32 42 53
32 42 53
32 42 53
32 42 53
32 42 53
32 42 53
32 42 53
32 42 53
32 42 53
32 42 53
32 42 53
32 42 53
32 42 53
32 42 53
32 42 53
32 42 53
32 42 53
32 42 53
32 42 53
32 42 53
32 42 53
32 42 53
32 42 53
32 42 53
32 42 53
32 42 53
32 42 53
32 42 53
32 42 53
32 42 53
32 42 53
32 42 53
32 42 53
32 42 53
32 42 53
32 42 53
106 124 145
106 124 145
17 24 32
17 24 32
17 24 32
17 24 32
17 24 32
17 24 32
17 24 32
17 24 32
17 24 32
17 24 32
17 24 32
17 24 32
17 24 32
17 24 32
17 24 32
17 24 32
17 24 32
17 24 32
17 24 32
17 24 32
17 24 32
17 24 32
17 24 32
17 24 32
106 124 145
106 124 145
32 42 53
32 42 53
32 42 53
32 42 53
32 42 53
32 42 53
32 42 53
32 42 53
32 42 53
32 42 53
32 42 53
32 42 53
32 42 53
32 42 53
32 42 53
32 42 53
32 42 53
32 42 53
32 42 53
32 42 53
32 42 53
32 42 53
32 42 53
32 42 53
32 42 53
32 42 53
32 42 53
32 42 53
32 42 53
32 42 53
32 42 53
32 42 53
32 42 53
32 42 53
32 42 53
32 42 53
32 42 53
32 42 53
32 42 53
32 42 53
32 42 53
32 42 53
32 42 53
32 42 53
32 42 53
32 42 53
32 42 53
32 42 53
32 42 53
32 42 53
32 42 53
32 42 53
32 42 53
32 42 53
32 42 53
32 42 53
32 42 53
32 42 53
32 42 53
32 42 53
32 42 53
32 42 53
32 42 53
32 42 53
32 42 53
32 42 53
32 42 53
32 42 53
32 42 53
32 42 53
32 42 53
32 42 53
32 42 53
32 42 53
32 42 53
32 42 53
32 42 53
32 42 53
32 42 53
32 42 53
32 42 53
32 42 53
32 42 53
32 42 53
32 42 53
32 42 53
32 42 53
32 42 53
32 42 53
32 42 53
32 42 53
32 42 53
32 42 53
32 42 53
32 42 53
32 42 53
32 42 53
32 42 53
32 42 53
32 42 53
32 42 53
32 42 53
32 42 53
32 42 53
32 42 53
32 42 53
32 42 53
32 42 53
32 42 53
32 42 53
32 42 53
32 42 53
32 42 53
32 42 53
32 42 53
32 42 53
32 42 53
32 42 53
32 42 53
32 42 53
32 42 53
32 42 53
32 42 53
32 42 53
32 42 53
32 42 53
32 42 53
32 42 53
32 42 53
32 42 53
32 42 53
32 42 53
32 42 53
32 42 53
32 42 53
32 42 53
32 42 53
32 42 53
32 42 53
32 42 53
32 42 53
32 42 53
32 42 53
32 42 53
32 42 53
32 42 53
32 42 53
32 42 53
32 42 53
32 42 53
32 42 53
32 42 53
32 42 53
32 42 53
32 42 53
32 42 53
32 42 53
32 42 53
32 42 53
32 42 53
32 42 53
32 42 53
32 42 53
32 42 53
32 42 53
32 42 53
32 42 53
32 42 53
32 42 53
32 42 53
32 42 53
32 42 53
32 42 53
32 42 53
32 42 53
32 42 53
32 42 53
32 42 53
32 42 53
32 42 53
32 42 53
32 42 53
32 42 53
32 42 53
32 42 53
32 42 53
32 42 53
32 42 53
32 42 53
32 42 53
32 42 53
32 42 53
32 42 53
32 42 53
32 42 53
32 42 53
32 42 53
32 42 53
32 42 53
32 42 53
32 42 53
32 42 53
32 42 53
32 42 53
32 42 53
32 42 53
32 42 53
32 42 53
32 42 53
32 42 53
32 42 53
32 42 53
32 42 53
32 42 53
32 42 53
32 42 53
32 42 53
32 42 53
32 42 53
32 42 53
32 42 53
32 42 53
32 42 53
32 42 53
32 42 53
32 42 53
32 42 53
32 42 53
32 42 53
32 42 53
32 42 53
32 42 53
32 42 53
32 42 53
32 42 53
32 42 53
32 42 53
32 42 53
32 42 53
32 42 53
32 42 53
32 42 53
32 42 53
32 42 53
32 42 53
32 42 53
32 42 53
32 42 53
32 42 53
32 42 53
32 42 53
32 42 53
32 42 53
32 42 53
32 42 53
32 42 53
32 42 53
32 42 53
32 42 53
32 42 53
32 42 53
32 42 53
32 42 53
32 42 53
32 42 53
32 42 53
32 42 53
32 42 53
32 42 53
32 42 53
32 42 53
32 42 53
32 42 53
32 42 53
32 42 53
32 42 53
32 42 53
32 42 53
32 42 53
32 42 53
32 42 53
32 42 53
32 42 53
32 42 53
32 42 53
32 42 53
32 42 53
32 42 53
32 42 53
32 42 53
32 42 53
32 42 53
106 124 145
106 124 145
17 24 32
17 24 32
17 24 32
17 24 32
17 24 32
17 24 32
17 24 32
17 24 32
17 24 32
17 24 32
17 24 32
17 24 32
17 24 32
17 24 32
17 24 32
17 24 32
17 24 32
17 24 32
17 24 32
17 24 32
17 24 32
17 24 32
17 24 32
17 24 32
106 124 145
106 124 145
32 42 53
32 42 53
32 42 53
32 42 53
32 42 53
32 42 53
32 42 53
32 42 53
32 42 53
32 42 53
32 42 53
32 42 53
32 42 53
32 42 53
32 42 53
32 42 53
32 42 53
32 42 53
32 42 53
32 42 53
32 42 53
32 42 53
32 42 53
32 42 53
32 42 53
32 42 53
32 42 53
32 42 53
32 42 53
32 42 53
32 42 53
32 42 53
32 42 53
32 42 53
32 42 53
32 42 53
32 42 53
32 42 53
32 42 53
32 42 53
32 42 53
32 42 53
32 42 53
32 42 53
32 42 53
32 42 53
32 42 53
32 42 53
32 42 53
32 42 53
32 42 53
32 42 53
32 42 53
32 42 53
32 42 53
32 42 53
32 42 53
32 42 53
32 42 53
32 42 53
32 42 53
32 42 53
32 42 53
32 42 53
32 42 53
32 42 53
32 42 53
32 42 53
32 42 53
32 42 53
32 42 53
32 42 53
32 42 53
32 42 53
32 42 53
32 42 53
32 42 53
32 42 53
32 42 53
32 42 53
32 42 53
32 42 53
32 42 53
32 42 53
32 42 53
32 42 53
32 42 53
32 42 53
32 42 53
32 42 53
32 42 53
32 42 53
32 42 53
32 42 53
32 42 53
32 42 53
32 42 53
32 42 53
32 42 53
32 42 53
32 42 53
32 42 53
32 42 53
32 42 53
32 42 53
32 42 53
32 42 53
32 42 53
32 42 53
32 42 53
32 42 53
32 42 53
32 42 53
32 42 53
32 42 53
32 42 53
32 42 53
32 42 53
32 42 53
32 42 53
32 42 53
32 42 53
32 42 53
32 42 53
32 42 53
32 42 53
32 42 53
32 42 53
32 42 53
32 42 53
32 42 53
32 42 53
32 42 53
32 42 53
32 42 53
32 42 53
32 42 53
32 42 53
32 42 53
32 42 53
32 42 53
32 42 53
32 42 53
32 42 53
32 42 53
32 42 53
32 42 53
32 42 53
32 42 53
32 42 53
32 42 53
32 42 53
32 42 53
32 42 53
32 42 53
32 42 53
32 42 53
32 42 53
32 42 53
32 42 53
32 42 53
32 42 53
32 42 53
32 42 53
32 42 53
32 42 53
32 42 53
32 42 53
32 42 53
32 42 53
32 42 53
32 42 53
32 42 53
32 42 53
32 42 53
32 42 53
32 42 53
32 42 53
32 42 53
32 42 53
32 42 53
32 42 53
32 42 53
32 42 53
32 42 53
32 42 53
32 42 53
32 42 53
32 42 53
32 42 53
32 42 53
32 42 53
32 42 53
32 42 53
32 42 53
32 42 53
32 42 53
32 42 53
32 42 53
32 42 53
32 42 53
32 42 53
32 42 53
32 42 53
32 42 53
32 42 53
32 42 53
32 42 53
32 42 53
32 42 53
32 42 53
32 42 53
32 42 53
32 42 53
32 42 53
32 42 53
32 42 53
32 42 53
32 42 53
32 42 53
32 42 53
32 42 53
32 42 53
32 42 53
32 42 53
32 42 53
32 42 53
32 42 53
32 42 53
32 42 53
32 42 53
32 42 53
32 42 53
32 42 53
32 42 53
32 42 53
32 42 53
32 42 53
32 42 53
32 42 53
32 42 53
32 42 53
32 42 53
32 42 53
32 42 53
32 42 53
32 42 53
32 42 53
32 42 53
32 42 53
32 42 53
32 42 53
32 42 53
32 42 53
32 42 53
32 42 53
32 42 53
32 42 53
32 42 53
32 42 53
32 42 53
32 42 53
32 42 53
32 42 53
32 42 53
32 42 53
32 42 53
32 42 53
32 42 53
32 42 53
32 42 53
32 42 53
32 42 53
32 42 53
32 42 53
32 42 53
32 42 53
32 42 53
32 42 53
32 42 53
32 42 53
32 42 53
32 42 53
32 42 53
32 42 53
32 42 53
32 42 53
32 42 53
32 42 53
32 42 53
32 42 53
32 42 53
106 124 145
106 124 145
17 24 32
17 24 32
17 24 32
17 24 32
17 24 32
17 24 32
17 24 32
17 24 32
17 24 32
17 24 32
17 24 32
17 24 32
17 24 32
17 24 32
17 24 32
17 24 32
17 24 32
17 24 32
17 24 32
17 24 32
17 24 32
17 24 32
17 24 32
17 24 32
106 124 145
106 124 145
32 42 53
32 42 53
32 42 53
32 42 53
32 42 53
32 42 53
32 42 53
32 42 53
32 42 53
32 42 53
32 42 53
32 42 53
32 42 53
32 42 53
32 42 53
32 42 53
32 42 53
32 42 53
32 42 53
32 42 53
32 42 53
32 42 53
32 42 53
32 42 53
32 42 53
32 42 53
32 42 53
32 42 53
32 42 53
32 42 53
32 42 53
32 42 53
32 42 53
32 42 53
32 42 53
32 42 53
32 42 53
32 42 53
32 42 53
32 42 53
32 42 53
32 42 53
32 42 53
32 42 53
32 42 53
32 42 53
32 42 53
32 42 53
32 42 53
32 42 53
32 42 53
32 42 53
32 42 53
32 42 53
32 42 53
32 42 53
32 42 53
32 42 53
32 42 53
32 42 53
32 42 53
32 42 53
32 42 53
32 42 53
32 42 53
32 42 53
32 42 53
32 42 53
32 42 53
32 42 53
32 42 53
32 42 53
32 42 53
32 42 53
32 42 53
32 42 53
32 42 53
32 42 53
32 42 53
32 42 53
32 42 53
32 42 53
32 42 53
32 42 53
32 42 53
32 42 53
32 42 53
32 42 53
32 42 53
32 42 53
32 42 53
32 42 53
32 42 53
32 42 53
32 42 53
32 42 53
32 42 53
32 42 53
32 42 53
32 42 53
32 42 53
32 42 53
32 42 53
32 42 53
32 42 53
32 42 53
32 42 53
32 42 53
32 42 53
32 42 53
32 42 53
32 42 53
32 42 53
32 42 53
32 42 53
32 42 53
32 42 53
32 42 53
32 42 53
32 42 53
32 42 53
32 42 53
32 42 53
32 42 53
32 42 53
32 42 53
32 42 53
32 42 53
32 42 53
32 42 53
32 42 53
32 42 53
32 42 53
32 42 53
32 42 53
32 42 53
32 42 53
32 42 53
32 42 53
32 42 53
32 42 53
32 42 53
32 42 53
32 42 53
32 42 53
32 42 53
32 42 53
32 42 53
32 42 53
32 42 53
32 42 53
32 42 53
32 42 53
32 42 53
32 42 53
32 42 53
32 42 53
32 42 53
32 42 53
32 42 53
32 42 53
32 42 53
32 42 53
32 42 53
32 42 53
32 42 53
32 42 53
32 42 53
32 42 53
32 42 53
32 42 53
32 42 53
32 42 53
32 42 53
32 42 53
32 42 53
32 42 53
32 42 53
32 42 53
32 42 53
32 42 53
32 42 53
32 42 53
32 42 53
32 42 53
32 42 53
32 42 53
32 42 53
32 42 53
32 42 53
32 42 53
32 42 53
32 42 53
32 42 53
32 42 53
32 42 53
32 42 53
32 42 53
32 42 53
32 42 53
32 42 53
32 42 53
32 42 53
32 42 53
32 42 53
32 42 53
32 42 53
32 42 53
32 42 53
32 42 53
32 42 53
32 42 53
32 42 53
32 42 53
32 42 53
32 42 53
32 42 53
32 42 53
32 42 53
32 42 53
32 42 53
32 42 53
32 42 53
32 42 53
32 42 53
32 42 53
32 42 53
32 42 53
32 42 53
32 42 53
32 42 53
32 42 53
32 42 53
32 42 53
32 42 53
32 42 53
32 42 53
32 42 53
32 42 53
32 42 53
32 42 53
32 42 53
32 42 53
32 42 53
32 42 53
32 42 53
32 42 53
32 42 53
32 42 53
32 42 53
32 42 53
32 42 53
32 42 53
32 42 53
32 42 53
32 42 53
32 42 53
32 42 53
32 42 53
32 42 53
32 42 53
32 42 53
32 42 53
32 42 53
32 42 53
32 42 53
32 42 53
32 42 53
32 42 53
32 42 53
32 42 53
32 42 53
32 42 53
32 42 53
32 42 53
32 42 53
32 42 53
32 42 53
32 42 53
32 42 53
32 42 53
32 42 53
32 42 53
32 42 53
32 42 53
32 42 53
32 42 53
32 42 53
32 42 53
32 42 53
32 42 53
32 42 53
106 124 145
106 124 145
17 24 32
17 24 32
17 24 32
17 24 32
17 24 32
17 24 32
17 24 32
17 24 32
17 24 32
17 24 32
17 24 32
17 24 32
17 24 32
17 24 32
17 24 32
17 24 32
17 24 32
17 24 32
17 24 32
17 24 32
17 24 32
17 24 32
17 24 32
17 24 32
106 124 145
106 124 145
32 42 53
32 42 53
32 42 53
32 42 53
32 42 53
32 42 53
32 42 53
32 42 53
32 42 53
32 42 53
32 42 53
32 42 53
32 42 53
32 42 53
32 42 53
32 42 53
32 42 53
32 42 53
32 42 53
32 42 53
32 42 53
32 42 53
32 42 53
32 42 53
32 42 53
32 42 53
32 42 53
32 42 53
32 42 53
32 42 53
32 42 53
32 42 53
32 42 53
32 42 53
32 42 53
32 42 53
32 42 53
32 42 53
32 42 53
32 42 53
32 42 53
32 42 53
32 42 53
32 42 53
32 42 53
32 42 53
32 42 53
32 42 53
32 42 53
32 42 53
32 42 53
32 42 53
32 42 53
32 42 53
32 42 53
32 42 53
32 42 53
32 42 53
32 42 53
32 42 53
32 42 53
32 42 53
32 42 53
32 42 53
32 42 53
32 42 53
32 42 53
32 42 53
32 42 53
32 42 53
32 42 53
32 42 53
32 42 53
32 42 53
32 42 53
32 42 53
32 42 53
32 42 53
32 42 53
32 42 53
32 42 53
32 42 53
32 42 53
32 42 53
32 42 53
32 42 53
32 42 53
32 42 53
32 42 53
32 42 53
32 42 53
32 42 53
32 42 53
32 42 53
32 42 53
32 42 53
32 42 53
32 42 53
32 42 53
32 42 53
32 42 53
32 42 53
32 42 53
32 42 53
32 42 53
32 42 53
32 42 53
32 42 53
32 42 53
32 42 53
32 42 53
32 42 53
32 42 53
32 42 53
32 42 53
32 42 53
32 42 53
32 42 53
32 42 53
32 42 53
32 42 53
32 42 53
32 42 53
32 42 53
32 42 53
32 42 53
32 42 53
32 42 53
32 42 53
32 42 53
32 42 53
32 42 53
32 42 53
32 42 53
32 42 53
32 42 53
32 42 53
32 42 53
32 42 53
32 42 53
32 42 53
32 42 53
32 42 53
32 42 53
32 42 53
32 42 53
32 42 53
32 42 53
32 42 53
32 42 53
32 42 53
32 42 53
32 42 53
32 42 53
32 42 53
32 42 53
32 42 53
32 42 53
32 42 53
32 42 53
32 42 53
32 42 53
32 42 53
32 42 53
32 42 53
32 42 53
32 42 53
32 42 53
32 42 53
32 42 53
32 42 53
32 42 53
32 42 53
32 42 53
32 42 53
32 42 53
32 42 53
32 42 53
32 42 53
32 42 53
32 42 53
32 42 53
32 42 53
32 42 53
32 42 53
32 42 53
32 42 53
32 42 53
32 42 53
32 42 53
32 42 53
32 42 53
32 42 53
32 42 53
32 42 53
32 42 53
32 42 53
32 42 53
32 42 53
32 42 53
32 42 53
32 42 53
32 42 53
32 42 53
32 42 53
32 42 53
32 42 53
32 42 53
32 42 53
32 42 53
32 42 53
32 42 53
32 42 53
32 42 53
32 42 53
32 42 53
32 42 53
32 42 53
32 42 53
32 42 53
32 42 53
32 42 53
32 42 53
32 42 53
32 42 53
32 42 53
32 42 53
32 42 53
32 42 53
32 42 53
32 42 53
32 42 53
32 42 53
32 42 53
32 42 53
32 42 53
32 42 53
32 42 53
32 42 53
32 42 53
32 42 53
32 42 53
32 42 53
32 42 53
32 42 53
32 42 53
32 42 53
32 42 53
32 42 53
32 42 53
32 42 53
32 42 53
32 42 53
32 42 53
32 42 53
32 42 53
32 42 53
32 42 53
32 42 53
32 42 53
32 42 53
32 42 53
32 42 53
32 42 53
32 42 53
32 42 53
32 42 53
32 42 53
32 42 53
32 42 53
32 42 53
32 42 53
32 42 53
32 42 53
32 42 53
32 42 53
32 42 53
32 42 53
32 42 53
32 42 53
32 42 53
32 42 53
32 42 53
32 42 53
32 42 53
32 42 53
32 42 53
32 42 53
32 42 53
32 42 53
32 42 53
32 42 53
106 124 145
106 124 145
17 24 32
17 24 32
17 24 32
17 24 32
17 24 32
17 24 32
17 24 32
17 24 32
17 24 32
17 24 32
17 24 32
17 24 32
17 24 32
17 24 32
17 24 32
17 24 32
17 24 32
17 24 32
17 24 32
17 24 32
17 24 32
17 24 32
17 24 32
17 24 32
106 124 145
106 124 145
32 42 53
32 42 53
32 42 53
32 42 53
32 42 53
32 42 53
32 42 53
32 42 53
32 42 53
32 42 53
32 42 53
32 42 53
32 42 53
32 42 53
32 42 53
32 42 53
32 42 53
32 42 53
32 42 53
32 42 53
32 42 53
32 42 53
32 42 53
32 42 53
32 42 53
32 42 53
32 42 53
32 42 53
32 42 53
32 42 53
32 42 53
32 42 53
32 42 53
32 42 53
32 42 53
32 42 53
32 42 53
32 42 53
32 42 53
32 42 53
32 42 53
32 42 53
32 42 53
32 42 53
32 42 53
32 42 53
32 42 53
32 42 53
32 42 53
32 42 53
32 42 53
32 42 53
32 42 53
32 42 53
32 42 53
32 42 53
32 42 53
32 42 53
32 42 53
32 42 53
32 42 53
32 42 53
32 42 53
32 42 53
32 42 53
32 42 53
32 42 53
32 42 53
32 42 53
32 42 53
32 42 53
32 42 53
32 42 53
32 42 53
32 42 53
32 42 53
32 42 53
32 42 53
32 42 53
32 42 53
32 42 53
32 42 53
32 42 53
32 42 53
32 42 53
32 42 53
32 42 53
32 42 53
32 42 53
32 42 53
32 42 53
32 42 53
32 42 53
32 42 53
32 42 53
32 42 53
32 42 53
32 42 53
32 42 53
32 42 53
32 42 53
32 42 53
32 42 53
32 42 53
32 42 53
32 42 53
32 42 53
32 42 53
32 42 53
32 42 53
32 42 53
32 42 53
32 42 53
32 42 53
32 42 53
32 42 53
32 42 53
32 42 53
32 42 53
32 42 53
32 42 53
32 42 53
32 42 53
32 42 53
32 42 53
32 42 53
32 42 53
32 42 53
32 42 53
32 42 53
32 42 53
32 42 53
32 42 53
32 42 53
32 42 53
32 42 53
32 42 53
32 42 53
32 42 53
32 42 53
32 42 53
32 42 53
32 42 53
32 42 53
32 42 53
32 42 53
32 42 53
32 42 53
32 42 53
32 42 53
32 42 53
32 42 53
32 42 53
32 42 53
32 42 53
32 42 53
32 42 53
32 42 53
32 42 53
32 42 53
32 42 53
32 42 53
32 42 53
32 42 53
32 42 53
32 42 53
32 42 53
32 42 53
32 42 53
32 42 53
32 42 53
32 42 53
32 42 53
32 42 53
32 42 53
32 42 53
32 42 53
32 42 53
32 42 53
32 42 53
32 42 53
32 42 53
32 42 53
32 42 53
32 42 53
32 42 53
32 42 53
32 42 53
32 42 53
32 42 53
32 42 53
32 42 53
32 42 53
32 42 53
32 42 53
32 42 53
32 42 53
32 42 53
32 42 53
32 42 53
32 42 53
32 42 53
32 42 53
32 42 53
32 42 53
32 42 53
32 42 53
32 42 53
32 42 53
32 42 53
32 42 53
32 42 53
32 42 53
32 42 53
32 42 53
32 42 53
32 42 53
32 42 53
32 42 53
32 42 53
32 42 53
32 42 53
32 42 53
32 42 53
32 42 53
32 42 53
32 42 53
32 42 53
32 42 53
32 42 53
32 42 53
32 42 53
32 42 53
32 42 53
32 42 53
32 42 53
32 42 53
32 42 53
32 42 53
32 42 53
32 42 53
32 42 53
32 42 53
32 42 53
32 42 53
32 42 53
32 42 53
32 42 53
32 42 53
32 42 53
32 42 53
32 42 53
32 42 53
32 42 53
32 42 53
32 42 53
32 42 53
32 42 53
32 42 53
32 42 53
32 42 53
32 42 53
32 42 53
32 42 53
32 42 53
32 42 53
32 42 53
32 42 53
32 42 53
32 42 53
32 42 53
32 42 53
32 42 53
32 42 53
32 42 53
32 42 53
32 42 53
32 42 53
32 42 53
32 42 53
32 42 53
32 42 53
32 42 53
32 42 53
32 42 53
32 42 53
32 42 53
32 42 53
32 42 53
32 42 53
32 42 53
32 42 53
106 124 145
106 124 145
17 24 32
17 24 32
17 24 32
17 24 32
17 24 32
17 24 32
17 24 32
17 24 32
17 24 32
17 24 32
17 24 32
17 24 32
17 24 32
17 24 32
17 24 32
17 24 32
17 24 32
17 24 32
17 24 32
17 24 32
17 24 32
17 24 32
17 24 32
17 24 32
106 124 145
106 124 145
32 42 53
32 42 53
32 42 53
32 42 53
32 42 53
32 42 53
32 42 53
32 42 53
32 42 53
32 42 53
32 42 53
32 42 53
32 42 53
32 42 53
32 42 53
32 42 53
32 42 53
32 42 53
32 42 53
32 42 53
32 42 53
32 42 53
32 42 53
32 42 53
32 42 53
32 42 53
32 42 53
32 42 53
32 42 53
32 42 53
32 42 53
32 42 53
32 42 53
32 42 53
32 42 53
32 42 53
32 42 53
32 42 53
32 42 53
32 42 53
32 42 53
32 42 53
32 42 53
32 42 53
32 42 53
32 42 53
32 42 53
32 42 53
32 42 53
32 42 53
32 42 53
32 42 53
32 42 53
32 42 53
32 42 53
32 42 53
32 42 53
32 42 53
32 42 53
32 42 53
32 42 53
32 42 53
32 42 53
32 42 53
32 42 53
32 42 53
32 42 53
32 42 53
32 42 53
32 42 53
32 42 53
32 42 53
32 42 53
32 42 53
32 42 53
32 42 53
32 42 53
32 42 53
32 42 53
32 42 53
32 42 53
32 42 53
32 42 53
32 42 53
32 42 53
32 42 53
32 42 53
32 42 53
32 42 53
32 42 53
32 42 53
32 42 53
32 42 53
32 42 53
32 42 53
32 42 53
32 42 53
32 42 53
32 42 53
32 42 53
32 42 53
32 42 53
32 42 53
32 42 53
32 42 53
32 42 53
32 42 53
32 42 53
32 42 53
32 42 53
32 42 53
32 42 53
32 42 53
32 42 53
32 42 53
32 42 53
32 42 53
32 42 53
32 42 53
32 42 53
32 42 53
32 42 53
32 42 53
32 42 53
32 42 53
32 42 53
32 42 53
32 42 53
32 42 53
32 42 53
32 42 53
32 42 53
32 42 53
32 42 53
32 42 53
32 42 53
32 42 53
32 42 53
32 42 53
32 42 53
32 42 53
32 42 53
32 42 53
32 42 53
32 42 53
32 42 53
32 42 53
32 42 53
32 42 53
32 42 53
32 42 53
32 42 53
32 42 53
32 42 53
32 42 53
32 42 53
32 42 53
32 42 53
32 42 53
32 42 53
32 42 53
32 42 53
32 42 53
32 42 53
32 42 53
32 42 53
32 42 53
32 42 53
32 42 53
32 42 53
32 42 53
32 42 53
32 42 53
32 42 53
32 42 53
32 42 53
32 42 53
32 42 53
32 42 53
32 42 53
32 42 53
32 42 53
32 42 53
32 42 53
32 42 53
32 42 53
32 42 53
32 42 53
32 42 53
32 42 53
32 42 53
32 42 53
32 42 53
32 42 53
32 42 53
32 42 53
32 42 53
32 42 53
32 42 53
32 42 53
32 42 53
32 42 53
32 42 53
32 42 53
32 42 53
32 42 53
32 42 53
32 42 53
32 42 53
32 42 53
32 42 53
32 42 53
32 42 53
32 42 53
32 42 53
32 42 53
32 42 53
32 42 53
32 42 53
32 42 53
32 42 53
32 42 53
32 42 53
32 42 53
32 42 53
32 42 53
32 42 53
32 42 53
32 42 53
32 42 53
32 42 53
32 42 53
32 42 53
32 42 53
32 42 53
32 42 53
32 42 53
32 42 53
32 42 53
32 42 53
32 42 53
32 42 53
32 42 53
32 42 53
32 42 53
32 42 53
32 42 53
32 42 53
32 42 53
32 42 53
32 42 53
32 42 53
32 42 53
32 42 53
32 42 53
32 42 53
32 42 53
32 42 53
32 42 53
32 42 53
32 42 53
32 42 53
32 42 53
32 42 53
32 42 53
32 42 53
32 42 53
32 42 53
32 42 53
32 42 53
32 42 53
32 42 53
32 42 53
32 42 53
32 42 53
32 42 53
32 42 53
32 42 53
32 42 53
32 42 53
32 42 53
32 42 53
32 42 53
32 42 53
32 42 53
32 42 53
32 42 53
32 42 53
32 42 53
32 42 53
32 42 53
32 42 53
106 124 145
106 124 145
17 24 32
17 24 32
17 24 32
17 24 32
17 24 32
17 24 32
17 24 32
17 24 32
17 24 32
17 24 32
17 24 32
17 24 32
17 24 32
17 24 32
17 24 32
17 24 32
17 24 32
17 24 32
17 24 32
17 24 32
17 24 32
17 24 32
17 24 32
17 24 32
106 124 145
106 124 145
32 42 53
32 42 53
32 42 53
32 42 53
32 42 53
32 42 53
32 42 53
32 42 53
32 42 53
32 42 53
32 42 53
32 42 53
32 42 53
32 42 53
32 42 53
32 42 53
32 42 53
32 42 53
32 42 53
32 42 53
32 42 53
32 42 53
32 42 53
32 42 53
32 42 53
32 42 53
32 42 53
32 42 53
32 42 53
32 42 53
32 42 53
32 42 53
32 42 53
32 42 53
32 42 53
32 42 53
32 42 53
32 42 53
32 42 53
32 42 53
32 42 53
32 42 53
32 42 53
32 42 53
32 42 53
32 42 53
32 42 53
32 42 53
32 42 53
32 42 53
32 42 53
32 42 53
32 42 53
32 42 53
32 42 53
32 42 53
32 42 53
32 42 53
32 42 53
32 42 53
32 42 53
32 42 53
32 42 53
32 42 53
32 42 53
32 42 53
32 42 53
32 42 53
32 42 53
32 42 53
32 42 53
32 42 53
32 42 53
32 42 53
32 42 53
32 42 53
32 42 53
32 42 53
32 42 53
32 42 53
32 42 53
32 42 53
32 42 53
32 42 53
32 42 53
32 42 53
32 42 53
32 42 53
32 42 53
32 42 53
32 42 53
32 42 53
32 42 53
32 42 53
32 42 53
32 42 53
32 42 53
32 42 53
32 42 53
32 42 53
32 42 53
32 42 53
32 42 53
32 42 53
32 42 53
32 42 53
32 42 53
32 42 53
32 42 53
32 42 53
32 42 53
32 42 53
32 42 53
32 42 53
32 42 53
32 42 53
32 42 53
32 42 53
32 42 53
32 42 53
32 42 53
32 42 53
32 42 53
32 42 53
32 42 53
32 42 53
32 42 53
32 42 53
32 42 53
32 42 53
32 42 53
32 42 53
32 42 53
32 42 53
32 42 53
32 42 53
32 42 53
32 42 53
32 42 53
32 42 53
32 42 53
32 42 53
32 42 53
32 42 53
32 42 53
32 42 53
32 42 53
32 42 53
32 42 53
32 42 53
32 42 53
32 42 53
32 42 53
32 42 53
32 42 53
32 42 53
32 42 53
32 42 53
32 42 53
32 42 53
32 42 53
32 42 53
32 42 53
32 42 53
32 42 53
32 42 53
32 42 53
32 42 53
32 42 53
32 42 53
32 42 53
32 42 53
32 42 53
32 42 53
32 42 53
32 42 53
32 42 53
32 42 53
32 42 53
32 42 53
32 42 53
32 42 53
32 42 53
32 42 53
32 42 53
32 42 53
32 42 53
32 42 53
32 42 53
32 42 53
32 42 53
32 42 53
32 42 53
32 42 53
32 42 53
32 42 53
32 42 53
32 42 53
32 42 53
32 42 53
32 42 53
32 42 53
32 42 53
32 42 53
32 42 53
32 42 53
32 42 53
32 42 53
32 42 53
32 42 53
32 42 53
32 42 53
32 42 53
32 42 53
32 42 53
32 42 53
32 42 53
32 42 53
32 42 53
32 42 53
32 42 53
32 42 53
32 42 53
32 42 53
32 42 53
32 42 53
32 42 53
32 42 53
32 42 53
32 42 53
32 42 53
32 42 53
32 42 53
32 42 53
32 42 53
32 42 53
32 42 53
32 42 53
32 42 53
32 42 53
32 42 53
32 42 53
32 42 53
32 42 53
32 42 53
32 42 53
32 42 53
32 42 53
32 42 53
32 42 53
32 42 53
32 42 53
32 42 53
32 42 53
32 42 53
32 42 53
32 42 53
32 42 53
32 42 53
32 42 53
32 42 53
32 42 53
32 42 53
32 42 53
32 42 53
32 42 53
32 42 53
32 42 53
32 42 53
32 42 53
32 42 53
32 42 53
32 42 53
32 42 53
32 42 53
32 42 53
32 42 53
32 42 53
32 42 53
32 42 53
32 42 53
32 42 53
32 42 53
32 42 53
32 42 53
32 42 53
32 42 53
32 42 53
32 42 53
32 42 53
32 42 53
32 42 53
106 124 145
106 124 145
17 24 32
17 24 32
17 24 32
17 24 32
17 24 32
17 24 32
17 24 32
17 24 32
17 24 32
17 24 32
17 24 32
17 24 32
17 24 32
17 24 32
17 24 32
17 24 32
17 24 32
17 24 32
17 24 32
17 24 32
17 24 32
17 24 32
17 24 32
17 24 32
106 124 145
106 124 145
32 42 53
32 42 53
32 42 53
32 42 53
32 42 53
32 42 53
32 42 53
32 42 53
32 42 53
32 42 53
32 42 53
32 42 53
32 42 53
32 42 53
32 42 53
32 42 53
32 42 53
32 42 53
32 42 53
32 42 53
32 42 53
32 42 53
32 42 53
32 42 53
32 42 53
32 42 53
32 42 53
32 42 53
32 42 53
32 42 53
32 42 53
32 42 53
32 42 53
32 42 53
32 42 53
32 42 53
32 42 53
32 42 53
32 42 53
32 42 53
32 42 53
32 42 53
32 42 53
32 42 53
32 42 53
32 42 53
32 42 53
32 42 53
32 42 53
32 42 53
32 42 53
32 42 53
32 42 53
32 42 53
32 42 53
32 42 53
32 42 53
32 42 53
32 42 53
32 42 53
32 42 53
32 42 53
32 42 53
32 42 53
32 42 53
32 42 53
32 42 53
32 42 53
32 42 53
32 42 53
32 42 53
32 42 53
32 42 53
32 42 53
32 42 53
32 42 53
32 42 53
32 42 53
32 42 53
32 42 53
32 42 53
32 42 53
32 42 53
32 42 53
32 42 53
32 42 53
32 42 53
32 42 53
32 42 53
32 42 53
32 42 53
32 42 53
32 42 53
32 42 53
32 42 53
32 42 53
32 42 53
32 42 53
32 42 53
32 42 53
32 42 53
32 42 53
32 42 53
32 42 53
32 42 53
32 42 53
32 42 53
32 42 53
32 42 53
32 42 53
32 42 53
32 42 53
32 42 53
32 42 53
32 42 53
32 42 53
32 42 53
32 42 53
32 42 53
32 42 53
32 42 53
32 42 53
32 42 53
32 42 53
32 42 53
32 42 53
32 42 53
32 42 53
32 42 53
32 42 53
32 42 53
32 42 53
32 42 53
32 42 53
32 42 53
32 42 53
32 42 53
32 42 53
32 42 53
32 42 53
32 42 53
32 42 53
32 42 53
32 42 53
32 42 53
32 42 53
32 42 53
32 42 53
32 42 53
32 42 53
32 42 53
32 42 53
32 42 53
32 42 53
32 42 53
32 42 53
32 42 53
32 42 53
32 42 53
32 42 53
32 42 53
32 42 53
32 42 53
32 42 53
32 42 53
32 42 53
32 42 53
32 42 53
32 42 53
32 42 53
32 42 53
32 42 53
32 42 53
32 42 53
32 42 53
32 42 53
32 42 53
32 42 53
32 42 53
32 42 53
32 42 53
32 42 53
32 42 53
32 42 53
32 42 53
32 42 53
32 42 53
32 42 53
32 42 53
32 42 53
32 42 53
32 42 53
32 42 53
32 42 53
32 42 53
32 42 53
32 42 53
32 42 53
32 42 53
32 42 53
32 42 53
32 42 53
32 42 53
32 42 53
32 42 53
32 42 53
32 42 53
32 42 53
32 42 53
32 42 53
32 42 53
32 42 53
32 42 53
32 42 53
32 42 53
32 42 53
32 42 53
32 42 53
32 42 53
32 42 53
32 42 53
32 42 53
32 42 53
32 42 53
32 42 53
32 42 53
32 42 53
32 42 53
32 42 53
32 42 53
32 42 53
32 42 53
32 42 53
32 42 53
32 42 53
32 42 53
32 42 53
32 42 53
32 42 53
32 42 53
32 42 53
32 42 53
32 42 53
32 42 53
32 42 53
32 42 53
32 42 53
32 42 53
32 42 53
32 42 53
32 42 53
32 42 53
32 42 53
32 42 53
32 42 53
32 42 53
32 42 53
32 42 53
32 42 53
32 42 53
32 42 53
32 42 53
32 42 53
32 42 53
32 42 53
32 42 53
32 42 53
32 42 53
32 42 53
32 42 53
32 42 53
32 42 53
32 42 53
32 42 53
32 42 53
32 42 53
32 42 53
32 42 53
32 42 53
32 42 53
32 42 53
32 42 53
32 42 53
32 42 53
32 42 53
32 42 53
32 42 53
32 42 53
32 42 53
32 42 53
32 42 53
32 42 53
106 124 145
106 124 145
17 24 32
17 24 32
17 24 32
17 24 32
17 24 32
17 24 32
17 24 32
17 24 32
17 24 32
17 24 32
17 24 32
17 24 32
17 24 32
17 24 32
17 24 32
17 24 32
17 24 32
17 24 32
17 24 32
17 24 32
17 24 32
17 24 32
17 24 32
17 24 32
106 124 145
106 124 145
32 42 53
32 42 53
32 42 53
32 42 53
32 42 53
32 42 53
32 42 53
32 42 53
32 42 53
32 42 53
32 42 53
32 42 53
32 42 53
32 42 53
32 42 53
32 42 53
32 42 53
32 42 53
32 42 53
32 42 53
32 42 53
32 42 53
32 42 53
32 42 53
32 42 53
32 42 53
32 42 53
32 42 53
32 42 53
32 42 53
32 42 53
32 42 53
32 42 53
32 42 53
32 42 53
32 42 53
32 42 53
32 42 53
32 42 53
32 42 53
32 42 53
32 42 53
32 42 53
32 42 53
32 42 53
32 42 53
32 42 53
32 42 53
32 42 53
32 42 53
32 42 53
32 42 53
32 42 53
32 42 53
32 42 53
32 42 53
32 42 53
32 42 53
32 42 53
32 42 53
32 42 53
32 42 53
32 42 53
32 42 53
32 42 53
32 42 53
32 42 53
32 42 53
32 42 53
32 42 53
32 42 53
32 42 53
32 42 53
32 42 53
32 42 53
32 42 53
32 42 53
32 42 53
32 42 53
32 42 53
32 42 53
32 42 53
32 42 53
32 42 53
32 42 53
32 42 53
32 42 53
32 42 53
32 42 53
32 42 53
32 42 53
32 42 53
32 42 53
32 42 53
32 42 53
32 42 53
32 42 53
32 42 53
32 42 53
32 42 53
32 42 53
32 42 53
32 42 53
32 42 53
32 42 53
32 42 53
32 42 53
32 42 53
32 42 53
32 42 53
32 42 53
32 42 53
32 42 53
32 42 53
32 42 53
32 42 53
32 42 53
32 42 53
32 42 53
32 42 53
32 42 53
32 42 53
32 42 53
32 42 53
32 42 53
32 42 53
32 42 53
32 42 53
32 42 53
32 42 53
32 42 53
32 42 53
32 42 53
32 42 53
32 42 53
32 42 53
32 42 53
32 42 53
32 42 53
32 42 53
32 42 53
32 42 53
32 42 53
32 42 53
32 42 53
32 42 53
32 42 53
32 42 53
32 42 53
32 42 53
32 42 53
32 42 53
32 42 53
32 42 53
32 42 53
32 42 53
32 42 53
32 42 53
32 42 53
32 42 53
32 42 53
32 42 53
32 42 53
32 42 53
32 42 53
32 42 53
32 42 53
32 42 53
32 42 53
32 42 53
32 42 53
32 42 53
32 42 53
32 42 53
32 42 53
32 42 53
32 42 53
32 42 53
32 42 53
32 42 53
32 42 53
32 42 53
32 42 53
32 42 53
32 42 53
32 42 53
32 42 53
32 42 53
32 42 53
32 42 53
32 42 53
32 42 53
32 42 53
32 42 53
32 42 53
32 42 53
32 42 53
32 42 53
32 42 53
32 42 53
32 42 53
32 42 53
32 42 53
32 42 53
32 42 53
32 42 53
32 42 53
32 42 53
32 42 53
32 42 53
32 42 53
32 42 53
32 42 53
32 42 53
32 42 53
32 42 53
32 42 53
32 42 53
32 42 53
32 42 53
32 42 53
32 42 53
32 42 53
32 42 53
32 42 53
32 42 53
32 42 53
32 42 53
32 42 53
32 42 53
32 42 53
32 42 53
32 42 53
32 42 53
32 42 53
32 42 53
32 42 53
32 42 53
32 42 53
32 42 53
32 42 53
32 42 53
32 42 53
32 42 53
32 42 53
32 42 53
32 42 53
32 42 53
32 42 53
32 42 53
32 42 53
32 42 53
32 42 53
32 42 53
32 42 53
32 42 53
32 42 53
32 42 53
32 42 53
32 42 53
32 42 53
32 42 53
32 42 53
32 42 53
32 42 53
32 42 53
32 42 53
32 42 53
32 42 53
32 42 53
32 42 53
32 42 53
32 42 53
32 42 53
32 42 53
32 42 53
32 42 53
32 42 53
32 42 53
32 42 53
32 42 53
32 42 53
32 42 53
32 42 53
32 42 53
32 42 53
32 42 53
32 42 53
32 42 53
32 42 53
32 42 53
32 42 53
106 124 145
106 124 145
17 24 32
17 24 32
17 24 32
17 24 32
17 24 32
17 24 32
17 24 32
17 24 32
17 24 32
17 24 32
17 24 32
17 24 32
17 24 32
17 24 32
17 24 32
17 24 32
17 24 32
17 24 32
17 24 32
17 24 32
17 24 32
17 24 32
17 24 32
17 24 32
106 124 145
106 124 145
32 42 53
32 42 53
32 42 53
32 42 53
32 42 53
32 42 53
32 42 53
32 42 53
32 42 53
32 42 53
32 42 53
32 42 53
32 42 53
32 42 53
32 42 53
32 42 53
32 42 53
32 42 53
32 42 53
32 42 53
32 42 53
32 42 53
32 42 53
32 42 53
32 42 53
32 42 53
32 42 53
32 42 53
32 42 53
32 42 53
32 42 53
32 42 53
32 42 53
32 42 53
32 42 53
32 42 53
32 42 53
32 42 53
32 42 53
32 42 53
32 42 53
32 42 53
32 42 53
32 42 53
32 42 53
32 42 53
32 42 53
32 42 53
32 42 53
32 42 53
32 42 53
32 42 53
32 42 53
32 42 53
32 42 53
32 42 53
32 42 53
32 42 53
32 42 53
32 42 53
32 42 53
32 42 53
32 42 53
32 42 53
32 42 53
32 42 53
32 42 53
32 42 53
32 42 53
32 42 53
32 42 53
32 42 53
32 42 53
32 42 53
32 42 53
32 42 53
32 42 53
32 42 53
32 42 53
32 42 53
32 42 53
32 42 53
32 42 53
32 42 53
32 42 53
32 42 53
32 42 53
32 42 53
32 42 53
32 42 53
32 42 53
32 42 53
32 42 53
32 42 53
32 42 53
32 42 53
32 42 53
32 42 53
32 42 53
32 42 53
32 42 53
32 42 53
32 42 53
32 42 53
32 42 53
32 42 53
32 42 53
32 42 53
32 42 53
32 42 53
32 42 53
32 42 53
32 42 53
32 42 53
32 42 53
32 42 53
32 42 53
32 42 53
32 42 53
32 42 53
32 42 53
32 42 53
32 42 53
32 42 53
32 42 53
32 42 53
32 42 53
32 42 53
32 42 53
32 42 53
32 42 53
32 42 53
32 42 53
32 42 53
32 42 53
32 42 53
32 42 53
32 42 53
32 42 53
32 42 53
32 42 53
32 42 53
32 42 53
32 42 53
32 42 53
32 42 53
32 42 53
32 42 53
32 42 53
32 42 53
32 42 53
32 42 53
32 42 53
32 42 53
32 42 53
32 42 53
32 42 53
32 42 53
32 42 53
32 42 53
32 42 53
32 42 53
32 42 53
32 42 53
32 42 53
32 42 53
32 42 53
32 42 53
32 42 53
32 42 53
32 42 53
32 42 53
32 42 53
32 42 53
32 42 53
32 42 53
32 42 53
32 42 53
32 42 53
32 42 53
32 42 53
32 42 53
32 42 53
32 42 53
32 42 53
32 42 53
32 42 53
32 42 53
32 42 53
32 42 53
32 42 53
32 42 53
32 42 53
32 42 53
32 42 53
32 42 53
32 42 53
32 42 53
32 42 53
32 42 53
32 42 53
32 42 53
32 42 53
32 42 53
32 42 53
32 42 53
32 42 53
32 42 53
32 42 53
32 42 53
32 42 53
32 42 53
32 42 53
32 42 53
32 42 53
32 42 53
32 42 53
32 42 53
32 42 53
32 42 53
32 42 53
32 42 53
32 42 53
32 42 53
32 42 53
32 42 53
32 42 53
32 42 53
32 42 53
32 42 53
32 42 53
32 42 53
32 42 53
32 42 53
32 42 53
32 42 53
32 42 53
32 42 53
32 42 53
32 42 53
32 42 53
32 42 53
32 42 53
32 42 53
32 42 53
32 42 53
32 42 53
32 42 53
32 42 53
32 42 53
32 42 53
32 42 53
32 42 53
32 42 53
32 42 53
32 42 53
32 42 53
32 42 53
32 42 53
32 42 53
32 42 53
32 42 53
32 42 53
32 42 53
32 42 53
32 42 53
32 42 53
32 42 53
32 42 53
32 42 53
32 42 53
32 42 53
32 42 53
32 42 53
32 42 53
32 42 53
32 42 53
32 42 53
32 42 53
32 42 53
32 42 53
32 42 53
32 42 53
32 42 53
32 42 53
32 42 53
32 42 53
32 42 53
32 42 53
32 42 53
32 42 53
32 42 53
106 124 145
106 124 145
17 24 32
17 24 32
17 24 32
17 24 32
17 24 32
17 24 32
17 24 32
17 24 32
17 24 32
17 24 32
17 24 32
17 24 32
17 24 32
17 24 32
17 24 32
17 24 32
17 24 32
17 24 32
17 24 32
17 24 32
17 24 32
17 24 32
17 24 32
17 24 32
106 124 145
106 124 145
32 42 53
32 42 53
32 42 53
32 42 53
32 42 53
32 42 53
32 42 53
32 42 53
32 42 53
32 42 53
32 42 53
32 42 53
32 42 53
32 42 53
32 42 53
32 42 53
32 42 53
32 42 53
32 42 53
32 42 53
32 42 53
32 42 53
32 42 53
32 42 53
32 42 53
32 42 53
32 42 53
32 42 53
32 42 53
32 42 53
32 42 53
32 42 53
32 42 53
32 42 53
32 42 53
32 42 53
32 42 53
32 42 53
32 42 53
32 42 53
32 42 53
32 42 53
32 42 53
32 42 53
32 42 53
32 42 53
32 42 53
32 42 53
32 42 53
32 42 53
32 42 53
32 42 53
32 42 53
32 42 53
32 42 53
32 42 53
32 42 53
32 42 53
32 42 53
32 42 53
32 42 53
32 42 53
32 42 53
32 42 53
32 42 53
32 42 53
32 42 53
32 42 53
32 42 53
32 42 53
32 42 53
32 42 53
32 42 53
32 42 53
32 42 53
32 42 53
32 42 53
32 42 53
32 42 53
32 42 53
32 42 53
32 42 53
32 42 53
32 42 53
32 42 53
32 42 53
32 42 53
32 42 53
32 42 53
32 42 53
32 42 53
32 42 53
32 42 53
32 42 53
32 42 53
32 42 53
32 42 53
32 42 53
32 42 53
32 42 53
32 42 53
32 42 53
32 42 53
32 42 53
32 42 53
32 42 53
32 42 53
32 42 53
32 42 53
32 42 53
32 42 53
32 42 53
32 42 53
32 42 53
32 42 53
32 42 53
32 42 53
32 42 53
32 42 53
32 42 53
32 42 53
32 42 53
32 42 53
32 42 53
32 42 53
32 42 53
32 42 53
32 42 53
32 42 53
32 42 53
32 42 53
32 42 53
32 42 53
32 42 53
32 42 53
32 42 53
32 42 53
32 42 53
32 42 53
32 42 53
32 42 53
32 42 53
32 42 53
32 42 53
32 42 53
32 42 53
32 42 53
32 42 53
32 42 53
32 42 53
32 42 53
32 42 53
32 42 53
32 42 53
32 42 53
32 42 53
32 42 53
32 42 53
32 42 53
32 42 53
32 42 53
32 42 53
32 42 53
32 42 53
32 42 53
32 42 53
32 42 53
32 42 53
32 42 53
32 42 53
32 42 53
32 42 53
32 42 53
32 42 53
32 42 53
32 42 53
32 42 53
32 42 53
32 42 53
32 42 53
32 42 53
32 42 53
32 42 53
32 42 53
32 42 53
32 42 53
32 42 53
32 42 53
32 42 53
32 42 53
32 42 53
32 42 53
32 42 53
32 42 53
32 42 53
32 42 53
32 42 53
32 42 53
32 42 53
32 42 53
32 42 53
32 42 53
32 42 53
32 42 53
32 42 53
32 42 53
32 42 53
32 42 53
32 42 53
32 42 53
32 42 53
32 42 53
32 42 53
32 42 53
32 42 53
32 42 53
32 42 53
32 42 53
32 42 53
32 42 53
32 42 53
32 42 53
32 42 53
32 42 53
32 42 53
32 42 53
32 42 53
32 42 53
32 42 53
32 42 53
32 42 53
32 42 53
32 42 53
32 42 53
32 42 53
32 42 53
32 42 53
32 42 53
32 42 53
32 42 53
32 42 53
32 42 53
32 42 53
32 42 53
32 42 53
32 42 53
32 42 53
32 42 53
32 42 53
32 42 53
32 42 53
32 42 53
32 42 53
32 42 53
32 42 53
32 42 53
32 42 53
32 42 53
32 42 53
32 42 53
32 42 53
32 42 53
32 42 53
32 42 53
32 42 53
32 42 53
32 42 53
32 42 53
32 42 53
32 42 53
32 42 53
32 42 53
32 42 53
32 42 53
32 42 53
32 42 53
32 42 53
32 42 53
32 42 53
32 42 53
32 42 53
32 42 53
32 42 53
32 42 53
32 42 53
32 42 53
32 42 53
32 42 53
32 42 53
32 42 53
32 42 53
32 42 53
106 124 145
106 124 145
17 24 32
17 24 32
17 24 32
17 24 32
17 24 32
17 24 32
17 24 32
17 24 32
17 24 32
17 24 32
17 24 32
17 24 32
17 24 32
17 24 32
17 24 32
17 24 32
17 24 32
17 24 32
17 24 32
17 24 32
17 24 32
17 24 32
17 24 32
17 24 32
106 124 145
106 124 145
32 42 53
32 42 53
32 42 53
32 42 53
32 42 53
32 42 53
32 42 53
32 42 53
32 42 53
32 42 53
32 42 53
32 42 53
32 42 53
32 42 53
32 42 53
32 42 53
32 42 53
32 42 53
32 42 53
32 42 53
32 42 53
32 42 53
32 42 53
183 210 255
183 210 255
183 210 255
183 210 255
183 210 255
183 210 255
183 210 255
183 210 255
183 210 255
183 210 255
183 210 255
183 210 255
183 210 255
183 210 255
183 210 255
183 210 255
183 210 255
183 210 255
183 210 255
183 210 255
183 210 255
183 210 255
183 210 255
183 210 255
183 210 255
183 210 255
183 210 255
183 210 255
183 210 255
183 210 255
183 210 255
183 210 255
183 210 255
183 210 255
183 210 255
183 210 255
183 210 255
183 210 255
183 210 255
183 210 255
183 210 255
183 210 255
183 210 255
183 210 255
183 210 255
183 210 255
183 210 255
183 210 255
183 210 255
183 210 255
183 210 255
183 210 255
183 210 255
183 210 255
183 210 255
183 210 255
183 210 255
183 210 255
183 210 255
183 210 255
183 210 255
183 210 255
183 210 255
183 210 255
183 210 255
183 210 255
183 210 255
183 210 255
183 210 255
183 210 255
183 210 255
183 210 255
183 210 255
183 210 255
183 210 255
183 210 255
183 210 255
183 210 255
183 210 255
183 210 255
183 210 255
183 210 255
183 210 255
183 210 255
183 210 255
183 210 255
32 42 53
32 42 53
32 42 53
32 42 53
32 42 53
32 42 53
32 42 53
32 42 53
32 42 53
32 42 53
32 42 53
32 42 53
32 42 53
32 42 53
32 42 53
32 42 53
32 42 53
32 42 53
32 42 53
32 42 53
32 42 53
32 42 53
32 42 53
32 42 53
32 42 53
32 42 53
32 42 53
32 42 53
32 42 53
32 42 53
32 42 53
32 42 53
32 42 53
32 42 53
32 42 53
32 42 53
32 42 53
32 42 53
32 42 53
32 42 53
32 42 53
32 42 53
32 42 53
32 42 53
32 42 53
32 42 53
32 42 53
32 42 53
32 42 53
32 42 53
32 42 53
32 42 53
32 42 53
32 42 53
32 42 53
32 42 53
32 42 53
32 42 53
32 42 53
32 42 53
32 42 53
32 42 53
32 42 53
32 42 53
32 42 53
32 42 53
32 42 53
32 42 53
32 42 53
32 42 53
32 42 53
32 42 53
32 42 53
32 42 53
32 42 53
32 42 53
32 42 53
32 42 53
32 42 53
32 42 53
32 42 53
32 42 53
32 42 53
32 42 53
32 42 53
32 42 53
32 42 53
32 42 53
32 42 53
32 42 53
32 42 53
32 42 53
32 42 53
32 42 53
32 42 53
32 42 53
32 42 53
32 42 53
32 42 53
32 42 53
32 42 53
32 42 53
32 42 53
32 42 53
32 42 53
32 42 53
32 42 53
32 42 53
32 42 53
32 42 53
32 42 53
32 42 53
32 42 53
32 42 53
32 42 53
32 42 53
32 42 53
32 42 53
32 42 53
32 42 53
32 42 53
32 42 53
32 42 53
32 42 53
32 42 53
32 42 53
32 42 53
32 42 53
32 42 53
32 42 53
32 42 53
32 42 53
32 42 53
32 42 53
32 42 53
32 42 53
32 42 53
32 42 53
32 42 53
32 42 53
32 42 53
32 42 53
32 42 53
32 42 53
32 42 53
32 42 53
32 42 53
32 42 53
32 42 53
32 42 53
32 42 53
32 42 53
32 42 53
32 42 53
32 42 53
32 42 53
32 42 53
32 42 53
32 42 53
32 42 53
32 42 53
32 42 53
32 42 53
32 42 53
32 42 53
32 42 53
32 42 53
32 42 53
32 42 53
32 42 53
32 42 53
32 42 53
32 42 53
32 42 53
32 42 53
32 42 53
32 42 53
32 42 53
32 42 53
32 42 53
32 42 53
32 42 53
32 42 53
106 124 145
106 124 145
17 24 32
17 24 32
17 24 32
17 24 32
17 24 32
17 24 32
17 24 32
17 24 32
17 24 32
17 24 32
17 24 32
17 24 32
17 24 32
17 24 32
17 24 32
17 24 32
17 24 32
17 24 32
17 24 32
17 24 32
17 24 32
17 24 32
17 24 32
17 24 32
106 124 145
106 124 145
32 42 53
32 42 53
32 42 53
32 42 53
32 42 53
32 42 53
32 42 53
32 42 53
32 42 53
32 42 53
32 42 53
32 42 53
32 42 53
32 42 53
32 42 53
32 42 53
32 42 53
32 42 53
32 42 53
32 42 53
183 210 255
183 210 255
183 210 255
45 124 255
45 124 255
45 124 255
45 124 255
45 124 255
45 124 255
45 124 255
45 124 255
45 124 255
45 124 255
45 124 255
45 124 255
45 124 255
45 124 255
45 124 255
45 124 255
45 124 255
45 124 255
45 124 255
45 124 255
45 124 255
45 124 255
45 124 255
45 124 255
45 124 255
45 124 255
45 124 255
45 124 255
45 124 255
45 124 255
45 124 255
45 124 255
45 124 255
45 124 255
45 124 255
45 124 255
45 124 255
45 124 255
45 124 255
45 124 255
45 124 255
45 124 255
45 124 255
45 124 255
45 124 255
45 124 255
45 124 255
45 124 255
45 124 255
45 124 255
45 124 255
45 124 255
45 124 255
45 124 255
45 124 255
45 124 255
45 124 255
45 124 255
45 124 255
45 124 255
45 124 255
45 124 255
45 124 255
45 124 255
45 124 255
45 124 255
45 124 255
45 124 255
45 124 255
45 124 255
45 124 255
45 124 255
45 124 255
45 124 255
45 124 255
45 124 255
45 124 255
45 124 255
45 124 255
45 124 255
45 124 255
45 124 255
45 124 255
45 124 255
45 124 255
45 124 255
183 210 255
183 210 255
183 210 255
32 42 53
32 42 53
32 42 53
32 42 53
32 42 53
32 42 53
32 42 53
32 42 53
32 42 53
32 42 53
32 42 53
32 42 53
32 42 53
32 42 53
32 42 53
32 42 53
32 42 53
32 42 53
32 42 53
32 42 53
32 42 53
32 42 53
32 42 53
32 42 53
32 42 53
32 42 53
32 42 53
32 42 53
32 42 53
32 42 53
32 42 53
32 42 53
32 42 53
32 42 53
32 42 53
32 42 53
32 42 53
32 42 53
32 42 53
32 42 53
32 42 53
32 42 53
32 42 53
32 42 53
32 42 53
32 42 53
32 42 53
32 42 53
32 42 53
32 42 53
32 42 53
32 42 53
32 42 53
32 42 53
32 42 53
32 42 53
32 42 53
32 42 53
32 42 53
32 42 53
32 42 53
32 42 53
32 42 53
32 42 53
32 42 53
32 42 53
32 42 53
32 42 53
32 42 53
32 42 53
32 42 53
32 42 53
32 42 53
32 42 53
32 42 53
32 42 53
32 42 53
32 42 53
32 42 53
32 42 53
32 42 53
32 42 53
32 42 53
32 42 53
32 42 53
32 42 53
32 42 53
32 42 53
32 42 53
32 42 53
32 42 53
32 42 53
32 42 53
32 42 53
32 42 53
32 42 53
32 42 53
32 42 53
32 42 53
32 42 53
32 42 53
32 42 53
32 42 53
32 42 53
32 42 53
32 42 53
32 42 53
32 42 53
32 42 53
32 42 53
32 42 53
32 42 53
32 42 53
32 42 53
32 42 53
32 42 53
32 42 53
32 42 53
32 42 53
32 42 53
32 42 53
32 42 53
32 42 53
32 42 53
32 42 53
32 42 53
32 42 53
32 42 53
32 42 53
32 42 53
32 42 53
32 42 53
32 42 53
32 42 53
32 42 53
32 42 53
32 42 53
32 42 53
32 42 53
32 42 53
32 42 53
32 42 53
32 42 53
32 42 53
32 42 53
32 42 53
32 42 53
32 42 53
32 42 53
32 42 53
32 42 53
32 42 53
32 42 53
32 42 53
32 42 53
32 42 53
32 42 53
32 42 53
32 42 53
32 42 53
32 42 53
32 42 53
32 42 53
32 42 53
32 42 53
32 42 53
32 42 53
32 42 53
32 42 53
32 42 53
32 42 53
32 42 53
32 42 53
32 42 53
32 42 53
32 42 53
32 42 53
32 42 53
32 42 53
32 42 53
106 124 145
106 124 145
17 24 32
17 24 32
17 24 32
17 24 32
17 24 32
17 24 32
17 24 32
17 24 32
17 24 32
17 24 32
17 24 32
17 24 32
17 24 32
17 24 32
17 24 32
17 24 32
17 24 32
17 24 32
17 24 32
17 24 32
17 24 32
17 24 32
17 24 32
17 24 32
106 124 145
106 124 145
32 42 53
32 42 53
32 42 53
32 42 53
32 42 53
32 42 53
32 42 53
32 42 53
32 42 53
32 42 53
32 42 53
32 42 53
32 42 53
32 42 53
32 42 53
32 42 53
32 42 53
32 42 53
183 210 255
183 210 255
45 124 255
45 124 255
45 124 255
45 124 255
45 124 255
45 124 255
45 124 255
45 124 255
45 124 255
45 124 255
45 124 255
45 124 255
45 124 255
45 124 255
45 124 255
45 124 255
45 124 255
45 124 255
45 124 255
45 124 255
45 124 255
45 124 255
45 124 255
45 124 255
45 124 255
45 124 255
45 124 255
45 124 255
45 124 255
45 124 255
45 124 255
45 124 255
45 124 255
45 124 255
45 124 255
45 124 255
45 124 255
45 124 255
45 124 255
45 124 255
45 124 255
45 124 255
45 124 255
45 124 255
45 124 255
45 124 255
45 124 255
45 124 255
45 124 255
45 124 255
45 124 255
45 124 255
45 124 255
45 124 255
45 124 255
45 124 255
45 124 255
45 124 255
45 124 255
45 124 255
45 124 255
45 124 255
45 124 255
45 124 255
45 124 255
45 124 255
45 124 255
45 124 255
45 124 255
45 124 255
45 124 255
45 124 255
45 124 255
45 124 255
45 124 255
45 124 255
45 124 255
45 124 255
45 124 255
45 124 255
45 124 255
45 124 255
45 124 255
45 124 255
45 124 255
45 124 255
45 124 255
45 124 255
45 124 255
45 124 255
45 124 255
45 124 255
183 210 255
183 210 255
32 42 53
32 42 53
32 42 53
32 42 53
32 42 53
32 42 53
32 42 53
32 42 53
32 42 53
32 42 53
32 42 53
32 42 53
32 42 53
32 42 53
32 42 53
32 42 53
32 42 53
32 42 53
32 42 53
32 42 53
32 42 53
32 42 53
32 42 53
32 42 53
32 42 53
32 42 53
32 42 53
32 42 53
32 42 53
32 42 53
32 42 53
32 42 53
32 42 53
32 42 53
32 42 53
32 42 53
32 42 53
32 42 53
32 42 53
32 42 53
32 42 53
32 42 53
217 255 230
217 255 230
217 255 230
217 255 230
217 255 230
217 255 230
217 255 230
217 255 230
32 42 53
32 42 53
32 42 53
32 42 53
32 42 53
32 42 53
32 42 53
32 42 53
32 42 53
32 42 53
32 42 53
32 42 53
32 42 53
32 42 53
32 42 53
32 42 53
32 42 53
32 42 53
32 42 53
32 42 53
32 42 53
32 42 53
32 42 53
32 42 53
32 42 53
32 42 53
32 42 53
32 42 53
32 42 53
32 42 53
32 42 53
32 42 53
32 42 53
32 42 53
32 42 53
32 42 53
32 42 53
32 42 53
32 42 53
32 42 53
32 42 53
32 42 53
32 42 53
32 42 53
32 42 53
32 42 53
32 42 53
32 42 53
32 42 53
32 42 53
32 42 53
32 42 53
32 42 53
32 42 53
32 42 53
32 42 53
32 42 53
32 42 53
32 42 53
32 42 53
32 42 53
255 200 87
255 200 87
32 42 53
32 42 53
32 42 53
32 42 53
32 42 53
32 42 53
32 42 53
32 42 53
32 42 53
32 42 53
32 42 53
32 42 53
32 42 53
32 42 53
32 42 53
32 42 53
32 42 53
32 42 53
32 42 53
32 42 53
32 42 53
32 42 53
32 42 53
32 42 53
32 42 53
32 42 53
32 42 53
32 42 53
32 42 53
32 42 53
32 42 53
32 42 53
32 42 53
32 42 53
32 42 53
32 42 53
32 42 53
32 42 53
32 42 53
32 42 53
32 42 53
32 42 53
32 42 53
32 42 53
32 42 53
32 42 53
32 42 53
32 42 53
32 42 53
32 42 53
32 42 53
32 42 53
32 42 53
32 42 53
32 42 53
32 42 53
32 42 53
32 42 53
32 42 53
32 42 53
32 42 53
32 42 53
32 42 53
32 42 53
32 42 53
106 124 145
106 124 145
17 24 32
17 24 32
17 24 32
17 24 32
17 24 32
17 24 32
17 24 32
17 24 32
17 24 32
17 24 32
17 24 32
17 24 32
17 24 32
17 24 32
17 24 32
17 24 32
17 24 32
17 24 32
17 24 32
17 24 32
17 24 32
17 24 32
17 24 32
17 24 32
106 124 145
106 124 145
32 42 53
32 42 53
32 42 53
32 42 53
32 42 53
32 42 53
32 42 53
32 42 53
32 42 53
32 42 53
32 42 53
32 42 53
32 42 53
32 42 53
32 42 53
32 42 53
32 42 53
183 210 255
45 124 255
45 124 255
45 124 255
45 124 255
45 124 255
45 124 255
45 124 255
45 124 255
45 124 255
45 124 255
45 124 255
45 124 255
45 124 255
45 124 255
45 124 255
45 124 255
45 124 255
45 124 255
45 124 255
45 124 255
45 124 255
45 124 255
45 124 255
45 124 255
45 124 255
45 124 255
45 124 255
45 124 255
45 124 255
45 124 255
45 124 255
45 124 255
45 124 255
45 124 255
45 124 255
45 124 255
45 124 255
45 124 255
45 124 255
45 124 255
45 124 255
45 124 255
45 124 255
45 124 255
45 124 255
45 124 255
45 124 255
45 124 255
45 124 255
45 124 255
45 124 255
45 124 255
45 124 255
45 124 255
45 124 255
45 124 255
45 124 255
45 124 255
45 124 255
45 124 255
45 124 255
45 124 255
45 124 255
45 124 255
45 124 255
45 124 255
45 124 255
45 124 255
45 124 255
45 124 255
45 124 255
45 124 255
45 124 255
45 124 255
45 124 255
45 124 255
45 124 255
45 124 255
45 124 255
45 124 255
45 124 255
45 124 255
45 124 255
45 124 255
45 124 255
45 124 255
45 124 255
45 124 255
45 124 255
45 124 255
45 124 255
45 124 255
45 124 255
45 124 255
45 124 255
45 124 255
183 210 255
32 42 53
32 42 53
32 42 53
32 42 53
32 42 53
32 42 53
32 42 53
32 42 53
32 42 53
32 42 53
32 42 53
32 42 53
32 42 53
32 42 53
32 42 53
32 42 53
32 42 53
32 42 53
32 42 53
32 42 53
32 42 53
32 42 53
32 42 53
32 42 53
32 42 53
32 42 53
32 42 53
32 42 53
32 42 53
32 42 53
32 42 53
32 42 53
32 42 53
32 42 53
32 42 53
32 42 53
32 42 53
32 42 53
217 255 230
217 255 230
217 255 230
54 200 120
54 200 120
54 200 120
54 200 120
54 200 120
54 200 120
54 200 120
54 200 120
217 255 230
217 255 230
217 255 230
32 42 53
32 42 53
32 42 53
32 42 53
32 42 53
32 42 53
32 42 53
32 42 53
32 42 53
32 42 53
32 42 53
32 42 53
32 42 53
32 42 53
32 42 53
32 42 53
32 42 53
32 42 53
32 42 53
32 42 53
32 42 53
32 42 53
32 42 53
32 42 53
32 42 53
32 42 53
32 42 53
32 42 53
32 42 53
32 42 53
32 42 53
32 42 53
32 42 53
32 42 53
32 42 53
32 42 53
32 42 53
32 42 53
32 42 53
32 42 53
32 42 53
32 42 53
32 42 53
32 42 53
32 42 53
32 42 53
32 42 53
32 42 53
32 42 53
32 42 53
32 42 53
32 42 53
32 42 53
32 42 53
32 42 53
32 42 53
32 42 53
32 42 53
255 200 87
255 200 87
32 42 53
32 42 53
32 42 53
32 42 53
32 42 53
32 42 53
32 42 53
32 42 53
32 42 53
32 42 53
32 42 53
32 42 53
32 42 53
32 42 53
32 42 53
32 42 53
32 42 53
32 42 53
32 42 53
32 42 53
32 42 53
32 42 53
32 42 53
32 42 53
32 42 53
32 42 53
32 42 53
32 42 53
32 42 53
32 42 53
32 42 53
32 42 53
32 42 53
32 42 53
32 42 53
32 42 53
32 42 53
32 42 53
32 42 53
32 42 53
32 42 53
32 42 53
32 42 53
32 42 53
32 42 53
32 42 53
32 42 53
32 42 53
32 42 53
32 42 53
32 42 53
32 42 53
32 42 53
32 42 53
32 42 53
32 42 53
32 42 53
32 42 53
32 42 53
32 42 53
32 42 53
32 42 53
32 42 53
32 42 53
32 42 53
106 124 145
106 124 145
17 24 32
17 24 32
17 24 32
17 24 32
17 24 32
17 24 32
17 24 32
17 24 32
17 24 32
17 24 32
17 24 32
17 24 32
17 24 32
17 24 32
17 24 32
17 24 32
17 24 32
17 24 32
17 24 32
17 24 32
17 24 32
17 24 32
17 24 32
17 24 32
106 124 145
106 124 145
32 42 53
32 42 53
32 42 53
32 42 53
32 42 53
32 42 53
32 42 53
32 42 53
32 42 53
32 42 53
32 42 53
32 42 53
32 42 53
32 42 53
32 42 53
183 210 255
183 210 255
45 124 255
45 124 255
45 124 255
45 124 255
45 124 255
45 124 255
45 124 255
45 124 255
45 124 255
45 124 255
45 124 255
45 124 255
45 124 255
45 124 255
45 124 255
45 124 255
45 124 255
45 124 255
45 124 255
45 124 255
45 124 255
45 124 255
45 124 255
45 124 255
45 124 255
45 124 255
45 124 255
45 124 255
45 124 255
45 124 255
45 124 255
45 124 255
45 124 255
45 124 255
45 124 255
45 124 255
45 124 255
45 124 255
45 124 255
45 124 255
45 124 255
45 124 255
45 124 255
45 124 255
45 124 255
45 124 255
45 124 255
45 124 255
45 124 255
45 124 255
45 124 255
45 124 255
45 124 255
45 124 255
45 124 255
45 124 255
45 124 255
45 124 255
45 124 255
45 124 255
45 124 255
45 124 255
45 124 255
45 124 255
45 124 255
45 124 255
45 124 255
45 124 255
45 124 255
45 124 255
45 124 255
45 124 255
45 124 255
45 124 255
45 124 255
45 124 255
45 124 255
45 124 255
45 124 255
45 124 255
45 124 255
45 124 255
45 124 255
45 124 255
45 124 255
45 124 255
45 124 255
45 124 255
45 124 255
45 124 255
45 124 255
45 124 255
45 124 255
45 124 255
45 124 255
45 124 255
45 124 255
45 124 255
183 210 255
183 210 255
32 42 53
32 42 53
32 42 53
32 42 53
32 42 53
32 42 53
32 42 53
32 42 53
32 42 53
32 42 53
32 42 53
32 42 53
32 42 53
32 42 53
32 42 53
32 42 53
32 42 53
32 42 53
32 42 53
32 42 53
32 42 53
32 42 53
32 42 53
32 42 53
32 42 53
32 42 53
32 42 53
32 42 53
32 42 53
32 42 53
32 42 53
32 42 53
32 42 53
32 42 53
217 255 230
217 255 230
54 200 120
54 200 120
54 200 120
54 200 120
54 200 120
54 200 120
54 200 120
54 200 120
54 200 120
54 200 120
54 200 120
54 200 120
54 200 120
54 200 120
217 255 230
217 255 230
32 42 53
32 42 53
32 42 53
32 42 53
32 42 53
32 42 53
32 42 53
32 42 53
32 42 53
32 42 53
32 42 53
32 42 53
32 42 53
32 42 53
32 42 53
32 42 53
32 42 53
32 42 53
32 42 53
32 42 53
32 42 53
32 42 53
32 42 53
32 42 53
32 42 53
32 42 53
32 42 53
32 42 53
32 42 53
32 42 53
32 42 53
32 42 53
32 42 53
32 42 53
32 42 53
32 42 53
32 42 53
32 42 53
32 42 53
32 42 53
32 42 53
32 42 53
32 42 53
32 42 53
32 42 53
32 42 53
32 42 53
32 42 53
32 42 53
32 42 53
32 42 53
32 42 53
32 42 53
32 42 53
32 42 53
255 200 87
255 200 87
255 200 87
255 200 87
32 42 53
32 42 53
32 42 53
32 42 53
32 42 53
32 42 53
32 42 53
32 42 53
32 42 53
32 42 53
32 42 53
32 42 53
32 42 53
32 42 53
32 42 53
32 42 53
32 42 53
32 42 53
32 42 53
32 42 53
32 42 53
32 42 53
32 42 53
32 42 53
32 42 53
32 42 53
32 42 53
32 42 53
32 42 53
32 42 53
32 42 53
32 42 53
32 42 53
32 42 53
32 42 53
32 42 53
32 42 53
32 42 53
32 42 53
32 42 53
32 42 53
32 42 53
32 42 53
32 42 53
32 42 53
32 42 53
32 42 53
32 42 53
32 42 53
32 42 53
32 42 53
32 42 53
32 42 53
32 42 53
32 42 53
32 42 53
32 42 53
32 42 53
32 42 53
32 42 53
32 42 53
32 42 53
32 42 53
32 42 53
106 124 145
106 124 145
17 24 32
17 24 32
17 24 32
17 24 32
17 24 32
17 24 32
17 24 32
17 24 32
17 24 32
17 24 32
17 24 32
17 24 32
17 24 32
17 24 32
17 24 32
17 24 32
17 24 32
17 24 32
17 24 32
17 24 32
17 24 32
17 24 32
17 24 32
17 24 32
106 124 145
106 124 145
32 42 53
32 42 53
32 42 53
32 42 53
32 42 53
32 42 53
32 42 53
32 42 53
32 42 53
32 42 53
32 42 53
32 42 53
32 42 53
32 42 53
183 210 255
183 210 255
45 124 255
45 124 255
45 124 255
45 124 255
45 124 255
45 124 255
45 124 255
45 124 255
45 124 255
45 124 255
45 124 255
45 124 255
45 124 255
45 124 255
45 124 255
45 124 255
45 124 255
45 124 255
45 124 255
45 124 255
45 124 255
45 124 255
45 124 255
45 124 255
45 124 255
45 124 255
45 124 255
45 124 255
45 124 255
45 124 255
45 124 255
45 124 255
45 124 255
45 124 255
45 124 255
45 124 255
45 124 255
45 124 255
45 124 255
45 124 255
45 124 255
45 124 255
45 124 255
45 124 255
45 124 255
45 124 255
45 124 255
45 124 255
45 124 255
45 124 255
45 124 255
45 124 255
45 124 255
45 124 255
45 124 255
45 124 255
45 124 255
45 124 255
45 124 255
45 124 255
45 124 255
45 124 255
45 124 255
45 124 255
45 124 255
45 124 255
45 124 255
45 124 255
45 124 255
45 124 255
45 124 255
45 124 255
45 124 255
45 124 255
45 124 255
45 124 255
45 124 255
45 124 255
45 124 255
45 124 255
45 124 255
45 124 255
45 124 255
45 124 255
45 124 255
45 124 255
45 124 255
45 124 255
45 124 255
45 124 255
45 124 255
45 124 255
45 124 255
45 124 255
45 124 255
45 124 255
45 124 255
45 124 255
45 124 255
45 124 255
183 210 255
183 210 255
32 42 53
32 42 53
32 42 53
32 42 53
32 42 53
32 42 53
32 42 53
32 42 53
32 42 53
32 42 53
32 42 53
32 42 53
32 42 53
32 42 53
32 42 53
32 42 53
32 42 53
32 42 53
32 42 53
32 42 53
32 42 53
32 42 53
32 42 53
32 42 53
32 42 53
32 42 53
32 42 53
32 42 53
32 42 53
32 42 53
32 42 53
32 42 53
217 255 230
217 255 230
54 200 120
54 200 120
54 200 120
54 200 120
54 200 120
54 200 120
54 200 120
54 200 120
54 200 120
54 200 120
54 200 120
54 200 120
54 200 120
54 200 120
54 200 120
54 200 120
217 255 230
217 255 230
32 42 53
32 42 53
32 42 53
32 42 53
32 42 53
32 42 53
32 42 53
32 42 53
32 42 53
32 42 53
32 42 53
32 42 53
32 42 53
32 42 53
32 42 53
32 42 53
32 42 53
32 42 53
32 42 53
32 42 53
32 42 53
32 42 53
32 42 53
32 42 53
32 42 53
32 42 53
32 42 53
32 42 53
32 42 53
32 42 53
32 42 53
32 42 53
32 42 53
32 42 53
32 42 53
32 42 53
32 42 53
32 42 53
32 42 53
32 42 53
32 42 53
32 42 53
32 42 53
32 42 53
32 42 53
32 42 53
32 42 53
32 42 53
32 42 53
32 42 53
32 42 53
32 42 53
32 42 53
32 42 53
255 200 87
255 200 87
255 200 87
255 200 87
32 42 53
32 42 53
32 42 53
32 42 53
32 42 53
32 42 53
32 42 53
32 42 53
32 42 53
32 42 53
32 42 53
32 42 53
32 42 53
32 42 53
32 42 53
32 42 53
32 42 53
32 42 53
32 42 53
32 42 53
32 42 53
32 42 53
32 42 53
32 42 53
32 42 53
32 42 53
32 42 53
32 42 53
32 42 53
32 42 53
32 42 53
32 42 53
32 42 53
32 42 53
32 42 53
32 42 53
32 42 53
32 42 53
32 42 53
32 42 53
32 42 53
32 42 53
32 42 53
32 42 53
32 42 53
32 42 53
32 42 53
32 42 53
32 42 53
32 42 53
32 42 53
32 42 53
32 42 53
32 42 53
32 42 53
32 42 53
32 42 53
32 42 53
32 42 53
32 42 53
32 42 53
32 42 53
32 42 53
32 42 53
106 124 145
106 124 145
17 24 32
17 24 32
17 24 32
17 24 32
17 24 32
17 24 32
17 24 32
17 24 32
17 24 32
17 24 32
17 24 32
17 24 32
17 24 32
17 24 32
17 24 32
17 24 32
17 24 32
17 24 32
17 24 32
17 24 32
17 24 32
17 24 32
17 24 32
17 24 32
106 124 145
106 124 145
32 42 53
32 42 53
32 42 53
32 42 53
32 42 53
32 42 53
32 42 53
32 42 53
32 42 53
32 42 53
32 42 53
32 42 53
32 42 53
32 42 53
183 210 255
45 124 255
45 124 255
45 124 255
45 124 255
45 124 255
45 124 255
45 124 255
45 124 255
45 124 255
45 124 255
45 124 255
45 124 255
45 124 255
45 124 255
45 124 255
45 124 255
45 124 255
45 124 255
45 124 255
45 124 255
45 124 255
45 124 255
45 124 255
45 124 255
45 124 255
45 124 255
45 124 255
45 124 255
45 124 255
45 124 255
45 124 255
45 124 255
45 124 255
45 124 255
45 124 255
45 124 255
45 124 255
45 124 255
45 124 255
45 124 255
45 124 255
45 124 255
45 124 255
45 124 255
45 124 255
45 124 255
45 124 255
45 124 255
45 124 255
45 124 255
45 124 255
45 124 255
45 124 255
45 124 255
45 124 255
45 124 255
45 124 255
45 124 255
45 124 255
45 124 255
45 124 255
45 124 255
45 124 255
45 124 255
45 124 255
45 124 255
45 124 255
45 124 255
45 124 255
45 124 255
45 124 255
45 124 255
45 124 255
45 124 255
45 124 255
45 124 255
45 124 255
45 124 255
45 124 255
45 124 255
45 124 255
45 124 255
45 124 255
45 124 255
45 124 255
45 124 255
45 124 255
45 124 255
45 124 255
45 124 255
45 124 255
45 124 255
45 124 255
45 124 255
45 124 255
45 124 255
45 124 255
45 124 255
45 124 255
45 124 255
45 124 255
45 124 255
183 210 255
32 42 53
32 42 53
32 42 53
32 42 53
32 42 53
32 42 53
32 42 53
32 42 53
32 42 53
32 42 53
32 42 53
32 42 53
32 42 53
32 42 53
32 42 53
32 42 53
32 42 53
32 42 53
32 42 53
32 42 53
32 42 53
32 42 53
32 42 53
32 42 53
32 42 53
32 42 53
32 42 53
32 42 53
32 42 53
32 42 53
32 42 53
217 255 230
54 200 120
54 200 120
54 200 120
54 200 120
54 200 120
54 200 120
54 200 120
54 200 120
54 200 120
54 200 120
54 200 120
54 200 120
54 200 120
54 200 120
54 200 120
54 200 120
54 200 120
54 200 120
54 200 120
54 200 120
217 255 230
32 42 53
32 42 53
32 42 53
32 42 53
32 42 53
32 42 53
32 42 53
32 42 53
32 42 53
32 42 53
32 42 53
32 42 53
32 42 53
32 42 53
32 42 53
32 42 53
32 42 53
32 42 53
32 42 53
32 42 53
32 42 53
32 42 53
32 42 53
32 42 53
32 42 53
32 42 53
32 42 53
32 42 53
32 42 53
32 42 53
32 42 53
32 42 53
32 42 53
32 42 53
32 42 53
32 42 53
32 42 53
32 42 53
32 42 53
32 42 53
32 42 53
32 42 53
32 42 53
32 42 53
32 42 53
32 42 53
32 42 53
32 42 53
32 42 53
32 42 53
32 42 53
32 42 53
255 200 87
255 200 87
255 200 87
255 200 87
255 200 87
255 200 87
32 42 53
32 42 53
32 42 53
32 42 53
32 42 53
32 42 53
32 42 53
32 42 53
32 42 53
32 42 53
32 42 53
32 42 53
32 42 53
32 42 53
32 42 53
32 42 53
32 42 53
32 42 53
32 42 53
32 42 53
32 42 53
32 42 53
32 42 53
32 42 53
32 42 53
32 42 53
32 42 53
32 42 53
32 42 53
32 42 53
32 42 53
32 42 53
32 42 53
32 42 53
32 42 53
32 42 53
32 42 53
32 42 53
32 42 53
32 42 53
32 42 53
32 42 53
32 42 53
32 42 53
32 42 53
32 42 53
32 42 53
32 42 53
32 42 53
32 42 53
32 42 53
32 42 53
32 42 53
32 42 53
32 42 53
32 42 53
32 42 53
32 42 53
32 42 53
32 42 53
32 42 53
32 42 53
32 42 53
106 124 145
106 124 145
17 24 32
17 24 32
17 24 32
17 24 32
17 24 32
17 24 32
17 24 32
17 24 32
17 24 32
17 24 32
17 24 32
17 24 32
17 24 32
17 24 32
17 24 32
17 24 32
17 24 32
17 24 32
17 24 32
17 24 32
17 24 32
17 24 32
17 24 32
17 24 32
106 124 145
106 124 145
32 42 53
32 42 53
32 42 53
32 42 53
32 42 53
32 42 53
32 42 53
32 42 53
32 42 53
32 42 53
32 42 53
32 42 53
32 42 53
183 210 255
45 124 255
45 124 255
45 124 255
45 124 255
45 124 255
45 124 255
45 124 255
45 124 255
45 124 255
45 124 255
45 124 255
45 124 255
45 124 255
45 124 255
45 124 255
45 124 255
45 124 255
45 124 255
45 124 255
45 124 255
45 124 255
45 124 255
45 124 255
45 124 255
45 124 255
45 124 255
45 124 255
45 124 255
45 124 255
45 124 255
45 124 255
45 124 255
45 124 255
45 124 255
45 124 255
45 124 255
45 124 255
45 124 255
45 124 255
45 124 255
45 124 255
45 124 255
45 124 255
45 124 255
45 124 255
45 124 255
45 124 255
45 124 255
45 124 255
45 124 255
45 124 255
45 124 255
45 124 255
45 124 255
45 124 255
45 124 255
45 124 255
45 124 255
45 124 255
45 124 255
45 124 255
45 124 255
45 124 255
45 124 255
45 124 255
45 124 255
45 124 255
45 124 255
45 124 255
45 124 255
45 124 255
45 124 255
45 124 255
45 124 255
45 124 255
45 124 255
45 124 255
45 124 255
45 124 255
45 124 255
45 124 255
45 124 255
45 124 255
45 124 255
45 124 255
45 124 255
45 124 255
45 124 255
45 124 255
45 124 255
45 124 255
45 124 255
45 124 255
45 124 255
45 124 255
45 124 255
45 124 255
45 124 255
45 124 255
45 124 255
45 124 255
45 124 255
45 124 255
45 124 255
183 210 255
32 42 53
32 42 53
32 42 53
32 42 53
32 42 53
32 42 53
32 42 53
32 42 53
32 42 53
32 42 53
32 42 53
32 42 53
32 42 53
32 42 53
32 42 53
32 42 53
32 42 53
32 42 53
32 42 53
32 42 53
32 42 53
32 42 53
32 42 53
32 42 53
32 42 53
32 42 53
32 42 53
32 42 53
32 42 53
217 255 230
54 200 120
54 200 120
54 200 120
54 200 120
54 200 120
54 200 120
54 200 120
54 200 120
54 200 120
54 200 120
54 200 120
54 200 120
54 200 120
54 200 120
54 200 120
54 200 120
54 200 120
54 200 120
54 200 120
54 200 120
54 200 120
54 200 120
217 255 230
32 42 53
32 42 53
32 42 53
32 42 53
32 42 53
32 42 53
32 42 53
32 42 53
32 42 53
32 42 53
32 42 53
32 42 53
32 42 53
32 42 53
32 42 53
32 42 53
32 42 53
32 42 53
32 42 53
32 42 53
32 42 53
32 42 53
32 42 53
32 42 53
32 42 53
32 42 53
32 42 53
32 42 53
32 42 53
32 42 53
32 42 53
32 42 53
32 42 53
32 42 53
32 42 53
32 42 53
32 42 53
32 42 53
32 42 53
32 42 53
32 42 53
32 42 53
32 42 53
32 42 53
32 42 53
32 42 53
32 42 53
32 42 53
32 42 53
32 42 53
32 42 53
255 200 87
255 200 87
255 200 87
255 200 87
255 200 87
255 200 87
32 42 53
32 42 53
32 42 53
32 42 53
32 42 53
32 42 53
32 42 53
32 42 53
32 42 53
32 42 53
32 42 53
32 42 53
32 42 53
32 42 53
32 42 53
32 42 53
32 42 53
32 42 53
32 42 53
32 42 53
32 42 53
32 42 53
32 42 53
32 42 53
32 42 53
32 42 53
32 42 53
32 42 53
32 42 53
32 42 53
32 42 53
32 42 53
32 42 53
32 42 53
32 42 53
32 42 53
32 42 53
32 42 53
32 42 53
32 42 53
32 42 53
32 42 53
32 42 53
32 42 53
32 42 53
32 42 53
32 42 53
32 42 53
32 42 53
32 42 53
32 42 53
32 42 53
32 42 53
32 42 53
32 42 53
32 42 53
32 42 53
32 42 53
32 42 53
32 42 53
32 42 53
32 42 53
32 42 53
106 124 145
106 124 145
17 24 32
17 24 32
17 24 32
17 24 32
17 24 32
17 24 32
17 24 32
17 24 32
17 24 32
17 24 32
17 24 32
17 24 32
17 24 32
17 24 32
17 24 32
17 24 32
17 24 32
17 24 32
17 24 32
17 24 32
17 24 32
17 24 32
17 24 32
17 24 32
106 124 145
106 124 145
32 42 53
32 42 53
32 42 53
32 42 53
32 42 53
32 42 53
32 42 53
32 42 53
32 42 53
32 42 53
32 42 53
32 42 53
183 210 255
45 124 255
45 124 255
45 124 255
45 124 255
45 124 255
45 124 255
45 124 255
45 124 255
45 124 255
45 124 255
45 124 255
45 124 255
45 124 255
45 124 255
45 124 255
45 124 255
45 124 255
45 124 255
45 124 255
45 124 255
45 124 255
45 124 255
45 124 255
45 124 255
45 124 255
45 124 255
45 124 255
45 124 255
45 124 255
45 124 255
45 124 255
45 124 255
45 124 255
45 124 255
45 124 255
45 124 255
45 124 255
45 124 255
45 124 255
45 124 255
45 124 255
45 124 255
45 124 255
45 124 255
45 124 255
45 124 255
45 124 255
45 124 255
45 124 255
45 124 255
45 124 255
45 124 255
45 124 255
45 124 255
45 124 255
45 124 255
45 124 255
45 124 255
45 124 255
45 124 255
45 124 255
45 124 255
45 124 255
45 124 255
45 124 255
45 124 255
45 124 255
45 124 255
45 124 255
45 124 255
45 124 255
45 124 255
45 124 255
45 124 255
45 124 255
45 124 255
45 124 255
45 124 255
45 124 255
45 124 255
45 124 255
45 124 255
45 124 255
45 124 255
45 124 255
45 124 255
45 124 255
45 124 255
45 124 255
45 124 255
45 124 255
45 124 255
45 124 255
45 124 255
45 124 255
45 124 255
45 124 255
45 124 255
45 124 255
45 124 255
45 124 255
45 124 255
45 124 255
45 124 255
45 124 255
45 124 255
183 210 255
32 42 53
32 42 53
32 42 53
32 42 53
32 42 53
32 42 53
32 42 53
32 42 53
32 42 53
32 42 53
32 42 53
32 42 53
32 42 53
32 42 53
32 42 53
32 42 53
32 42 53
32 42 53
32 42 53
32 42 53
32 42 53
32 42 53
32 42 53
32 42 53
32 42 53
32 42 53
32 42 53
217 255 230
54 200 120
54 200 120
54 200 120
54 200 120
54 200 120
54 200 120
54 200 120
54 200 120
54 200 120
54 200 120
54 200 120
54 200 120
54 200 120
54 200 120
54 200 120
54 200 120
54 200 120
54 200 120
54 200 120
54 200 120
54 200 120
54 200 120
54 200 120
54 200 120
217 255 230
32 42 53
32 42 53
32 42 53
32 42 53
32 42 53
32 42 53
32 42 53
32 42 53
32 42 53
32 42 53
32 42 53
32 42 53
32 42 53
32 42 53
32 42 53
32 42 53
32 42 53
32 42 53
32 42 53
32 42 53
32 42 53
32 42 53
32 42 53
32 42 53
32 42 53
32 42 53
32 42 53
32 42 53
32 42 53
32 42 53
32 42 53
32 42 53
32 42 53
32 42 53
32 42 53
32 42 53
32 42 53
32 42 53
32 42 53
32 42 53
32 42 53
32 42 53
32 42 53
32 42 53
32 42 53
32 42 53
32 42 53
32 42 53
32 42 53
255 200 87
255 200 87
255 200 87
255 200 87
255 200 87
255 200 87
255 200 87
255 200 87
32 42 53
32 42 53
32 42 53
32 42 53
32 42 53
32 42 53
32 42 53
32 42 53
32 42 53
32 42 53
32 42 53
32 42 53
32 42 53
32 42 53
32 42 53
32 42 53
32 42 53
32 42 53
32 42 53
32 42 53
32 42 53
32 42 53
32 42 53
32 42 53
32 42 53
32 42 53
32 42 53
32 42 53
32 42 53
32 42 53
32 42 53
32 42 53
32 42 53
32 42 53
32 42 53
32 42 53
32 42 53
32 42 53
32 42 53
32 42 53
32 42 53
32 42 53
32 42 53
32 42 53
32 42 53
32 42 53
32 42 53
32 42 53
32 42 53
32 42 53
32 42 53
32 42 53
32 42 53
32 42 53
32 42 53
32 42 53
32 42 53
32 42 53
32 42 53
32 42 53
32 42 53
32 42 53
106 124 145
106 124 145
17 24 32
17 24 32
17 24 32
17 24 32
17 24 32
17 24 32
17 24 32
17 24 32
17 24 32
17 24 32
17 24 32
17 24 32
17 24 32
17 24 32
17 24 32
17 24 32
17 24 32
17 24 32
17 24 32
17 24 32
17 24 32
17 24 32
17 24 32
17 24 32
106 124 145
106 124 145
32 42 53
32 42 53
32 42 53
32 42 53
32 42 53
32 42 53
32 42 53
32 42 53
32 42 53
32 42 53
32 42 53
32 42 53
183 210 255
45 124 255
45 124 255
45 124 255
45 124 255
45 124 255
45 124 255
45 124 255
45 124 255
45 124 255
45 124 255
45 124 255
45 124 255
45 124 255
45 124 255
45 124 255
45 124 255
45 124 255
45 124 255
45 124 255
45 124 255
45 124 255
45 124 255
45 124 255
45 124 255
45 124 255
45 124 255
45 124 255
45 124 255
45 124 255
45 124 255
45 124 255
45 124 255
45 124 255
45 124 255
45 124 255
45 124 255
45 124 255
45 124 255
45 124 255
45 124 255
45 124 255
45 124 255
45 124 255
45 124 255
45 124 255
45 124 255
45 124 255
45 124 255
45 124 255
45 124 255
45 124 255
45 124 255
45 124 255
45 124 255
45 124 255
45 124 255
45 124 255
45 124 255
45 124 255
45 124 255
45 124 255
45 124 255
45 124 255
45 124 255
45 124 255
45 124 255
45 124 255
45 124 255
45 124 255
45 124 255
45 124 255
45 124 255
45 124 255
45 124 255
45 124 255
45 124 255
45 124 255
45 124 255
45 124 255
45 124 255
45 124 255
45 124 255
45 124 255
45 124 255
45 124 255
45 124 255
45 124 255
45 124 255
45 124 255
45 124 255
45 124 255
45 124 255
45 124 255
45 124 255
45 124 255
45 124 255
45 124 255
45 124 255
45 124 255
45 124 255
45 124 255
45 124 255
45 124 255
45 124 255
45 124 255
45 124 255
183 210 255
32 42 53
32 42 53
32 42 53
32 42 53
32 42 53
32 42 53
32 42 53
32 42 53
32 42 53
32 42 53
32 42 53
32 42 53
32 42 53
32 42 53
32 42 53
32 42 53
32 42 53
32 42 53
32 42 53
32 42 53
32 42 53
32 42 53
32 42 53
32 42 53
32 42 53
32 42 53
217 255 230
217 255 230
54 200 120
54 200 120
54 200 120
54 200 120
54 200 120
54 200 120
54 200 120
54 200 120
54 200 120
54 200 120
54 200 120
54 200 120
54 200 120
54 200 120
54 200 120
54 200 120
54 200 120
54 200 120
54 200 120
54 200 120
54 200 120
54 200 120
54 200 120
54 200 120
217 255 230
217 255 230
32 42 53
32 42 53
32 42 53
32 42 53
32 42 53
32 42 53
32 42 53
32 42 53
32 42 53
32 42 53
32 42 53
32 42 53
32 42 53
32 42 53
32 42 53
32 42 53
32 42 53
32 42 53
32 42 53
32 42 53
32 42 53
32 42 53
32 42 53
32 42 53
32 42 53
32 42 53
32 42 53
32 42 53
32 42 53
32 42 53
32 42 53
32 42 53
32 42 53
32 42 53
32 42 53
32 42 53
32 42 53
32 42 53
32 42 53
32 42 53
32 42 53
32 42 53
32 42 53
32 42 53
32 42 53
32 42 53
32 42 53
32 42 53
255 200 87
255 200 87
255 200 87
255 200 87
255 200 87
255 200 87
255 200 87
255 200 87
32 42 53
32 42 53
32 42 53
32 42 53
32 42 53
32 42 53
32 42 53
32 42 53
32 42 53
32 42 53
32 42 53
32 42 53
32 42 53
32 42 53
32 42 53
32 42 53
32 42 53
32 42 53
32 42 53
32 42 53
32 42 53
32 42 53
32 42 53
32 42 53
32 42 53
32 42 53
32 42 53
32 42 53
32 42 53
32 42 53
32 42 53
32 42 53
32 42 53
32 42 53
32 42 53
32 42 53
32 42 53
32 42 53
32 42 53
32 42 53
32 42 53
32 42 53
32 42 53
32 42 53
32 42 53
32 42 53
32 42 53
32 42 53
32 42 53
32 42 53
32 42 53
32 42 53
32 42 53
32 42 53
32 42 53
32 42 53
32 42 53
32 42 53
32 42 53
32 42 53
32 42 53
32 42 53
106 124 145
106 124 145
17 24 32
17 24 32
17 24 32
17 24 32
17 24 32
17 24 32
17 24 32
17 24 32
17 24 32
17 24 32
17 24 32
17 24 32
17 24 32
17 24 32
17 24 32
17 24 32
17 24 32
17 24 32
17 24 32
17 24 32
17 24 32
17 24 32
17 24 32
17 24 32
106 124 145
106 124 145
32 42 53
32 42 53
32 42 53
32 42 53
32 42 53
32 42 53
32 42 53
32 42 53
32 42 53
32 42 53
32 42 53
183 210 255
45 124 255
45 124 255
45 124 255
45 124 255
45 124 255
45 124 255
45 124 255
45 124 255
45 124 255
45 124 255
45 124 255
45 124 255
45 124 255
45 124 255
45 124 255
45 124 255
45 124 255
45 124 255
45 124 255
45 124 255
45 124 255
45 124 255
45 124 255
45 124 255
45 124 255
45 124 255
45 124 255
45 124 255
45 124 255
45 124 255
45 124 255
45 124 255
45 124 255
45 124 255
45 124 255
45 124 255
45 124 255
45 124 255
45 124 255
45 124 255
45 124 255
45 124 255
45 124 255
45 124 255
45 124 255
45 124 255
45 124 255
45 124 255
45 124 255
45 124 255
45 124 255
45 124 255
45 124 255
45 124 255
45 124 255
45 124 255
45 124 255
45 124 255
45 124 255
45 124 255
45 124 255
45 124 255
45 124 255
45 124 255
45 124 255
45 124 255
45 124 255
45 124 255
45 124 255
45 124 255
45 124 255
45 124 255
45 124 255
45 124 255
45 124 255
45 124 255
45 124 255
45 124 255
45 124 255
45 124 255
45 124 255
45 124 255
45 124 255
45 124 255
45 124 255
45 124 255
45 124 255
45 124 255
45 124 255
45 124 255
45 124 255
45 124 255
45 124 255
45 124 255
45 124 255
45 124 255
45 124 255
45 124 255
45 124 255
45 124 255
45 124 255
45 124 255
45 124 255
45 124 255
45 124 255
45 124 255
45 124 255
45 124 255
183 210 255
32 42 53
32 42 53
32 42 53
32 42 53
32 42 53
32 42 53
32 42 53
32 42 53
32 42 53
32 42 53
32 42 53
32 42 53
32 42 53
32 42 53
32 42 53
32 42 53
32 42 53
32 42 53
32 42 53
32 42 53
32 42 53
32 42 53
32 42 53
32 42 53
32 42 53
217 255 230
54 200 120
54 200 120
54 200 120
54 200 120
54 200 120
54 200 120
54 200 120
54 200 120
54 200 120
54 200 120
54 200 120
54 200 120
54 200 120
54 200 120
54 200 120
54 200 120
54 200 120
54 200 120
54 200 120
54 200 120
54 200 120
54 200 120
54 200 120
54 200 120
54 200 120
54 200 120
217 255 230
32 42 53
32 42 53
32 42 53
32 42 53
32 42 53
32 42 53
32 42 53
32 42 53
32 42 53
32 42 53
32 42 53
32 42 53
32 42 53
32 42 53
32 42 53
32 42 53
32 42 53
32 42 53
32 42 53
32 42 53
32 42 53
32 42 53
32 42 53
32 42 53
32 42 53
32 42 53
32 42 53
32 42 53
32 42 53
32 42 53
32 42 53
32 42 53
32 42 53
32 42 53
32 42 53
32 42 53
32 42 53
32 42 53
32 42 53
32 42 53
32 42 53
32 42 53
32 42 53
32 42 53
32 42 53
32 42 53
32 42 53
32 42 53
255 200 87
255 200 87
255 200 87
255 200 87
255 200 87
255 200 87
255 200 87
255 200 87
32 42 53
32 42 53
32 42 53
32 42 53
32 42 53
32 42 53
32 42 53
32 42 53
32 42 53
32 42 53
32 42 53
32 42 53
32 42 53
32 42 53
32 42 53
32 42 53
32 42 53
32 42 53
32 42 53
32 42 53
32 42 53
32 42 53
32 42 53
32 42 53
32 42 53
32 42 53
32 42 53
32 42 53
32 42 53
32 42 53
32 42 53
32 42 53
32 42 53
32 42 53
32 42 53
32 42 53
32 42 53
32 42 53
32 42 53
32 42 53
32 42 53
32 42 53
32 42 53
32 42 53
32 42 53
32 42 53
32 42 53
32 42 53
32 42 53
32 42 53
32 42 53
32 42 53
32 42 53
32 42 53
32 42 53
32 42 53
32 42 53
32 42 53
32 42 53
32 42 53
32 42 53
32 42 53
106 124 145
106 124 145
17 24 32
17 24 32
17 24 32
17 24 32
17 24 32
17 24 32
17 24 32
17 24 32
17 24 32
17 24 32
17 24 32
17 24 32
17 24 32
17 24 32
17 24 32
17 24 32
17 24 32
17 24 32
17 24 32
17 24 32
17 24 32
17 24 32
17 24 32
17 24 32
106 124 145
106 124 145
32 42 53
32 42 53
32 42 53
32 42 53
32 42 53
32 42 53
32 42 53
32 42 53
32 42 53
32 42 53
32 42 53
183 210 255
45 124 255
45 124 255
45 124 255
45 124 255
45 124 255
45 124 255
45 124 255
45 124 255
45 124 255
45 124 255
45 124 255
45 124 255
45 124 255
45 124 255
45 124 255
45 124 255
45 124 255
45 124 255
45 124 255
45 124 255
255 255 255
255 255 255
45 124 255
45 124 255
45 124 255
45 124 255
45 124 255
45 124 255
45 124 255
45 124 255
45 124 255
45 124 255
45 124 255
45 124 255
255 255 255
255 255 255
255 255 255
255 255 255
255 255 255
255 255 255
45 124 255
45 124 255
45 124 255
45 124 255
255 255 255
255 255 255
45 124 255
45 124 255
45 124 255
45 124 255
45 124 255
45 124 255
255 255 255
255 255 255
45 124 255
45 124 255
255 255 255
255 255 255
255 255 255
255 255 255
255 255 255
255 255 255
255 255 255
255 255 255
255 255 255
255 255 255
45 124 255
45 124 255
45 124 255
45 124 255
45 124 255
45 124 255
45 124 255
45 124 255
45 124 255
45 124 255
45 124 255
45 124 255
45 124 255
45 124 255
45 124 255
45 124 255
45 124 255
45 124 255
45 124 255
45 124 255
45 124 255
45 124 255
45 124 255
45 124 255
45 124 255
45 124 255
45 124 255
45 124 255
45 124 255
45 124 255
45 124 255
45 124 255
45 124 255
45 124 255
45 124 255
45 124 255
45 124 255
45 124 255
45 124 255
45 124 255
45 124 255
45 124 255
183 210 255
32 42 53
32 42 53
32 42 53
32 42 53
32 42 53
32 42 53
32 42 53
32 42 53
32 42 53
32 42 53
32 42 53
32 42 53
32 42 53
32 42 53
32 42 53
32 42 53
32 42 53
32 42 53
32 42 53
32 42 53
32 42 53
32 42 53
32 42 53
32 42 53
217 255 230
54 200 120
54 200 120
54 200 120
54 200 120
54 200 120
54 200 120
54 200 120
54 200 120
54 200 120
54 200 120
54 200 120
54 200 120
54 200 120
54 200 120
54 200 120
54 200 120
54 200 120
54 200 120
54 200 120
54 200 120
54 200 120
54 200 120
54 200 120
54 200 120
54 200 120
54 200 120
54 200 120
54 200 120
217 255 230
32 42 53
32 42 53
32 42 53
32 42 53
32 42 53
32 42 53
32 42 53
32 42 53
32 42 53
32 42 53
32 42 53
32 42 53
32 42 53
32 42 53
32 42 53
32 42 53
32 42 53
32 42 53
32 42 53
32 42 53
32 42 53
32 42 53
32 42 53
32 42 53
32 42 53
32 42 53
32 42 53
32 42 53
32 42 53
32 42 53
32 42 53
32 42 53
32 42 53
32 42 53
32 42 53
32 42 53
32 42 53
32 42 53
32 42 53
32 42 53
32 42 53
32 42 53
32 42 53
32 42 53
32 42 53
32 42 53
255 200 87
255 200 87
255 200 87
255 200 87
255 200 87
255 200 87
255 200 87
255 200 87
255 200 87
255 200 87
32 42 53
32 42 53
32 42 53
32 42 53
32 42 53
32 42 53
32 42 53
32 42 53
32 42 53
32 42 53
32 42 53
32 42 53
32 42 53
32 42 53
32 42 53
32 42 53
32 42 53
32 42 53
32 42 53
32 42 53
32 42 53
32 42 53
32 42 53
32 42 53
32 42 53
32 42 53
32 42 53
32 42 53
32 42 53
32 42 53
32 42 53
32 42 53
32 42 53
32 42 53
32 42 53
32 42 53
32 42 53
32 42 53
32 42 53
32 42 53
32 42 53
32 42 53
32 42 53
32 42 53
32 42 53
32 42 53
32 42 53
32 42 53
32 42 53
32 42 53
32 42 53
32 42 53
32 42 53
32 42 53
32 42 53
32 42 53
32 42 53
32 42 53
32 42 53
32 42 53
32 42 53
106 124 145
106 124 145
17 24 32
17 24 32
17 24 32
17 24 32
17 24 32
17 24 32
17 24 32
17 24 32
17 24 32
17 24 32
17 24 32
17 24 32
17 24 32
17 24 32
17 24 32
17 24 32
17 24 32
17 24 32
17 24 32
17 24 32
17 24 32
17 24 32
17 24 32
17 24 32
106 124 145
106 124 145
32 42 53
32 42 53
32 42 53
32 42 53
32 42 53
32 42 53
32 42 53
32 42 53
32 42 53
32 42 53
32 42 53
183 210 255
45 124 255
45 124 255
45 124 255
45 124 255
45 124 255
45 124 255
45 124 255
45 124 255
45 124 255
45 124 255
45 124 255
45 124 255
45 124 255
45 124 255
45 124 255
45 124 255
45 124 255
45 124 255
45 124 255
45 124 255
255 255 255
255 255 255
45 124 255
45 124 255
45 124 255
45 124 255
45 124 255
45 124 255
45 124 255
45 124 255
45 124 255
45 124 255
45 124 255
45 124 255
255 255 255
255 255 255
255 255 255
255 255 255
255 255 255
255 255 255
45 124 255
45 124 255
45 124 255
45 124 255
255 255 255
255 255 255
45 124 255
45 124 255
45 124 255
45 124 255
45 124 255
45 124 255
255 255 255
255 255 255
45 124 255
45 124 255
255 255 255
255 255 255
255 255 255
255 255 255
255 255 255
255 255 255
255 255 255
255 255 255
255 255 255
255 255 255
45 124 255
45 124 255
45 124 255
45 124 255
45 124 255
45 124 255
45 124 255
45 124 255
45 124 255
45 124 255
45 124 255
45 124 255
45 124 255
45 124 255
45 124 255
45 124 255
45 124 255
45 124 255
45 124 255
45 124 255
45 124 255
45 124 255
45 124 255
45 124 255
45 124 255
45 124 255
45 124 255
45 124 255
45 124 255
45 124 255
45 124 255
45 124 255
45 124 255
45 124 255
45 124 255
45 124 255
45 124 255
45 124 255
45 124 255
45 124 255
45 124 255
45 124 255
183 210 255
32 42 53
32 42 53
32 42 53
32 42 53
32 42 53
32 42 53
32 42 53
32 42 53
32 42 53
32 42 53
32 42 53
32 42 53
32 42 53
32 42 53
32 42 53
32 42 53
32 42 53
32 42 53
32 42 53
32 42 53
32 42 53
32 42 53
32 42 53
32 42 53
217 255 230
54 200 120
54 200 120
54 200 120
54 200 120
54 200 120
54 200 120
54 200 120
54 200 120
54 200 120
54 200 120
54 200 120
54 200 120
54 200 120
54 200 120
54 200 120
54 200 120
54 200 120
54 200 120
54 200 120
54 200 120
54 200 120
54 200 120
54 200 120
54 200 120
54 200 120
54 200 120
54 200 120
54 200 120
217 255 230
32 42 53
32 42 53
32 42 53
32 42 53
32 42 53
32 42 53
32 42 53
32 42 53
32 42 53
32 42 53
32 42 53
32 42 53
32 42 53
32 42 53
32 42 53
32 42 53
32 42 53
32 42 53
32 42 53
32 42 53
32 42 53
32 42 53
32 42 53
32 42 53
32 42 53
32 42 53
32 42 53
32 42 53
32 42 53
32 42 53
32 42 53
32 42 53
32 42 53
32 42 53
32 42 53
32 42 53
32 42 53
32 42 53
32 42 53
32 42 53
32 42 53
32 42 53
32 42 53
32 42 53
32 42 53
32 42 53
255 200 87
255 200 87
255 200 87
255 200 87
255 200 87
255 200 87
255 200 87
255 200 87
255 200 87
255 200 87
32 42 53
32 42 53
32 42 53
32 42 53
32 42 53
32 42 53
32 42 53
32 42 53
32 42 53
32 42 53
32 42 53
32 42 53
32 42 53
32 42 53
32 42 53
32 42 53
32 42 53
32 42 53
32 42 53
32 42 53
32 42 53
32 42 53
32 42 53
32 42 53
32 42 53
32 42 53
32 42 53
32 42 53
32 42 53
32 42 53
32 42 53
32 42 53
32 42 53
32 42 53
32 42 53
32 42 53
32 42 53
32 42 53
32 42 53
32 42 53
32 42 53
32 42 53
32 42 53
32 42 53
32 42 53
32 42 53
32 42 53
32 42 53
32 42 53
32 42 53
32 42 53
32 42 53
32 42 53
32 42 53
32 42 53
32 42 53
32 42 53
32 42 53
32 42 53
32 42 53
32 42 53
106 124 145
106 124 145
17 24 32
17 24 32
17 24 32
17 24 32
17 24 32
17 24 32
17 24 32
17 24 32
17 24 32
17 24 32
17 24 32
17 24 32
17 24 32
17 24 32
17 24 32
17 24 32
17 24 32
17 24 32
17 24 32
17 24 32
17 24 32
17 24 32
17 24 32
17 24 32
106 124 145
106 124 145
32 42 53
32 42 53
32 42 53
32 42 53
32 42 53
32 42 53
32 42 53
32 42 53
32 42 53
32 42 53
183 210 255
45 124 255
45 124 255
45 124 255
45 124 255
45 124 255
45 124 255
45 124 255
45 124 255
45 124 255
45 124 255
45 124 255
45 124 255
45 124 255
45 124 255
45 124 255
45 124 255
45 124 255
45 124 255
45 124 255
45 124 255
45 124 255
255 255 255
255 255 255
45 124 255
45 124 255
45 124 255
45 124 255
45 124 255
45 124 255
45 124 255
45 124 255
45 124 255
45 124 255
45 124 255
45 124 255
45 124 255
45 124 255
255 255 255
255 255 255
45 124 255
45 124 255
45 124 255
45 124 255
45 124 255
45 124 255
255 255 255
255 255 255
45 124 255
45 124 255
45 124 255
45 124 255
45 124 255
45 124 255
255 255 255
255 255 255
45 124 255
45 124 255
255 255 255
255 255 255
45 124 255
45 124 255
45 124 255
45 124 255
45 124 255
45 124 255
45 124 255
45 124 255
45 124 255
45 124 255
45 124 255
45 124 255
45 124 255
45 124 255
45 124 255
45 124 255
45 124 255
45 124 255
45 124 255
45 124 255
45 124 255
45 124 255
45 124 255
45 124 255
45 124 255
45 124 255
45 124 255
45 124 255
45 124 255
45 124 255
45 124 255
45 124 255
45 124 255
45 124 255
45 124 255
45 124 255
45 124 255
45 124 255
45 124 255
45 124 255
45 124 255
45 124 255
45 124 255
45 124 255
45 124 255
45 124 255
45 124 255
45 124 255
45 124 255
45 124 255
45 124 255
183 210 255
32 42 53
32 42 53
32 42 53
32 42 53
32 42 53
32 42 53
32 42 53
32 42 53
32 42 53
32 42 53
32 42 53
32 42 53
32 42 53
32 42 53
32 42 53
32 42 53
32 42 53
32 42 53
32 42 53
32 42 53
32 42 53
32 42 53
32 42 53
217 255 230
54 200 120
54 200 120
54 200 120
54 200 120
54 200 120
54 200 120
54 200 120
54 200 120
54 200 120
54 200 120
54 200 120
54 200 120
54 200 120
54 200 120
54 200 120
54 200 120
54 200 120
54 200 120
54 200 120
54 200 120
54 200 120
54 200 120
54 200 120
54 200 120
54 200 120
54 200 120
54 200 120
54 200 120
217 255 230
32 42 53
32 42 53
32 42 53
32 42 53
32 42 53
32 42 53
32 42 53
32 42 53
32 42 53
32 42 53
32 42 53
32 42 53
32 42 53
32 42 53
32 42 53
32 42 53
32 42 53
32 42 53
32 42 53
32 42 53
32 42 53
32 42 53
32 42 53
32 42 53
32 42 53
32 42 53
32 42 53
32 42 53
32 42 53
32 42 53
32 42 53
32 42 53
32 42 53
32 42 53
32 42 53
32 42 53
32 42 53
32 42 53
32 42 53
32 42 53
32 42 53
32 42 53
32 42 53
32 42 53
32 42 53
255 200 87
255 200 87
255 200 87
255 200 87
255 200 87
255 200 87
255 200 87
255 200 87
255 200 87
255 200 87
255 200 87
255 200 87
32 42 53
32 42 53
32 42 53
32 42 53
32 42 53
32 42 53
32 42 53
32 42 53
32 42 53
32 42 53
32 42 53
32 42 53
32 42 53
32 42 53
32 42 53
32 42 53
32 42 53
32 42 53
32 42 53
32 42 53
32 42 53
32 42 53
32 42 53
32 42 53
32 42 53
32 42 53
32 42 53
32 42 53
32 42 53
32 42 53
32 42 53
32 42 53
32 42 53
32 42 53
32 42 53
32 42 53
32 42 53
32 42 53
32 42 53
32 42 53
32 42 53
32 42 53
32 42 53
32 42 53
32 42 53
32 42 53
32 42 53
32 42 53
32 42 53
32 42 53
32 42 53
32 42 53
32 42 53
32 42 53
32 42 53
32 42 53
32 42 53
32 42 53
32 42 53
32 42 53
106 124 145
106 124 145
17 24 32
17 24 32
17 24 32
17 24 32
17 24 32
17 24 32
17 24 32
17 24 32
17 24 32
17 24 32
17 24 32
17 24 32
17 24 32
17 24 32
17 24 32
17 24 32
17 24 32
17 24 32
17 24 32
17 24 32
17 24 32
17 24 32
17 24 32
17 24 32
106 124 145
106 124 145
32 42 53
32 42 53
32 42 53
32 42 53
32 42 53
32 42 53
32 42 53
32 42 53
32 42 53
32 42 53
183 210 255
45 124 255
45 124 255
45 124 255
45 124 255
45 124 255
45 124 255
45 124 255
45 124 255
45 124 255
45 124 255
45 124 255
45 124 255
45 124 255
45 124 255
45 124 255
45 124 255
45 124 255
45 124 255
45 124 255
45 124 255
45 124 255
255 255 255
255 255 255
45 124 255
45 124 255
45 124 255
45 124 255
45 124 255
45 124 255
45 124 255
45 124 255
45 124 255
45 124 255
45 124 255
45 124 255
45 124 255
45 124 255
255 255 255
255 255 255
45 124 255
45 124 255
45 124 255
45 124 255
45 124 255
45 124 255
255 255 255
255 255 255
45 124 255
45 124 255
45 124 255
45 124 255
45 124 255
45 124 255
255 255 255
255 255 255
45 124 255
45 124 255
255 255 255
255 255 255
45 124 255
45 124 255
45 124 255
45 124 255
45 124 255
45 124 255
45 124 255
45 124 255
45 124 255
45 124 255
45 124 255
45 124 255
45 124 255
45 124 255
45 124 255
45 124 255
45 124 255
45 124 255
45 124 255
45 124 255
45 124 255
45 124 255
45 124 255
45 124 255
45 124 255
45 124 255
45 124 255
45 124 255
45 124 255
45 124 255
45 124 255
45 124 255
45 124 255
45 124 255
45 124 255
45 124 255
45 124 255
45 124 255
45 124 255
45 124 255
45 124 255
45 124 255
45 124 255
45 124 255
45 124 255
45 124 255
45 124 255
45 124 255
45 124 255
45 124 255
45 124 255
183 210 255
32 42 53
32 42 53
32 42 53
32 42 53
32 42 53
32 42 53
32 42 53
32 42 53
32 42 53
32 42 53
32 42 53
32 42 53
32 42 53
32 42 53
32 42 53
32 42 53
32 42 53
32 42 53
32 42 53
32 42 53
32 42 53
32 42 53
217 255 230
54 200 120
54 200 120
54 200 120
54 200 120
54 200 120
54 200 120
54 200 120
54 200 120
54 200 120
54 200 120
54 200 120
54 200 120
54 200 120
54 200 120
54 200 120
54 200 120
54 200 120
54 200 120
54 200 120
54 200 120
54 200 120
54 200 120
54 200 120
54 200 120
54 200 120
54 200 120
54 200 120
54 200 120
54 200 120
54 200 120
217 255 230
32 42 53
32 42 53
32 42 53
32 42 53
32 42 53
32 42 53
32 42 53
32 42 53
32 42 53
32 42 53
32 42 53
32 42 53
32 42 53
32 42 53
32 42 53
32 42 53
32 42 53
32 42 53
32 42 53
32 42 53
32 42 53
32 42 53
32 42 53
32 42 53
32 42 53
32 42 53
32 42 53
32 42 53
32 42 53
32 42 53
32 42 53
32 42 53
32 42 53
32 42 53
32 42 53
32 42 53
32 42 53
32 42 53
32 42 53
32 42 53
32 42 53
32 42 53
32 42 53
32 42 53
255 200 87
255 200 87
255 200 87
255 200 87
255 200 87
255 200 87
255 200 87
255 200 87
255 200 87
255 200 87
255 200 87
255 200 87
32 42 53
32 42 53
32 42 53
32 42 53
32 42 53
32 42 53
32 42 53
32 42 53
32 42 53
32 42 53
32 42 53
32 42 53
32 42 53
32 42 53
32 42 53
32 42 53
32 42 53
32 42 53
32 42 53
32 42 53
32 42 53
32 42 53
32 42 53
32 42 53
32 42 53
32 42 53
32 42 53
32 42 53
32 42 53
32 42 53
32 42 53
32 42 53
32 42 53
32 42 53
32 42 53
32 42 53
32 42 53
32 42 53
32 42 53
32 42 53
32 42 53
32 42 53
32 42 53
32 42 53
32 42 53
32 42 53
32 42 53
32 42 53
32 42 53
32 42 53
32 42 53
32 42 53
32 42 53
32 42 53
32 42 53
32 42 53
32 42 53
32 42 53
32 42 53
32 42 53
106 124 145
106 124 145
17 24 32
17 24 32
17 24 32
17 24 32
17 24 32
17 24 32
17 24 32
17 24 32
17 24 32
17 24 32
17 24 32
17 24 32
17 24 32
17 24 32
17 24 32
17 24 32
17 24 32
17 24 32
17 24 32
17 24 32
17 24 32
17 24 32
17 24 32
17 24 32
106 124 145
106 124 145
32 42 53
32 42 53
32 42 53
32 42 53
32 42 53
32 42 53
32 42 53
32 42 53
32 42 53
32 42 53
183 210 255
45 124 255
45 124 255
45 124 255
45 124 255
45 124 255
45 124 255
45 124 255
45 124 255
45 124 255
45 124 255
45 124 255
45 124 255
45 124 255
45 124 255
45 124 255
45 124 255
45 124 255
45 124 255
45 124 255
45 124 255
45 124 255
255 255 255
255 255 255
45 124 255
45 124 255
45 124 255
45 124 255
45 124 255
45 124 255
45 124 255
45 124 255
45 124 255
45 124 255
45 124 255
45 124 255
45 124 255
45 124 255
255 255 255
255 255 255
45 124 255
45 124 255
45 124 255
45 124 255
45 124 255
45 124 255
255 255 255
255 255 255
45 124 255
45 124 255
45 124 255
45 124 255
45 124 255
45 124 255
255 255 255
255 255 255
45 124 255
45 124 255
255 255 255
255 255 255
45 124 255
45 124 255
45 124 255
45 124 255
45 124 255
45 124 255
45 124 255
45 124 255
45 124 255
45 124 255
45 124 255
45 124 255
45 124 255
45 124 255
45 124 255
45 124 255
45 124 255
45 124 255
45 124 255
45 124 255
45 124 255
45 124 255
45 124 255
45 124 255
45 124 255
45 124 255
45 124 255
45 124 255
45 124 255
45 124 255
45 124 255
45 124 255
45 124 255
45 124 255
45 124 255
45 124 255
45 124 255
45 124 255
45 124 255
45 124 255
45 124 255
45 124 255
45 124 255
45 124 255
45 124 255
45 124 255
45 124 255
45 124 255
45 124 255
45 124 255
45 124 255
183 210 255
32 42 53
32 42 53
32 42 53
32 42 53
32 42 53
32 42 53
32 42 53
32 42 53
32 42 53
32 42 53
32 42 53
32 42 53
32 42 53
32 42 53
32 42 53
32 42 53
32 42 53
32 42 53
32 42 53
32 42 53
32 42 53
32 42 53
217 255 230
54 200 120
54 200 120
54 200 120
54 200 120
54 200 120
54 200 120
54 200 120
54 200 120
54 200 120
54 200 120
54 200 120
54 200 120
54 200 120
54 200 120
54 200 120
54 200 120
54 200 120
54 200 120
54 200 120
54 200 120
54 200 120
54 200 120
54 200 120
54 200 120
54 200 120
54 200 120
54 200 120
54 200 120
54 200 120
54 200 120
217 255 230
32 42 53
32 42 53
32 42 53
32 42 53
32 42 53
32 42 53
32 42 53
32 42 53
32 42 53
32 42 53
32 42 53
32 42 53
32 42 53
32 42 53
32 42 53
32 42 53
32 42 53
32 42 53
32 42 53
32 42 53
32 42 53
32 42 53
32 42 53
32 42 53
32 42 53
32 42 53
32 42 53
32 42 53
32 42 53
32 42 53
32 42 53
32 42 53
32 42 53
32 42 53
32 42 53
32 42 53
32 42 53
32 42 53
32 42 53
32 42 53
32 42 53
32 42 53
32 42 53
255 200 87
255 200 87
255 200 87
255 200 87
255 200 87
255 200 87
255 200 87
255 200 87
255 200 87
255 200 87
255 200 87
255 200 87
255 200 87
255 200 87
32 42 53
32 42 53
32 42 53
32 42 53
32 42 53
32 42 53
32 42 53
32 42 53
32 42 53
32 42 53
32 42 53
32 42 53
32 42 53
32 42 53
32 42 53
32 42 53
32 42 53
32 42 53
32 42 53
32 42 53
32 42 53
32 42 53
32 42 53
32 42 53
32 42 53
32 42 53
32 42 53
32 42 53
32 42 53
32 42 53
32 42 53
32 42 53
32 42 53
32 42 53
32 42 53
32 42 53
32 42 53
32 42 53
32 42 53
32 42 53
32 42 53
32 42 53
32 42 53
32 42 53
32 42 53
32 42 53
32 42 53
32 42 53
32 42 53
32 42 53
32 42 53
32 42 53
32 42 53
32 42 53
32 42 53
32 42 53
32 42 53
32 42 53
32 42 53
106 124 145
106 124 145
17 24 32
17 24 32
17 24 32
17 24 32
17 24 32
17 24 32
17 24 32
17 24 32
17 24 32
17 24 32
17 24 32
17 24 32
17 24 32
17 24 32
17 24 32
17 24 32
17 24 32
17 24 32
17 24 32
17 24 32
17 24 32
17 24 32
17 24 32
17 24 32
106 124 145
106 124 145
32 42 53
32 42 53
32 42 53
32 42 53
32 42 53
32 42 53
32 42 53
32 42 53
32 42 53
32 42 53
183 210 255
45 124 255
45 124 255
45 124 255
45 124 255
45 124 255
45 124 255
45 124 255
45 124 255
45 124 255
45 124 255
45 124 255
45 124 255
45 124 255
45 124 255
45 124 255
45 124 255
45 124 255
45 124 255
45 124 255
45 124 255
45 124 255
255 255 255
255 255 255
45 124 255
45 124 255
45 124 255
45 124 255
45 124 255
45 124 255
45 124 255
45 124 255
45 124 255
45 124 255
45 124 255
45 124 255
45 124 255
45 124 255
255 255 255
255 255 255
45 124 255
45 124 255
45 124 255
45 124 255
45 124 255
45 124 255
255 255 255
255 255 255
45 124 255
45 124 255
45 124 255
45 124 255
45 124 255
45 124 255
255 255 255
255 255 255
45 124 255
45 124 255
255 255 255
255 255 255
45 124 255
45 124 255
45 124 255
45 124 255
45 124 255
45 124 255
45 124 255
45 124 255
45 124 255
45 124 255
45 124 255
45 124 255
45 124 255
45 124 255
45 124 255
45 124 255
45 124 255
45 124 255
45 124 255
45 124 255
45 124 255
45 124 255
45 124 255
45 124 255
45 124 255
45 124 255
45 124 255
45 124 255
45 124 255
45 124 255
45 124 255
45 124 255
45 124 255
45 124 255
45 124 255
45 124 255
45 124 255
45 124 255
45 124 255
45 124 255
45 124 255
45 124 255
45 124 255
45 124 255
45 124 255
45 124 255
45 124 255
45 124 255
45 124 255
45 124 255
45 124 255
183 210 255
32 42 53
32 42 53
32 42 53
32 42 53
32 42 53
32 42 53
32 42 53
32 42 53
32 42 53
32 42 53
32 42 53
32 42 53
32 42 53
32 42 53
32 42 53
32 42 53
32 42 53
32 42 53
32 42 53
32 42 53
32 42 53
32 42 53
217 255 230
54 200 120
54 200 120
54 200 120
54 200 120
54 200 120
54 200 120
54 200 120
54 200 120
54 200 120
54 200 120
54 200 120
54 200 120
54 200 120
54 200 120
54 200 120
54 200 120
54 200 120
54 200 120
54 200 120
54 200 120
54 200 120
54 200 120
54 200 120
54 200 120
54 200 120
54 200 120
54 200 120
54 200 120
54 200 120
54 200 120
217 255 230
32 42 53
32 42 53
32 42 53
32 42 53
32 42 53
32 42 53
32 42 53
32 42 53
32 42 53
32 42 53
32 42 53
32 42 53
32 42 53
32 42 53
32 42 53
32 42 53
32 42 53
32 42 53
32 42 53
32 42 53
32 42 53
32 42 53
32 42 53
32 42 53
32 42 53
32 42 53
32 42 53
32 42 53
32 42 53
32 42 53
32 42 53
32 42 53
32 42 53
32 42 53
32 42 53
32 42 53
32 42 53
32 42 53
32 42 53
32 42 53
32 42 53
32 42 53
32 42 53
255 200 87
255 200 87
255 200 87
255 200 87
255 200 87
255 200 87
255 200 87
255 200 87
255 200 87
255 200 87
255 200 87
255 200 87
255 200 87
255 200 87
32 42 53
32 42 53
32 42 53
32 42 53
32 42 53
32 42 53
32 42 53
32 42 53
32 42 53
32 42 53
32 42 53
32 42 53
32 42 53
32 42 53
32 42 53
32 42 53
32 42 53
32 42 53
32 42 53
32 42 53
32 42 53
32 42 53
32 42 53
32 42 53
32 42 53
32 42 53
32 42 53
32 42 53
32 42 53
32 42 53
32 42 53
32 42 53
32 42 53
32 42 53
32 42 53
32 42 53
32 42 53
32 42 53
32 42 53
32 42 53
32 42 53
32 42 53
32 42 53
32 42 53
32 42 53
32 42 53
32 42 53
32 42 53
32 42 53
32 42 53
32 42 53
32 42 53
32 42 53
32 42 53
32 42 53
32 42 53
32 42 53
32 42 53
32 42 53
106 124 145
106 124 145
17 24 32
17 24 32
17 24 32
17 24 32
17 24 32
17 24 32
17 24 32
17 24 32
17 24 32
17 24 32
17 24 32
17 24 32
17 24 32
17 24 32
17 24 32
17 24 32
17 24 32
17 24 32
17 24 32
17 24 32
17 24 32
17 24 32
17 24 32
17 24 32
106 124 145
106 124 145
32 42 53
32 42 53
32 42 53
32 42 53
32 42 53
32 42 53
32 42 53
32 42 53
32 42 53
32 42 53
183 210 255
45 124 255
45 124 255
45 124 255
45 124 255
45 124 255
45 124 255
45 124 255
45 124 255
45 124 255
45 124 255
45 124 255
45 124 255
45 124 255
45 124 255
45 124 255
45 124 255
45 124 255
45 124 255
45 124 255
45 124 255
45 124 255
255 255 255
255 255 255
45 124 255
45 124 255
45 124 255
45 124 255
45 124 255
45 124 255
45 124 255
45 124 255
45 124 255
45 124 255
45 124 255
45 124 255
45 124 255
45 124 255
255 255 255
255 255 255
45 124 255
45 124 255
45 124 255
45 124 255
45 124 255
45 124 255
255 255 255
255 255 255
45 124 255
45 124 255
45 124 255
45 124 255
45 124 255
45 124 255
255 255 255
255 255 255
45 124 255
45 124 255
255 255 255
255 255 255
255 255 255
255 255 255
255 255 255
255 255 255
255 255 255
255 255 255
45 124 255
45 124 255
45 124 255
45 124 255
45 124 255
45 124 255
45 124 255
45 124 255
45 124 255
45 124 255
45 124 255
45 124 255
45 124 255
45 124 255
45 124 255
45 124 255
45 124 255
45 124 255
45 124 255
45 124 255
45 124 255
45 124 255
45 124 255
45 124 255
45 124 255
45 124 255
45 124 255
45 124 255
45 124 255
45 124 255
45 124 255
45 124 255
45 124 255
45 124 255
45 124 255
45 124 255
45 124 255
45 124 255
45 124 255
45 124 255
45 124 255
45 124 255
45 124 255
45 124 255
45 124 255
183 210 255
32 42 53
32 42 53
32 42 53
32 42 53
32 42 53
32 42 53
32 42 53
32 42 53
32 42 53
32 42 53
32 42 53
32 42 53
32 42 53
32 42 53
32 42 53
32 42 53
32 42 53
32 42 53
32 42 53
32 42 53
32 42 53
32 42 53
217 255 230
54 200 120
54 200 120
54 200 120
54 200 120
54 200 120
54 200 120
54 200 120
54 200 120
54 200 120
54 200 120
54 200 120
54 200 120
54 200 120
54 200 120
54 200 120
54 200 120
54 200 120
54 200 120
54 200 120
54 200 120
54 200 120
54 200 120
54 200 120
54 200 120
54 200 120
54 200 120
54 200 120
54 200 120
54 200 120
54 200 120
217 255 230
32 42 53
32 42 53
32 42 53
32 42 53
32 42 53
32 42 53
32 42 53
32 42 53
32 42 53
32 42 53
32 42 53
32 42 53
32 42 53
32 42 53
32 42 53
32 42 53
32 42 53
32 42 53
32 42 53
32 42 53
32 42 53
32 42 53
32 42 53
32 42 53
32 42 53
32 42 53
32 42 53
32 42 53
32 42 53
32 42 53
32 42 53
32 42 53
32 42 53
32 42 53
32 42 53
32 42 53
32 42 53
32 42 53
32 42 53
32 42 53
32 42 53
32 42 53
255 200 87
255 200 87
255 200 87
255 200 87
255 200 87
255 200 87
255 200 87
255 200 87
255 200 87
255 200 87
255 200 87
255 200 87
255 200 87
255 200 87
255 200 87
255 200 87
32 42 53
32 42 53
32 42 53
32 42 53
32 42 53
32 42 53
32 42 53
32 42 53
32 42 53
32 42 53
32 42 53
32 42 53
32 42 53
32 42 53
32 42 53
32 42 53
32 42 53
32 42 53
32 42 53
32 42 53
32 42 53
32 42 53
32 42 53
32 42 53
32 42 53
32 42 53
32 42 53
32 42 53
32 42 53
32 42 53
32 42 53
32 42 53
32 42 53
32 42 53
32 42 53
32 42 53
32 42 53
32 42 53
32 42 53
32 42 53
32 42 53
32 42 53
32 42 53
32 42 53
32 42 53
32 42 53
32 42 53
32 42 53
32 42 53
32 42 53
32 42 53
32 42 53
32 42 53
32 42 53
32 42 53
32 42 53
32 42 53
32 42 53
106 124 145
106 124 145
17 24 32
17 24 32
17 24 32
17 24 32
17 24 32
17 24 32
17 24 32
17 24 32
17 24 32
17 24 32
17 24 32
17 24 32
17 24 32
17 24 32
17 24 32
17 24 32
17 24 32
17 24 32
17 24 32
17 24 32
17 24 32
17 24 32
17 24 32
17 24 32
106 124 145
106 124 145
32 42 53
32 42 53
32 42 53
32 42 53
32 42 53
32 42 53
32 42 53
32 42 53
32 42 53
32 42 53
183 210 255
45 124 255
45 124 255
45 124 255
45 124 255
45 124 255
45 124 255
45 124 255
45 124 255
45 124 255
45 124 255
45 124 255
45 124 255
45 124 255
45 124 255
45 124 255
45 124 255
45 124 255
45 124 255
45 124 255
45 124 255
45 124 255
255 255 255
255 255 255
45 124 255
45 124 255
45 124 255
45 124 255
45 124 255
45 124 255
45 124 255
45 124 255
45 124 255
45 124 255
45 124 255
45 124 255
45 124 255
45 124 255
255 255 255
255 255 255
45 124 255
45 124 255
45 124 255
45 124 255
45 124 255
45 124 255
255 255 255
255 255 255
45 124 255
45 124 255
45 124 255
45 124 255
45 124 255
45 124 255
255 255 255
255 255 255
45 124 255
45 124 255
255 255 255
255 255 255
255 255 255
255 255 255
255 255 255
255 255 255
255 255 255
255 255 255
45 124 255
45 124 255
45 124 255
45 124 255
45 124 255
45 124 255
45 124 255
45 124 255
45 124 255
45 124 255
45 124 255
45 124 255
45 124 255
45 124 255
45 124 255
45 124 255
45 124 255
45 124 255
45 124 255
45 124 255
45 124 255
45 124 255
45 124 255
45 124 255
45 124 255
45 124 255
45 124 255
45 124 255
45 124 255
45 124 255
45 124 255
45 124 255
45 124 255
45 124 255
45 124 255
45 124 255
45 124 255
45 124 255
45 124 255
45 124 255
45 124 255
45 124 255
45 124 255
45 124 255
45 124 255
183 210 255
32 42 53
32 42 53
32 42 53
32 42 53
32 42 53
32 42 53
32 42 53
32 42 53
32 42 53
32 42 53
32 42 53
32 42 53
32 42 53
32 42 53
32 42 53
32 42 53
32 42 53
32 42 53
32 42 53
32 42 53
32 42 53
32 42 53
217 255 230
54 200 120
54 200 120
54 200 120
54 200 120
54 200 120
54 200 120
54 200 120
54 200 120
54 200 120
54 200 120
54 200 120
54 200 120
54 200 120
54 200 120
54 200 120
54 200 120
54 200 120
54 200 120
54 200 120
54 200 120
54 200 120
54 200 120
54 200 120
54 200 120
54 200 120
54 200 120
54 200 120
54 200 120
54 200 120
54 200 120
217 255 230
32 42 53
32 42 53
32 42 53
32 42 53
32 42 53
32 42 53
32 42 53
32 42 53
32 42 53
32 42 53
32 42 53
32 42 53
32 42 53
32 42 53
32 42 53
32 42 53
32 42 53
32 42 53
32 42 53
32 42 53
32 42 53
32 42 53
32 42 53
32 42 53
32 42 53
32 42 53
32 42 53
32 42 53
32 42 53
32 42 53
32 42 53
32 42 53
32 42 53
32 42 53
32 42 53
32 42 53
32 42 53
32 42 53
32 42 53
32 42 53
32 42 53
32 42 53
255 200 87
255 200 87
255 200 87
255 200 87
255 200 87
255 200 87
255 200 87
255 200 87
255 200 87
255 200 87
255 200 87
255 200 87
255 200 87
255 200 87
255 200 87
255 200 87
32 42 53
32 42 53
32 42 53
32 42 53
32 42 53
32 42 53
32 42 53
32 42 53
32 42 53
32 42 53
32 42 53
32 42 53
32 42 53
32 42 53
32 42 53
32 42 53
32 42 53
32 42 53
32 42 53
32 42 53
32 42 53
32 42 53
32 42 53
32 42 53
32 42 53
32 42 53
32 42 53
32 42 53
32 42 53
32 42 53
32 42 53
32 42 53
32 42 53
32 42 53
32 42 53
32 42 53
32 42 53
32 42 53
32 42 53
32 42 53
32 42 53
32 42 53
32 42 53
32 42 53
32 42 53
32 42 53
32 42 53
32 42 53
32 42 53
32 42 53
32 42 53
32 42 53
32 42 53
32 42 53
32 42 53
32 42 53
32 42 53
32 42 53
106 124 145
106 124 145
17 24 32
17 24 32
17 24 32
17 24 32
17 24 32
17 24 32
17 24 32
17 24 32
17 24 32
17 24 32
17 24 32
17 24 32
17 24 32
17 24 32
17 24 32
17 24 32
17 24 32
17 24 32
17 24 32
17 24 32
17 24 32
17 24 32
17 24 32
17 24 32
106 124 145
106 124 145
32 42 53
32 42 53
32 42 53
32 42 53
32 42 53
32 42 53
32 42 53
32 42 53
32 42 53
32 42 53
183 210 255
45 124 255
45 124 255
45 124 255
45 124 255
45 124 255
45 124 255
45 124 255
45 124 255
45 124 255
45 124 255
45 124 255
45 124 255
45 124 255
45 124 255
45 124 255
45 124 255
45 124 255
45 124 255
45 124 255
45 124 255
45 124 255
255 255 255
255 255 255
45 124 255
45 124 255
45 124 255
45 124 255
45 124 255
45 124 255
45 124 255
45 124 255
45 124 255
45 124 255
45 124 255
45 124 255
45 124 255
45 124 255
255 255 255
255 255 255
45 124 255
45 124 255
45 124 255
45 124 255
45 124 255
45 124 255
255 255 255
255 255 255
45 124 255
45 124 255
45 124 255
45 124 255
45 124 255
45 124 255
255 255 255
255 255 255
45 124 255
45 124 255
255 255 255
255 255 255
45 124 255
45 124 255
45 124 255
45 124 255
45 124 255
45 124 255
45 124 255
45 124 255
45 124 255
45 124 255
45 124 255
45 124 255
45 124 255
45 124 255
45 124 255
45 124 255
45 124 255
45 124 255
45 124 255
45 124 255
45 124 255
45 124 255
45 124 255
45 124 255
45 124 255
45 124 255
45 124 255
45 124 255
45 124 255
45 124 255
45 124 255
45 124 255
45 124 255
45 124 255
45 124 255
45 124 255
45 124 255
45 124 255
45 124 255
45 124 255
45 124 255
45 124 255
45 124 255
45 124 255
45 124 255
45 124 255
45 124 255
45 124 255
45 124 255
45 124 255
45 124 255
183 210 255
32 42 53
32 42 53
32 42 53
32 42 53
32 42 53
32 42 53
32 42 53
32 42 53
32 42 53
32 42 53
32 42 53
32 42 53
32 42 53
32 42 53
32 42 53
32 42 53
32 42 53
32 42 53
32 42 53
32 42 53
32 42 53
32 42 53
217 255 230
54 200 120
54 200 120
54 200 120
54 200 120
54 200 120
54 200 120
54 200 120
54 200 120
54 200 120
54 200 120
54 200 120
54 200 120
54 200 120
54 200 120
54 200 120
54 200 120
54 200 120
54 200 120
54 200 120
54 200 120
54 200 120
54 200 120
54 200 120
54 200 120
54 200 120
54 200 120
54 200 120
54 200 120
54 200 120
54 200 120
217 255 230
32 42 53
32 42 53
32 42 53
32 42 53
32 42 53
32 42 53
32 42 53
32 42 53
32 42 53
32 42 53
32 42 53
32 42 53
32 42 53
32 42 53
32 42 53
32 42 53
32 42 53
32 42 53
32 42 53
32 42 53
32 42 53
32 42 53
32 42 53
32 42 53
32 42 53
32 42 53
32 42 53
32 42 53
32 42 53
32 42 53
32 42 53
32 42 53
32 42 53
32 42 53
32 42 53
32 42 53
32 42 53
32 42 53
32 42 53
32 42 53
32 42 53
255 200 87
255 200 87
255 200 87
255 200 87
255 200 87
255 200 87
255 200 87
255 200 87
255 200 87
255 200 87
255 200 87
255 200 87
255 200 87
255 200 87
255 200 87
255 200 87
255 200 87
255 200 87
32 42 53
32 42 53
32 42 53
32 42 53
32 42 53
32 42 53
32 42 53
32 42 53
32 42 53
32 42 53
32 42 53
32 42 53
32 42 53
32 42 53
32 42 53
32 42 53
32 42 53
32 42 53
32 42 53
32 42 53
32 42 53
32 42 53
32 42 53
32 42 53
32 42 53
32 42 53
32 42 53
32 42 53
32 42 53
32 42 53
32 42 53
32 42 53
32 42 53
32 42 53
32 42 53
32 42 53
32 42 53
32 42 53
32 42 53
32 42 53
32 42 53
32 42 53
32 42 53
32 42 53
32 42 53
32 42 53
32 42 53
32 42 53
32 42 53
32 42 53
32 42 53
32 42 53
32 42 53
32 42 53
32 42 53
32 42 53
32 42 53
106 124 145
106 124 145
17 24 32
17 24 32
17 24 32
17 24 32
17 24 32
17 24 32
17 24 32
17 24 32
17 24 32
17 24 32
17 24 32
17 24 32
17 24 32
17 24 32
17 24 32
17 24 32
17 24 32
17 24 32
17 24 32
17 24 32
17 24 32
17 24 32
17 24 32
17 24 32
106 124 145
106 124 145
32 42 53
32 42 53
32 42 53
32 42 53
32 42 53
32 42 53
32 42 53
32 42 53
32 42 53
32 42 53
183 210 255
45 124 255
45 124 255
45 124 255
45 124 255
45 124 255
45 124 255
45 124 255
45 124 255
45 124 255
45 124 255
45 124 255
45 124 255
45 124 255
45 124 255
45 124 255
45 124 255
45 124 255
45 124 255
45 124 255
45 124 255
45 124 255
255 255 255
255 255 255
45 124 255
45 124 255
45 124 255
45 124 255
45 124 255
45 124 255
45 124 255
45 124 255
45 124 255
45 124 255
45 124 255
45 124 255
45 124 255
45 124 255
255 255 255
255 255 255
45 124 255
45 124 255
45 124 255
45 124 255
45 124 255
45 124 255
255 255 255
255 255 255
45 124 255
45 124 255
45 124 255
45 124 255
45 124 255
45 124 255
255 255 255
255 255 255
45 124 255
45 124 255
255 255 255
255 255 255
45 124 255
45 124 255
45 124 255
45 124 255
45 124 255
45 124 255
45 124 255
45 124 255
45 124 255
45 124 255
45 124 255
45 124 255
45 124 255
45 124 255
45 124 255
45 124 255
45 124 255
45 124 255
45 124 255
45 124 255
45 124 255
45 124 255
45 124 255
45 124 255
45 124 255
45 124 255
45 124 255
45 124 255
45 124 255
45 124 255
45 124 255
45 124 255
45 124 255
45 124 255
45 124 255
45 124 255
45 124 255
45 124 255
45 124 255
45 124 255
45 124 255
45 124 255
45 124 255
45 124 255
45 124 255
45 124 255
45 124 255
45 124 255
45 124 255
45 124 255
45 124 255
183 210 255
32 42 53
32 42 53
32 42 53
32 42 53
32 42 53
32 42 53
32 42 53
32 42 53
32 42 53
32 42 53
32 42 53
32 42 53
32 42 53
32 42 53
32 42 53
32 42 53
32 42 53
32 42 53
32 42 53
32 42 53
32 42 53
32 42 53
217 255 230
54 200 120
54 200 120
54 200 120
54 200 120
54 200 120
54 200 120
54 200 120
54 200 120
54 200 120
54 200 120
54 200 120
54 200 120
54 200 120
54 200 120
54 200 120
54 200 120
54 200 120
54 200 120
54 200 120
54 200 120
54 200 120
54 200 120
54 200 120
54 200 120
54 200 120
54 200 120
54 200 120
54 200 120
54 200 120
54 200 120
217 255 230
32 42 53
32 42 53
32 42 53
32 42 53
32 42 53
32 42 53
32 42 53
32 42 53
32 42 53
32 42 53
32 42 53
32 42 53
32 42 53
32 42 53
32 42 53
32 42 53
32 42 53
32 42 53
32 42 53
32 42 53
32 42 53
32 42 53
32 42 53
32 42 53
32 42 53
32 42 53
32 42 53
32 42 53
32 42 53
32 42 53
32 42 53
32 42 53
32 42 53
32 42 53
32 42 53
32 42 53
32 42 53
32 42 53
32 42 53
32 42 53
32 42 53
255 200 87
255 200 87
255 200 87
255 200 87
255 200 87
255 200 87
255 200 87
255 200 87
255 200 87
255 200 87
255 200 87
255 200 87
255 200 87
255 200 87
255 200 87
255 200 87
255 200 87
255 200 87
32 42 53
32 42 53
32 42 53
32 42 53
32 42 53
32 42 53
32 42 53
32 42 53
32 42 53
32 42 53
32 42 53
32 42 53
32 42 53
32 42 53
32 42 53
32 42 53
32 42 53
32 42 53
32 42 53
32 42 53
32 42 53
32 42 53
32 42 53
32 42 53
32 42 53
32 42 53
32 42 53
32 42 53
32 42 53
32 42 53
32 42 53
32 42 53
32 42 53
32 42 53
32 42 53
32 42 53
32 42 53
32 42 53
32 42 53
32 42 53
32 42 53
32 42 53
32 42 53
32 42 53
32 42 53
32 42 53
32 42 53
32 42 53
32 42 53
32 42 53
32 42 53
32 42 53
32 42 53
32 42 53
32 42 53
32 42 53
32 42 53
106 124 145
106 124 145
17 24 32
17 24 32
17 24 32
17 24 32
17 24 32
17 24 32
17 24 32
17 24 32
17 24 32
17 24 32
17 24 32
17 24 32
17 24 32
17 24 32
17 24 32
17 24 32
17 24 32
17 24 32
17 24 32
17 24 32
17 24 32
17 24 32
17 24 32
17 24 32
106 124 145
106 124 145
32 42 53
32 42 53
32 42 53
32 42 53
32 42 53
32 42 53
32 42 53
32 42 53
32 42 53
32 42 53
32 42 53
183 210 255
45 124 255
45 124 255
45 124 255
45 124 255
45 124 255
45 124 255
45 124 255
45 124 255
45 124 255
45 124 255
45 124 255
45 124 255
45 124 255
45 124 255
45 124 255
45 124 255
45 124 255
45 124 255
45 124 255
45 124 255
255 255 255
255 255 255
45 124 255
45 124 255
45 124 255
45 124 255
45 124 255
45 124 255
45 124 255
45 124 255
45 124 255
45 124 255
45 124 255
45 124 255
45 124 255
45 124 255
255 255 255
255 255 255
45 124 255
45 124 255
45 124 255
45 124 255
45 124 255
45 124 255
45 124 255
45 124 255
255 255 255
255 255 255
45 124 255
45 124 255
255 255 255
255 255 255
45 124 255
45 124 255
45 124 255
45 124 255
255 255 255
255 255 255
45 124 255
45 124 255
45 124 255
45 124 255
45 124 255
45 124 255
45 124 255
45 124 255
45 124 255
45 124 255
45 124 255
45 124 255
45 124 255
45 124 255
45 124 255
45 124 255
45 124 255
45 124 255
45 124 255
45 124 255
45 124 255
45 124 255
45 124 255
45 124 255
45 124 255
45 124 255
45 124 255
45 124 255
45 124 255
45 124 255
45 124 255
45 124 255
45 124 255
45 124 255
45 124 255
45 124 255
45 124 255
45 124 255
45 124 255
45 124 255
45 124 255
45 124 255
45 124 255
45 124 255
45 124 255
45 124 255
45 124 255
45 124 255
45 124 255
45 124 255
183 210 255
32 42 53
32 42 53
32 42 53
32 42 53
32 42 53
32 42 53
32 42 53
32 42 53
32 42 53
32 42 53
32 42 53
32 42 53
32 42 53
32 42 53
32 42 53
32 42 53
32 42 53
32 42 53
32 42 53
32 42 53
32 42 53
32 42 53
32 42 53
217 255 230
54 200 120
54 200 120
54 200 120
54 200 120
54 200 120
54 200 120
54 200 120
54 200 120
54 200 120
54 200 120
54 200 120
54 200 120
54 200 120
54 200 120
54 200 120
54 200 120
54 200 120
54 200 120
54 200 120
54 200 120
54 200 120
54 200 120
54 200 120
54 200 120
54 200 120
54 200 120
54 200 120
54 200 120
54 200 120
54 200 120
217 255 230
32 42 53
32 42 53
32 42 53
32 42 53
32 42 53
32 42 53
32 42 53
32 42 53
32 42 53
32 42 53
32 42 53
32 42 53
32 42 53
32 42 53
32 42 53
32 42 53
32 42 53
32 42 53
32 42 53
32 42 53
32 42 53
32 42 53
32 42 53
32 42 53
32 42 53
32 42 53
32 42 53
32 42 53
32 42 53
32 42 53
32 42 53
32 42 53
32 42 53
32 42 53
32 42 53
32 42 53
32 42 53
32 42 53
32 42 53
32 42 53
255 200 87
255 200 87
255 200 87
255 200 87
255 200 87
255 200 87
255 200 87
255 200 87
255 200 87
255 200 87
255 200 87
255 200 87
255 200 87
255 200 87
255 200 87
255 200 87
255 200 87
255 200 87
255 200 87
255 200 87
32 42 53
32 42 53
32 42 53
32 42 53
32 42 53
32 42 53
32 42 53
32 42 53
32 42 53
32 42 53
32 42 53
32 42 53
32 42 53
32 42 53
32 42 53
32 42 53
32 42 53
32 42 53
32 42 53
32 42 53
32 42 53
32 42 53
32 42 53
32 42 53
32 42 53
32 42 53
32 42 53
32 42 53
32 42 53
32 42 53
32 42 53
32 42 53
32 42 53
32 42 53
32 42 53
32 42 53
32 42 53
32 42 53
32 42 53
32 42 53
32 42 53
32 42 53
32 42 53
32 42 53
32 42 53
32 42 53
32 42 53
32 42 53
32 42 53
32 42 53
32 42 53
32 42 53
32 42 53
32 42 53
32 42 53
32 42 53
106 124 145
106 124 145
17 24 32
17 24 32
17 24 32
17 24 32
17 24 32
17 24 32
17 24 32
17 24 32
17 24 32
17 24 32
17 24 32
17 24 32
17 24 32
17 24 32
17 24 32
17 24 32
17 24 32
17 24 32
17 24 32
17 24 32
17 24 32
17 24 32
17 24 32
17 24 32
106 124 145
106 124 145
32 42 53
32 42 53
32 42 53
32 42 53
32 42 53
32 42 53
32 42 53
32 42 53
32 42 53
32 42 53
32 42 53
183 210 255
45 124 255
45 124 255
45 124 255
45 124 255
45 124 255
45 124 255
45 124 255
45 124 255
45 124 255
45 124 255
45 124 255
45 124 255
45 124 255
45 124 255
45 124 255
45 124 255
45 124 255
45 124 255
45 124 255
45 124 255
255 255 255
255 255 255
45 124 255
45 124 255
45 124 255
45 124 255
45 124 255
45 124 255
45 124 255
45 124 255
45 124 255
45 124 255
45 124 255
45 124 255
45 124 255
45 124 255
255 255 255
255 255 255
45 124 255
45 124 255
45 124 255
45 124 255
45 124 255
45 124 255
45 124 255
45 124 255
255 255 255
255 255 255
45 124 255
45 124 255
255 255 255
255 255 255
45 124 255
45 124 255
45 124 255
45 124 255
255 255 255
255 255 255
45 124 255
45 124 255
45 124 255
45 124 255
45 124 255
45 124 255
45 124 255
45 124 255
45 124 255
45 124 255
45 124 255
45 124 255
45 124 255
45 124 255
45 124 255
45 124 255
45 124 255
45 124 255
45 124 255
45 124 255
45 124 255
45 124 255
45 124 255
45 124 255
45 124 255
45 124 255
45 124 255
45 124 255
45 124 255
45 124 255
45 124 255
45 124 255
45 124 255
45 124 255
45 124 255
45 124 255
45 124 255
45 124 255
45 124 255
45 124 255
45 124 255
45 124 255
45 124 255
45 124 255
45 124 255
45 124 255
45 124 255
45 124 255
45 124 255
45 124 255
183 210 255
32 42 53
32 42 53
32 42 53
32 42 53
32 42 53
32 42 53
32 42 53
32 42 53
32 42 53
32 42 53
32 42 53
32 42 53
32 42 53
32 42 53
32 42 53
32 42 53
32 42 53
32 42 53
32 42 53
32 42 53
32 42 53
32 42 53
32 42 53
32 42 53
217 255 230
54 200 120
54 200 120
54 200 120
54 200 120
54 200 120
54 200 120
54 200 120
54 200 120
54 200 120
54 200 120
54 200 120
54 200 120
54 200 120
54 200 120
54 200 120
54 200 120
54 200 120
54 200 120
54 200 120
54 200 120
54 200 120
54 200 120
54 200 120
54 200 120
54 200 120
54 200 120
54 200 120
54 200 120
217 255 230
32 42 53
32 42 53
32 42 53
32 42 53
32 42 53
32 42 53
32 42 53
32 42 53
32 42 53
32 42 53
32 42 53
32 42 53
32 42 53
32 42 53
32 42 53
32 42 53
32 42 53
32 42 53
32 42 53
32 42 53
32 42 53
32 42 53
32 42 53
32 42 53
32 42 53
32 42 53
32 42 53
32 42 53
32 42 53
32 42 53
32 42 53
32 42 53
32 42 53
32 42 53
32 42 53
32 42 53
32 42 53
32 42 53
32 42 53
32 42 53
32 42 53
255 200 87
255 200 87
255 200 87
255 200 87
255 200 87
255 200 87
255 200 87
255 200 87
255 200 87
255 200 87
255 200 87
255 200 87
255 200 87
255 200 87
255 200 87
255 200 87
255 200 87
255 200 87
255 200 87
255 200 87
32 42 53
32 42 53
32 42 53
32 42 53
32 42 53
32 42 53
32 42 53
32 42 53
32 42 53
32 42 53
32 42 53
32 42 53
32 42 53
32 42 53
32 42 53
32 42 53
32 42 53
32 42 53
32 42 53
32 42 53
32 42 53
32 42 53
32 42 53
32 42 53
32 42 53
32 42 53
32 42 53
32 42 53
32 42 53
32 42 53
32 42 53
32 42 53
32 42 53
32 42 53
32 42 53
32 42 53
32 42 53
32 42 53
32 42 53
32 42 53
32 42 53
32 42 53
32 42 53
32 42 53
32 42 53
32 42 53
32 42 53
32 42 53
32 42 53
32 42 53
32 42 53
32 42 53
32 42 53
32 42 53
32 42 53
32 42 53
106 124 145
106 124 145
17 24 32
17 24 32
17 24 32
17 24 32
17 24 32
17 24 32
17 24 32
17 24 32
17 24 32
17 24 32
17 24 32
17 24 32
17 24 32
17 24 32
17 24 32
17 24 32
17 24 32
17 24 32
17 24 32
17 24 32
17 24 32
17 24 32
17 24 32
17 24 32
106 124 145
106 124 145
32 42 53
32 42 53
32 42 53
32 42 53
32 42 53
32 42 53
32 42 53
32 42 53
32 42 53
32 42 53
32 42 53
183 210 255
45 124 255
45 124 255
45 124 255
45 124 255
45 124 255
45 124 255
45 124 255
45 124 255
45 124 255
45 124 255
45 124 255
45 124 255
45 124 255
45 124 255
45 124 255
45 124 255
45 124 255
45 124 255
45 124 255
45 124 255
255 255 255
255 255 255
255 255 255
255 255 255
255 255 255
255 255 255
255 255 255
255 255 255
255 255 255
255 255 255
45 124 255
45 124 255
45 124 255
45 124 255
255 255 255
255 255 255
255 255 255
255 255 255
255 255 255
255 255 255
45 124 255
45 124 255
45 124 255
45 124 255
45 124 255
45 124 255
45 124 255
45 124 255
255 255 255
255 255 255
45 124 255
45 124 255
45 124 255
45 124 255
45 124 255
45 124 255
255 255 255
255 255 255
255 255 255
255 255 255
255 255 255
255 255 255
255 255 255
255 255 255
255 255 255
255 255 255
45 124 255
45 124 255
45 124 255
45 124 255
45 124 255
45 124 255
45 124 255
45 124 255
45 124 255
45 124 255
45 124 255
45 124 255
45 124 255
45 124 255
45 124 255
45 124 255
45 124 255
45 124 255
45 124 255
45 124 255
45 124 255
45 124 255
45 124 255
45 124 255
45 124 255
45 124 255
45 124 255
45 124 255
45 124 255
45 124 255
45 124 255
45 124 255
45 124 255
45 124 255
45 124 255
45 124 255
45 124 255
45 124 255
45 124 255
45 124 255
45 124 255
45 124 255
183 210 255
32 42 53
32 42 53
32 42 53
32 42 53
32 42 53
32 42 53
32 42 53
32 42 53
32 42 53
32 42 53
32 42 53
32 42 53
32 42 53
32 42 53
32 42 53
32 42 53
32 42 53
32 42 53
32 42 53
32 42 53
32 42 53
32 42 53
32 42 53
32 42 53
217 255 230
54 200 120
54 200 120
54 200 120
54 200 120
54 200 120
54 200 120
54 200 120
54 200 120
54 200 120
54 200 120
54 200 120
54 200 120
54 200 120
54 200 120
54 200 120
54 200 120
54 200 120
54 200 120
54 200 120
54 200 120
54 200 120
54 200 120
54 200 120
54 200 120
54 200 120
54 200 120
54 200 120
54 200 120
217 255 230
32 42 53
32 42 53
32 42 53
32 42 53
32 42 53
32 42 53
32 42 53
32 42 53
32 42 53
32 42 53
32 42 53
32 42 53
32 42 53
32 42 53
32 42 53
32 42 53
32 42 53
32 42 53
32 42 53
32 42 53
32 42 53
32 42 53
32 42 53
32 42 53
32 42 53
32 42 53
32 42 53
32 42 53
32 42 53
32 42 53
32 42 53
32 42 53
32 42 53
32 42 53
32 42 53
32 42 53
32 42 53
32 42 53
32 42 53
32 42 53
255 200 87
255 200 87
255 200 87
255 200 87
255 200 87
255 200 87
255 200 87
255 200 87
255 200 87
255 200 87
255 200 87
255 200 87
255 200 87
255 200 87
255 200 87
255 200 87
255 200 87
255 200 87
255 200 87
255 200 87
255 200 87
255 200 87
32 42 53
32 42 53
32 42 53
32 42 53
32 42 53
32 42 53
32 42 53
32 42 53
32 42 53
32 42 53
32 42 53
32 42 53
32 42 53
32 42 53
32 42 53
32 42 53
32 42 53
32 42 53
32 42 53
32 42 53
32 42 53
32 42 53
32 42 53
32 42 53
32 42 53
32 42 53
32 42 53
32 42 53
32 42 53
32 42 53
32 42 53
32 42 53
32 42 53
32 42 53
32 42 53
32 42 53
32 42 53
32 42 53
32 42 53
32 42 53
32 42 53
32 42 53
32 42 53
32 42 53
32 42 53
32 42 53
32 42 53
32 42 53
32 42 53
32 42 53
32 42 53
32 42 53
32 42 53
32 42 53
32 42 53
106 124 145
106 124 145
17 24 32
17 24 32
17 24 32
17 24 32
17 24 32
17 24 32
17 24 32
17 24 32
17 24 32
17 24 32
17 24 32
17 24 32
17 24 32
17 24 32
17 24 32
17 24 32
17 24 32
17 24 32
17 24 32
17 24 32
17 24 32
17 24 32
17 24 32
17 24 32
106 124 145
106 124 145
32 42 53
32 42 53
32 42 53
32 42 53
32 42 53
32 42 53
32 42 53
32 42 53
32 42 53
32 42 53
32 42 53
32 42 53
183 210 255
45 124 255
45 124 255
45 124 255
45 124 255
45 124 255
45 124 255
45 124 255
45 124 255
45 124 255
45 124 255
45 124 255
45 124 255
45 124 255
45 124 255
45 124 255
45 124 255
45 124 255
45 124 255
45 124 255
255 255 255
255 255 255
255 255 255
255 255 255
255 255 255
255 255 255
255 255 255
255 255 255
255 255 255
255 255 255
45 124 255
45 124 255
45 124 255
45 124 255
255 255 255
255 255 255
255 255 255
255 255 255
255 255 255
255 255 255
45 124 255
45 124 255
45 124 255
45 124 255
45 124 255
45 124 255
45 124 255
45 124 255
255 255 255
255 255 255
45 124 255
45 124 255
45 124 255
45 124 255
45 124 255
45 124 255
255 255 255
255 255 255
255 255 255
255 255 255
255 255 255
255 255 255
255 255 255
255 255 255
255 255 255
255 255 255
45 124 255
45 124 255
45 124 255
45 124 255
45 124 255
45 124 255
45 124 255
45 124 255
45 124 255
45 124 255
45 124 255
45 124 255
45 124 255
45 124 255
45 124 255
45 124 255
45 124 255
45 124 255
45 124 255
45 124 255
45 124 255
45 124 255
45 124 255
45 124 255
45 124 255
45 124 255
45 124 255
45 124 255
45 124 255
45 124 255
45 124 255
45 124 255
45 124 255
45 124 255
45 124 255
45 124 255
45 124 255
45 124 255
45 124 255
45 124 255
45 124 255
183 210 255
32 42 53
32 42 53
32 42 53
32 42 53
32 42 53
32 42 53
32 42 53
32 42 53
32 42 53
32 42 53
32 42 53
32 42 53
32 42 53
32 42 53
32 42 53
32 42 53
32 42 53
32 42 53
32 42 53
32 42 53
32 42 53
32 42 53
32 42 53
32 42 53
32 42 53
217 255 230
54 200 120
54 200 120
54 200 120
54 200 120
54 200 120
54 200 120
54 200 120
54 200 120
54 200 120
54 200 120
54 200 120
54 200 120
54 200 120
54 200 120
54 200 120
54 200 120
54 200 120
54 200 120
54 200 120
54 200 120
54 200 120
54 200 120
54 200 120
54 200 120
54 200 120
54 200 120
54 200 120
54 200 120
217 255 230
32 42 53
32 42 53
32 42 53
32 42 53
32 42 53
32 42 53
32 42 53
32 42 53
32 42 53
32 42 53
32 42 53
32 42 53
32 42 53
32 42 53
32 42 53
32 42 53
32 42 53
32 42 53
32 42 53
32 42 53
32 42 53
32 42 53
32 42 53
32 42 53
32 42 53
32 42 53
32 42 53
32 42 53
32 42 53
32 42 53
32 42 53
32 42 53
32 42 53
32 42 53
32 42 53
32 42 53
32 42 53
32 42 53
32 42 53
32 42 53
255 200 87
255 200 87
255 200 87
255 200 87
255 200 87
255 200 87
255 200 87
255 200 87
255 200 87
255 200 87
255 200 87
255 200 87
255 200 87
255 200 87
255 200 87
255 200 87
255 200 87
255 200 87
255 200 87
255 200 87
255 200 87
255 200 87
32 42 53
32 42 53
32 42 53
32 42 53
32 42 53
32 42 53
32 42 53
32 42 53
32 42 53
32 42 53
32 42 53
32 42 53
32 42 53
32 42 53
32 42 53
32 42 53
32 42 53
32 42 53
32 42 53
32 42 53
32 42 53
32 42 53
32 42 53
32 42 53
32 42 53
32 42 53
32 42 53
32 42 53
32 42 53
32 42 53
32 42 53
32 42 53
32 42 53
32 42 53
32 42 53
32 42 53
32 42 53
32 42 53
32 42 53
32 42 53
32 42 53
32 42 53
32 42 53
32 42 53
32 42 53
32 42 53
32 42 53
32 42 53
32 42 53
32 42 53
32 42 53
32 42 53
32 42 53
32 42 53
32 42 53
106 124 145
106 124 145
17 24 32
17 24 32
17 24 32
17 24 32
17 24 32
17 24 32
17 24 32
17 24 32
17 24 32
17 24 32
17 24 32
17 24 32
17 24 32
17 24 32
17 24 32
17 24 32
17 24 32
17 24 32
17 24 32
17 24 32
17 24 32
17 24 32
17 24 32
17 24 32
106 124 145
106 124 145
32 42 53
32 42 53
32 42 53
32 42 53
32 42 53
32 42 53
32 42 53
32 42 53
32 42 53
32 42 53
32 42 53
32 42 53
183 210 255
45 124 255
45 124 255
45 124 255
45 124 255
45 124 255
45 124 255
45 124 255
45 124 255
45 124 255
45 124 255
45 124 255
45 124 255
45 124 255
45 124 255
45 124 255
45 124 255
45 124 255
45 124 255
45 124 255
45 124 255
45 124 255
45 124 255
45 124 255
45 124 255
45 124 255
45 124 255
45 124 255
45 124 255
45 124 255
45 124 255
45 124 255
45 124 255
45 124 255
45 124 255
45 124 255
45 124 255
45 124 255
45 124 255
45 124 255
45 124 255
45 124 255
45 124 255
45 124 255
45 124 255
45 124 255
45 124 255
45 124 255
45 124 255
45 124 255
45 124 255
45 124 255
45 124 255
45 124 255
45 124 255
45 124 255
45 124 255
45 124 255
45 124 255
45 124 255
45 124 255
45 124 255
45 124 255
45 124 255
45 124 255
45 124 255
45 124 255
45 124 255
45 124 255
45 124 255
45 124 255
45 124 255
45 124 255
45 124 255
45 124 255
45 124 255
45 124 255
45 124 255
45 124 255
45 124 255
45 124 255
45 124 255
45 124 255
45 124 255
45 124 255
45 124 255
45 124 255
45 124 255
45 124 255
45 124 255
45 124 255
45 124 255
45 124 255
45 124 255
45 124 255
45 124 255
45 124 255
45 124 255
45 124 255
45 124 255
45 124 255
45 124 255
45 124 255
45 124 255
45 124 255
45 124 255
45 124 255
183 210 255
32 42 53
32 42 53
32 42 53
32 42 53
32 42 53
32 42 53
32 42 53
32 42 53
32 42 53
32 42 53
32 42 53
32 42 53
32 42 53
32 42 53
32 42 53
32 42 53
32 42 53
32 42 53
32 42 53
32 42 53
32 42 53
32 42 53
32 42 53
32 42 53
32 42 53
32 42 53
217 255 230
54 200 120
54 200 120
54 200 120
54 200 120
54 200 120
54 200 120
54 200 120
54 200 120
54 200 120
54 200 120
54 200 120
54 200 120
54 200 120
54 200 120
54 200 120
54 200 120
54 200 120
54 200 120
54 200 120
54 200 120
54 200 120
54 200 120
54 200 120
54 200 120
54 200 120
54 200 120
217 255 230
32 42 53
32 42 53
32 42 53
32 42 53
32 42 53
32 42 53
32 42 53
32 42 53
32 42 53
32 42 53
32 42 53
32 42 53
32 42 53
32 42 53
32 42 53
32 42 53
32 42 53
32 42 53
32 42 53
32 42 53
32 42 53
32 42 53
32 42 53
32 42 53
32 42 53
32 42 53
32 42 53
32 42 53
32 42 53
32 42 53
32 42 53
32 42 53
32 42 53
32 42 53
32 42 53
32 42 53
32 42 53
32 42 53
32 42 53
32 42 53
255 200 87
255 200 87
255 200 87
255 200 87
255 200 87
255 200 87
255 200 87
255 200 87
255 200 87
255 200 87
255 200 87
255 200 87
255 200 87
255 200 87
255 200 87
255 200 87
255 200 87
255 200 87
255 200 87
255 200 87
255 200 87
255 200 87
255 200 87
255 200 87
32 42 53
32 42 53
32 42 53
32 42 53
32 42 53
32 42 53
32 42 53
32 42 53
32 42 53
32 42 53
32 42 53
32 42 53
32 42 53
32 42 53
32 42 53
32 42 53
32 42 53
32 42 53
32 42 53
32 42 53
32 42 53
32 42 53
32 42 53
32 42 53
32 42 53
32 42 53
32 42 53
32 42 53
32 42 53
32 42 53
32 42 53
32 42 53
32 42 53
32 42 53
32 42 53
32 42 53
32 42 53
32 42 53
32 42 53
32 42 53
32 42 53
32 42 53
32 42 53
32 42 53
32 42 53
32 42 53
32 42 53
32 42 53
32 42 53
32 42 53
32 42 53
32 42 53
32 42 53
32 42 53
106 124 145
106 124 145
17 24 32
17 24 32
17 24 32
17 24 32
17 24 32
17 24 32
17 24 32
17 24 32
17 24 32
17 24 32
17 24 32
17 24 32
17 24 32
17 24 32
17 24 32
17 24 32
17 24 32
17 24 32
17 24 32
17 24 32
17 24 32
17 24 32
17 24 32
17 24 32
106 124 145
106 124 145
32 42 53
32 42 53
32 42 53
32 42 53
32 42 53
32 42 53
32 42 53
32 42 53
32 42 53
32 42 53
32 42 53
32 42 53
32 42 53
183 210 255
45 124 255
45 124 255
45 124 255
45 124 255
45 124 255
45 124 255
45 124 255
45 124 255
45 124 255
45 124 255
45 124 255
45 124 255
45 124 255
45 124 255
45 124 255
45 124 255
45 124 255
45 124 255
45 124 255
45 124 255
45 124 255
45 124 255
45 124 255
45 124 255
45 124 255
45 124 255
45 124 255
45 124 255
45 124 255
45 124 255
45 124 255
45 124 255
45 124 255
45 124 255
45 124 255
45 124 255
45 124 255
45 124 255
45 124 255
45 124 255
45 124 255
45 124 255
45 124 255
45 124 255
45 124 255
45 124 255
45 124 255
45 124 255
45 124 255
45 124 255
45 124 255
45 124 255
45 124 255
45 124 255
45 124 255
45 124 255
45 124 255
45 124 255
45 124 255
45 124 255
45 124 255
45 124 255
45 124 255
45 124 255
45 124 255
45 124 255
45 124 255
45 124 255
45 124 255
45 124 255
45 124 255
45 124 255
45 124 255
45 124 255
45 124 255
45 124 255
45 124 255
45 124 255
45 124 255
45 124 255
45 124 255
45 124 255
45 124 255
45 124 255
45 124 255
45 124 255
45 124 255
45 124 255
45 124 255
45 124 255
45 124 255
45 124 255
45 124 255
45 124 255
45 124 255
45 124 255
45 124 255
45 124 255
45 124 255
45 124 255
45 124 255
45 124 255
45 124 255
45 124 255
183 210 255
32 42 53
32 42 53
32 42 53
32 42 53
32 42 53
32 42 53
32 42 53
32 42 53
32 42 53
32 42 53
32 42 53
32 42 53
32 42 53
32 42 53
32 42 53
32 42 53
32 42 53
32 42 53
32 42 53
32 42 53
32 42 53
32 42 53
32 42 53
32 42 53
32 42 53
32 42 53
32 42 53
217 255 230
217 255 230
54 200 120
54 200 120
54 200 120
54 200 120
54 200 120
54 200 120
54 200 120
54 200 120
54 200 120
54 200 120
54 200 120
54 200 120
54 200 120
54 200 120
54 200 120
54 200 120
54 200 120
54 200 120
54 200 120
54 200 120
54 200 120
54 200 120
54 200 120
54 200 120
217 255 230
217 255 230
32 42 53
32 42 53
32 42 53
32 42 53
32 42 53
32 42 53
32 42 53
32 42 53
32 42 53
32 42 53
32 42 53
32 42 53
32 42 53
32 42 53
32 42 53
32 42 53
32 42 53
32 42 53
32 42 53
32 42 53
32 42 53
32 42 53
32 42 53
32 42 53
32 42 53
32 42 53
32 42 53
32 42 53
32 42 53
32 42 53
32 42 53
32 42 53
32 42 53
32 42 53
32 42 53
32 42 53
32 42 53
32 42 53
32 42 53
32 42 53
255 200 87
255 200 87
255 200 87
255 200 87
255 200 87
255 200 87
255 200 87
255 200 87
255 200 87
255 200 87
255 200 87
255 200 87
255 200 87
255 200 87
255 200 87
255 200 87
255 200 87
255 200 87
255 200 87
255 200 87
255 200 87
255 200 87
255 200 87
255 200 87
32 42 53
32 42 53
32 42 53
32 42 53
32 42 53
32 42 53
32 42 53
32 42 53
32 42 53
32 42 53
32 42 53
32 42 53
32 42 53
32 42 53
32 42 53
32 42 53
32 42 53
32 42 53
32 42 53
32 42 53
32 42 53
32 42 53
32 42 53
32 42 53
32 42 53
32 42 53
32 42 53
32 42 53
32 42 53
32 42 53
32 42 53
32 42 53
32 42 53
32 42 53
32 42 53
32 42 53
32 42 53
32 42 53
32 42 53
32 42 53
32 42 53
32 42 53
32 42 53
32 42 53
32 42 53
32 42 53
32 42 53
32 42 53
32 42 53
32 42 53
32 42 53
32 42 53
32 42 53
32 42 53
106 124 145
106 124 145
17 24 32
17 24 32
17 24 32
17 24 32
17 24 32
17 24 32
17 24 32
17 24 32
17 24 32
17 24 32
17 24 32
17 24 32
17 24 32
17 24 32
17 24 32
17 24 32
17 24 32
17 24 32
17 24 32
17 24 32
17 24 32
17 24 32
17 24 32
17 24 32
106 124 145
106 124 145
32 42 53
32 42 53
32 42 53
32 42 53
32 42 53
32 42 53
32 42 53
32 42 53
32 42 53
32 42 53
32 42 53
32 42 53
32 42 53
32 42 53
183 210 255
45 124 255
45 124 255
45 124 255
45 124 255
45 124 255
45 124 255
45 124 255
45 124 255
45 124 255
45 124 255
45 124 255
45 124 255
45 124 255
45 124 255
45 124 255
45 124 255
45 124 255
45 124 255
45 124 255
45 124 255
45 124 255
45 124 255
45 124 255
45 124 255
45 124 255
45 124 255
45 124 255
45 124 255
45 124 255
45 124 255
45 124 255
45 124 255
45 124 255
45 124 255
45 124 255
45 124 255
45 124 255
45 124 255
45 124 255
45 124 255
45 124 255
45 124 255
45 124 255
45 124 255
45 124 255
45 124 255
45 124 255
45 124 255
45 124 255
45 124 255
45 124 255
45 124 255
45 124 255
45 124 255
45 124 255
45 124 255
45 124 255
45 124 255
45 124 255
45 124 255
45 124 255
45 124 255
45 124 255
45 124 255
45 124 255
45 124 255
45 124 255
45 124 255
45 124 255
45 124 255
45 124 255
45 124 255
45 124 255
45 124 255
45 124 255
45 124 255
45 124 255
45 124 255
45 124 255
45 124 255
45 124 255
45 124 255
45 124 255
45 124 255
45 124 255
45 124 255
45 124 255
45 124 255
45 124 255
45 124 255
45 124 255
45 124 255
45 124 255
45 124 255
45 124 255
45 124 255
45 124 255
45 124 255
45 124 255
45 124 255
45 124 255
45 124 255
183 210 255
32 42 53
32 42 53
32 42 53
32 42 53
32 42 53
32 42 53
32 42 53
32 42 53
32 42 53
32 42 53
32 42 53
32 42 53
32 42 53
32 42 53
32 42 53
32 42 53
32 42 53
32 42 53
32 42 53
32 42 53
32 42 53
32 42 53
32 42 53
32 42 53
32 42 53
32 42 53
32 42 53
32 42 53
32 42 53
217 255 230
54 200 120
54 200 120
54 200 120
54 200 120
54 200 120
54 200 120
54 200 120
54 200 120
54 200 120
54 200 120
54 200 120
54 200 120
54 200 120
54 200 120
54 200 120
54 200 120
54 200 120
54 200 120
54 200 120
54 200 120
54 200 120
54 200 120
54 200 120
54 200 120
217 255 230
32 42 53
32 42 53
32 42 53
32 42 53
32 42 53
32 42 53
32 42 53
32 42 53
32 42 53
32 42 53
32 42 53
32 42 53
32 42 53
32 42 53
32 42 53
32 42 53
32 42 53
32 42 53
32 42 53
32 42 53
32 42 53
32 42 53
32 42 53
32 42 53
32 42 53
32 42 53
32 42 53
32 42 53
32 42 53
32 42 53
32 42 53
32 42 53
32 42 53
32 42 53
32 42 53
32 42 53
32 42 53
32 42 53
32 42 53
32 42 53
32 42 53
255 200 87
255 200 87
255 200 87
255 200 87
255 200 87
255 200 87
255 200 87
255 200 87
255 200 87
255 200 87
255 200 87
255 200 87
255 200 87
255 200 87
255 200 87
255 200 87
255 200 87
255 200 87
255 200 87
255 200 87
255 200 87
255 200 87
255 200 87
255 200 87
32 42 53
32 42 53
32 42 53
32 42 53
32 42 53
32 42 53
32 42 53
32 42 53
32 42 53
32 42 53
32 42 53
32 42 53
32 42 53
32 42 53
32 42 53
32 42 53
32 42 53
32 42 53
32 42 53
32 42 53
32 42 53
32 42 53
32 42 53
32 42 53
32 42 53
32 42 53
32 42 53
32 42 53
32 42 53
32 42 53
32 42 53
32 42 53
32 42 53
32 42 53
32 42 53
32 42 53
32 42 53
32 42 53
32 42 53
32 42 53
32 42 53
32 42 53
32 42 53
32 42 53
32 42 53
32 42 53
32 42 53
32 42 53
32 42 53
32 42 53
32 42 53
32 42 53
32 42 53
32 42 53
106 124 145
106 124 145
17 24 32
17 24 32
17 24 32
17 24 32
17 24 32
17 24 32
17 24 32
17 24 32
17 24 32
17 24 32
17 24 32
17 24 32
17 24 32
17 24 32
17 24 32
17 24 32
17 24 32
17 24 32
17 24 32
17 24 32
17 24 32
17 24 32
17 24 32
17 24 32
106 124 145
106 124 145
32 42 53
32 42 53
32 42 53
32 42 53
32 42 53
32 42 53
32 42 53
32 42 53
32 42 53
32 42 53
32 42 53
32 42 53
32 42 53
32 42 53
183 210 255
183 210 255
45 124 255
45 124 255
45 124 255
45 124 255
45 124 255
45 124 255
45 124 255
45 124 255
45 124 255
45 124 255
45 124 255
45 124 255
45 124 255
45 124 255
45 124 255
45 124 255
45 124 255
45 124 255
45 124 255
45 124 255
45 124 255
45 124 255
45 124 255
45 124 255
45 124 255
45 124 255
45 124 255
45 124 255
45 124 255
45 124 255
45 124 255
45 124 255
45 124 255
45 124 255
45 124 255
45 124 255
45 124 255
45 124 255
45 124 255
45 124 255
45 124 255
45 124 255
45 124 255
45 124 255
45 124 255
45 124 255
45 124 255
45 124 255
45 124 255
45 124 255
45 124 255
45 124 255
45 124 255
45 124 255
45 124 255
45 124 255
45 124 255
45 124 255
45 124 255
45 124 255
45 124 255
45 124 255
45 124 255
45 124 255
45 124 255
45 124 255
45 124 255
45 124 255
45 124 255
45 124 255
45 124 255
45 124 255
45 124 255
45 124 255
45 124 255
45 124 255
45 124 255
45 124 255
45 124 255
45 124 255
45 124 255
45 124 255
45 124 255
45 124 255
45 124 255
45 124 255
45 124 255
45 124 255
45 124 255
45 124 255
45 124 255
45 124 255
45 124 255
45 124 255
45 124 255
45 124 255
45 124 255
45 124 255
45 124 255
45 124 255
183 210 255
183 210 255
32 42 53
32 42 53
32 42 53
32 42 53
32 42 53
32 42 53
32 42 53
32 42 53
32 42 53
32 42 53
32 42 53
32 42 53
32 42 53
32 42 53
32 42 53
32 42 53
32 42 53
32 42 53
32 42 53
32 42 53
32 42 53
32 42 53
32 42 53
32 42 53
32 42 53
32 42 53
32 42 53
32 42 53
32 42 53
32 42 53
217 255 230
54 200 120
54 200 120
54 200 120
54 200 120
54 200 120
54 200 120
54 200 120
54 200 120
54 200 120
54 200 120
54 200 120
54 200 120
54 200 120
54 200 120
54 200 120
54 200 120
54 200 120
54 200 120
54 200 120
54 200 120
54 200 120
54 200 120
217 255 230
32 42 53
32 42 53
32 42 53
32 42 53
32 42 53
32 42 53
32 42 53
32 42 53
32 42 53
32 42 53
32 42 53
32 42 53
32 42 53
32 42 53
32 42 53
32 42 53
32 42 53
32 42 53
32 42 53
32 42 53
32 42 53
32 42 53
32 42 53
32 42 53
32 42 53
32 42 53
32 42 53
32 42 53
32 42 53
32 42 53
32 42 53
32 42 53
32 42 53
32 42 53
32 42 53
32 42 53
32 42 53
32 42 53
32 42 53
32 42 53
32 42 53
255 200 87
255 200 87
255 200 87
255 200 87
255 200 87
255 200 87
255 200 87
255 200 87
255 200 87
255 200 87
255 200 87
255 200 87
255 200 87
255 200 87
255 200 87
255 200 87
255 200 87
255 200 87
255 200 87
255 200 87
255 200 87
255 200 87
255 200 87
255 200 87
255 200 87
255 200 87
32 42 53
32 42 53
32 42 53
32 42 53
32 42 53
32 42 53
32 42 53
32 42 53
32 42 53
32 42 53
32 42 53
32 42 53
32 42 53
32 42 53
32 42 53
32 42 53
32 42 53
32 42 53
32 42 53
32 42 53
32 42 53
32 42 53
32 42 53
32 42 53
32 42 53
32 42 53
32 42 53
32 42 53
32 42 53
32 42 53
32 42 53
32 42 53
32 42 53
32 42 53
32 42 53
32 42 53
32 42 53
32 42 53
32 42 53
32 42 53
32 42 53
32 42 53
32 42 53
32 42 53
32 42 53
32 42 53
32 42 53
32 42 53
32 42 53
32 42 53
32 42 53
32 42 53
32 42 53
106 124 145
106 124 145
17 24 32
17 24 32
17 24 32
17 24 32
17 24 32
17 24 32
17 24 32
17 24 32
17 24 32
17 24 32
17 24 32
17 24 32
17 24 32
17 24 32
17 24 32
17 24 32
17 24 32
17 24 32
17 24 32
17 24 32
17 24 32
17 24 32
17 24 32
17 24 32
106 124 145
106 124 145
32 42 53
32 42 53
32 42 53
32 42 53
32 42 53
32 42 53
32 42 53
32 42 53
32 42 53
32 42 53
32 42 53
32 42 53
32 42 53
32 42 53
32 42 53
183 210 255
183 210 255
45 124 255
45 124 255
45 124 255
45 124 255
45 124 255
45 124 255
45 124 255
45 124 255
45 124 255
45 124 255
45 124 255
45 124 255
45 124 255
45 124 255
45 124 255
45 124 255
45 124 255
45 124 255
45 124 255
45 124 255
45 124 255
45 124 255
45 124 255
45 124 255
45 124 255
45 124 255
45 124 255
45 124 255
45 124 255
45 124 255
45 124 255
45 124 255
45 124 255
45 124 255
45 124 255
45 124 255
45 124 255
45 124 255
45 124 255
45 124 255
45 124 255
45 124 255
45 124 255
45 124 255
45 124 255
45 124 255
45 124 255
45 124 255
45 124 255
45 124 255
45 124 255
45 124 255
45 124 255
45 124 255
45 124 255
45 124 255
45 124 255
45 124 255
45 124 255
45 124 255
45 124 255
45 124 255
45 124 255
45 124 255
45 124 255
45 124 255
45 124 255
45 124 255
45 124 255
45 124 255
45 124 255
45 124 255
45 124 255
45 124 255
45 124 255
45 124 255
45 124 255
45 124 255
45 124 255
45 124 255
45 124 255
45 124 255
45 124 255
45 124 255
45 124 255
45 124 255
45 124 255
45 124 255
45 124 255
45 124 255
45 124 255
45 124 255
45 124 255
45 124 255
45 124 255
45 124 255
45 124 255
45 124 255
183 210 255
183 210 255
32 42 53
32 42 53
32 42 53
32 42 53
32 42 53
32 42 53
32 42 53
32 42 53
32 42 53
32 42 53
32 42 53
32 42 53
32 42 53
32 42 53
32 42 53
32 42 53
32 42 53
32 42 53
32 42 53
32 42 53
32 42 53
32 42 53
32 42 53
32 42 53
32 42 53
32 42 53
32 42 53
32 42 53
32 42 53
32 42 53
32 42 53
32 42 53
217 255 230
54 200 120
54 200 120
54 200 120
54 200 120
54 200 120
54 200 120
54 200 120
54 200 120
54 200 120
54 200 120
54 200 120
54 200 120
54 200 120
54 200 120
54 200 120
54 200 120
54 200 120
54 200 120
54 200 120
54 200 120
217 255 230
32 42 53
32 42 53
32 42 53
32 42 53
32 42 53
32 42 53
32 42 53
32 42 53
32 42 53
32 42 53
32 42 53
32 42 53
32 42 53
32 42 53
32 42 53
32 42 53
32 42 53
32 42 53
32 42 53
32 42 53
32 42 53
32 42 53
32 42 53
32 42 53
32 42 53
32 42 53
32 42 53
32 42 53
32 42 53
32 42 53
32 42 53
32 42 53
32 42 53
32 42 53
32 42 53
32 42 53
32 42 53
32 42 53
32 42 53
32 42 53
32 42 53
32 42 53
255 200 87
255 200 87
255 200 87
255 200 87
255 200 87
255 200 87
255 200 87
255 200 87
255 200 87
255 200 87
255 200 87
255 200 87
255 200 87
255 200 87
255 200 87
255 200 87
255 200 87
255 200 87
255 200 87
255 200 87
255 200 87
255 200 87
255 200 87
255 200 87
255 200 87
255 200 87
32 42 53
32 42 53
32 42 53
32 42 53
32 42 53
32 42 53
32 42 53
32 42 53
32 42 53
32 42 53
32 42 53
32 42 53
32 42 53
32 42 53
32 42 53
32 42 53
32 42 53
32 42 53
32 42 53
32 42 53
32 42 53
32 42 53
32 42 53
32 42 53
32 42 53
32 42 53
32 42 53
32 42 53
32 42 53
32 42 53
32 42 53
32 42 53
32 42 53
32 42 53
32 42 53
32 42 53
32 42 53
32 42 53
32 42 53
32 42 53
32 42 53
32 42 53
32 42 53
32 42 53
32 42 53
32 42 53
32 42 53
32 42 53
32 42 53
32 42 53
32 42 53
32 42 53
32 42 53
106 124 145
106 124 145
17 24 32
17 24 32
17 24 32
17 24 32
17 24 32
17 24 32
17 24 32
17 24 32
17 24 32
17 24 32
17 24 32
17 24 32
17 24 32
17 24 32
17 24 32
17 24 32
17 24 32
17 24 32
17 24 32
17 24 32
17 24 32
17 24 32
17 24 32
17 24 32
106 124 145
106 124 145
32 42 53
32 42 53
32 42 53
32 42 53
32 42 53
32 42 53
32 42 53
32 42 53
32 42 53
32 42 53
32 42 53
32 42 53
32 42 53
32 42 53
32 42 53
32 42 53
32 42 53
183 210 255
45 124 255
45 124 255
45 124 255
45 124 255
45 124 255
45 124 255
45 124 255
45 124 255
45 124 255
45 124 255
45 124 255
45 124 255
45 124 255
45 124 255
45 124 255
45 124 255
45 124 255
45 124 255
45 124 255
45 124 255
45 124 255
45 124 255
45 124 255
45 124 255
45 124 255
45 124 255
45 124 255
45 124 255
45 124 255
45 124 255
45 124 255
45 124 255
45 124 255
45 124 255
45 124 255
45 124 255
45 124 255
45 124 255
45 124 255
45 124 255
45 124 255
45 124 255
45 124 255
45 124 255
45 124 255
45 124 255
45 124 255
45 124 255
45 124 255
45 124 255
45 124 255
45 124 255
45 124 255
45 124 255
45 124 255
45 124 255
45 124 255
45 124 255
45 124 255
45 124 255
45 124 255
45 124 255
45 124 255
45 124 255
45 124 255
45 124 255
45 124 255
45 124 255
45 124 255
45 124 255
45 124 255
45 124 255
45 124 255
45 124 255
45 124 255
45 124 255
45 124 255
45 124 255
45 124 255
45 124 255
45 124 255
45 124 255
45 124 255
45 124 255
45 124 255
45 124 255
45 124 255
45 124 255
45 124 255
45 124 255
45 124 255
45 124 255
45 124 255
45 124 255
45 124 255
45 124 255
183 210 255
32 42 53
32 42 53
32 42 53
32 42 53
32 42 53
32 42 53
32 42 53
32 42 53
32 42 53
32 42 53
32 42 53
32 42 53
32 42 53
32 42 53
32 42 53
32 42 53
32 42 53
32 42 53
32 42 53
32 42 53
32 42 53
32 42 53
32 42 53
32 42 53
32 42 53
32 42 53
32 42 53
32 42 53
32 42 53
32 42 53
32 42 53
32 42 53
32 42 53
32 42 53
32 42 53
217 255 230
217 255 230
54 200 120
54 200 120
54 200 120
54 200 120
54 200 120
54 200 120
54 200 120
54 200 120
54 200 120
54 200 120
54 200 120
54 200 120
54 200 120
54 200 120
54 200 120
54 200 120
217 255 230
217 255 230
32 42 53
32 42 53
32 42 53
32 42 53
32 42 53
32 42 53
32 42 53
32 42 53
32 42 53
32 42 53
32 42 53
32 42 53
32 42 53
32 42 53
32 42 53
32 42 53
32 42 53
32 42 53
32 42 53
32 42 53
32 42 53
32 42 53
32 42 53
32 42 53
32 42 53
32 42 53
32 42 53
32 42 53
32 42 53
32 42 53
32 42 53
32 42 53
32 42 53
32 42 53
32 42 53
32 42 53
32 42 53
32 42 53
32 42 53
32 42 53
32 42 53
32 42 53
255 200 87
255 200 87
255 200 87
255 200 87
255 200 87
255 200 87
255 200 87
255 200 87
255 200 87
255 200 87
255 200 87
255 200 87
255 200 87
255 200 87
255 200 87
255 200 87
255 200 87
255 200 87
255 200 87
255 200 87
255 200 87
255 200 87
255 200 87
255 200 87
255 200 87
255 200 87
255 200 87
255 200 87
32 42 53
32 42 53
32 42 53
32 42 53
32 42 53
32 42 53
32 42 53
32 42 53
32 42 53
32 42 53
32 42 53
32 42 53
32 42 53
32 42 53
32 42 53
32 42 53
32 42 53
32 42 53
32 42 53
32 42 53
32 42 53
32 42 53
32 42 53
32 42 53
32 42 53
32 42 53
32 42 53
32 42 53
32 42 53
32 42 53
32 42 53
32 42 53
32 42 53
32 42 53
32 42 53
32 42 53
32 42 53
32 42 53
32 42 53
32 42 53
32 42 53
32 42 53
32 42 53
32 42 53
32 42 53
32 42 53
32 42 53
32 42 53
32 42 53
32 42 53
32 42 53
32 42 53
106 124 145
106 124 145
17 24 32
17 24 32
17 24 32
17 24 32
17 24 32
17 24 32
17 24 32
17 24 32
17 24 32
17 24 32
17 24 32
17 24 32
17 24 32
17 24 32
17 24 32
17 24 32
17 24 32
17 24 32
17 24 32
17 24 32
17 24 32
17 24 32
17 24 32
17 24 32
106 124 145
106 124 145
32 42 53
32 42 53
32 42 53
32 42 53
32 42 53
32 42 53
32 42 53
32 42 53
32 42 53
32 42 53
32 42 53
32 42 53
32 42 53
32 42 53
32 42 53
32 42 53
32 42 53
32 42 53
183 210 255
183 210 255
45 124 255
45 124 255
45 124 255
45 124 255
45 124 255
45 124 255
45 124 255
45 124 255
45 124 255
45 124 255
45 124 255
45 124 255
45 124 255
45 124 255
45 124 255
45 124 255
45 124 255
45 124 255
45 124 255
45 124 255
45 124 255
45 124 255
45 124 255
45 124 255
45 124 255
45 124 255
45 124 255
45 124 255
45 124 255
45 124 255
45 124 255
45 124 255
45 124 255
45 124 255
45 124 255
45 124 255
45 124 255
45 124 255
45 124 255
45 124 255
45 124 255
45 124 255
45 124 255
45 124 255
45 124 255
45 124 255
45 124 255
45 124 255
45 124 255
45 124 255
45 124 255
45 124 255
45 124 255
45 124 255
45 124 255
45 124 255
45 124 255
45 124 255
45 124 255
45 124 255
45 124 255
45 124 255
45 124 255
45 124 255
45 124 255
45 124 255
45 124 255
45 124 255
45 124 255
45 124 255
45 124 255
45 124 255
45 124 255
45 124 255
45 124 255
45 124 255
45 124 255
45 124 255
45 124 255
45 124 255
45 124 255
45 124 255
45 124 255
45 124 255
45 124 255
45 124 255
45 124 255
45 124 255
45 124 255
45 124 255
45 124 255
45 124 255
183 210 255
183 210 255
32 42 53
32 42 53
32 42 53
32 42 53
32 42 53
32 42 53
32 42 53
32 42 53
32 42 53
32 42 53
32 42 53
32 42 53
32 42 53
32 42 53
32 42 53
32 42 53
32 42 53
32 42 53
32 42 53
32 42 53
32 42 53
32 42 53
32 42 53
32 42 53
32 42 53
32 42 53
32 42 53
32 42 53
32 42 53
32 42 53
32 42 53
32 42 53
32 42 53
32 42 53
32 42 53
32 42 53
32 42 53
217 255 230
217 255 230
54 200 120
54 200 120
54 200 120
54 200 120
54 200 120
54 200 120
54 200 120
54 200 120
54 200 120
54 200 120
54 200 120
54 200 120
54 200 120
54 200 120
217 255 230
217 255 230
32 42 53
32 42 53
32 42 53
32 42 53
32 42 53
32 42 53
32 42 53
32 42 53
32 42 53
32 42 53
32 42 53
32 42 53
32 42 53
32 42 53
32 42 53
32 42 53
32 42 53
32 42 53
32 42 53
32 42 53
32 42 53
32 42 53
32 42 53
32 42 53
32 42 53
32 42 53
32 42 53
32 42 53
32 42 53
32 42 53
32 42 53
32 42 53
32 42 53
32 42 53
32 42 53
32 42 53
32 42 53
32 42 53
32 42 53
32 42 53
32 42 53
32 42 53
32 42 53
255 200 87
255 200 87
255 200 87
255 200 87
255 200 87
255 200 87
255 200 87
255 200 87
255 200 87
255 200 87
255 200 87
255 200 87
255 200 87
255 200 87
255 200 87
255 200 87
255 200 87
255 200 87
255 200 87
255 200 87
255 200 87
255 200 87
255 200 87
255 200 87
255 200 87
255 200 87
255 200 87
255 200 87
32 42 53
32 42 53
32 42 53
32 42 53
32 42 53
32 42 53
32 42 53
32 42 53
32 42 53
32 42 53
32 42 53
32 42 53
32 42 53
32 42 53
32 42 53
32 42 53
32 42 53
32 42 53
32 42 53
32 42 53
32 42 53
32 42 53
32 42 53
32 42 53
32 42 53
32 42 53
32 42 53
32 42 53
32 42 53
32 42 53
32 42 53
32 42 53
32 42 53
32 42 53
32 42 53
32 42 53
32 42 53
32 42 53
32 42 53
32 42 53
32 42 53
32 42 53
32 42 53
32 42 53
32 42 53
32 42 53
32 42 53
32 42 53
32 42 53
32 42 53
32 42 53
32 42 53
106 124 145
106 124 145
17 24 32
17 24 32
17 24 32
17 24 32
17 24 32
17 24 32
17 24 32
17 24 32
17 24 32
17 24 32
17 24 32
17 24 32
17 24 32
17 24 32
17 24 32
17 24 32
17 24 32
17 24 32
17 24 32
17 24 32
17 24 32
17 24 32
17 24 32
17 24 32
106 124 145
106 124 145
32 42 53
32 42 53
32 42 53
32 42 53
32 42 53
32 42 53
32 42 53
32 42 53
32 42 53
32 42 53
32 42 53
32 42 53
32 42 53
32 42 53
32 42 53
32 42 53
32 42 53
32 42 53
32 42 53
32 42 53
183 210 255
183 210 255
183 210 255
45 124 255
45 124 255
45 124 255
45 124 255
45 124 255
45 124 255
45 124 255
45 124 255
45 124 255
45 124 255
45 124 255
45 124 255
45 124 255
45 124 255
45 124 255
45 124 255
45 124 255
45 124 255
45 124 255
45 124 255
45 124 255
45 124 255
45 124 255
45 124 255
45 124 255
45 124 255
45 124 255
45 124 255
45 124 255
45 124 255
45 124 255
45 124 255
45 124 255
45 124 255
45 124 255
45 124 255
45 124 255
45 124 255
45 124 255
45 124 255
45 124 255
45 124 255
45 124 255
45 124 255
45 124 255
45 124 255
45 124 255
45 124 255
45 124 255
45 124 255
45 124 255
45 124 255
45 124 255
45 124 255
45 124 255
45 124 255
45 124 255
45 124 255
45 124 255
45 124 255
45 124 255
45 124 255
45 124 255
45 124 255
45 124 255
45 124 255
45 124 255
45 124 255
45 124 255
45 124 255
45 124 255
45 124 255
45 124 255
45 124 255
45 124 255
45 124 255
45 124 255
45 124 255
45 124 255
45 124 255
45 124 255
45 124 255
45 124 255
45 124 255
45 124 255
45 124 255
183 210 255
183 210 255
183 210 255
32 42 53
32 42 53
32 42 53
32 42 53
32 42 53
32 42 53
32 42 53
32 42 53
32 42 53
32 42 53
32 42 53
32 42 53
32 42 53
32 42 53
32 42 53
32 42 53
32 42 53
32 42 53
32 42 53
32 42 53
32 42 53
32 42 53
32 42 53
32 42 53
32 42 53
32 42 53
32 42 53
32 42 53
32 42 53
32 42 53
32 42 53
32 42 53
32 42 53
32 42 53
32 42 53
32 42 53
32 42 53
32 42 53
32 42 53
32 42 53
32 42 53
217 255 230
217 255 230
217 255 230
54 200 120
54 200 120
54 200 120
54 200 120
54 200 120
54 200 120
54 200 120
54 200 120
217 255 230
217 255 230
217 255 230
32 42 53
32 42 53
32 42 53
32 42 53
32 42 53
32 42 53
32 42 53
32 42 53
32 42 53
32 42 53
32 42 53
32 42 53
32 42 53
32 42 53
32 42 53
32 42 53
32 42 53
32 42 53
32 42 53
32 42 53
32 42 53
32 42 53
32 42 53
32 42 53
32 42 53
32 42 53
32 42 53
32 42 53
32 42 53
32 42 53
32 42 53
32 42 53
32 42 53
32 42 53
32 42 53
32 42 53
32 42 53
32 42 53
32 42 53
32 42 53
32 42 53
32 42 53
32 42 53
32 42 53
255 200 87
255 200 87
255 200 87
255 200 87
255 200 87
255 200 87
255 200 87
255 200 87
255 200 87
255 200 87
255 200 87
255 200 87
255 200 87
255 200 87
255 200 87
255 200 87
255 200 87
255 200 87
255 200 87
255 200 87
255 200 87
255 200 87
255 200 87
255 200 87
255 200 87
255 200 87
255 200 87
255 200 87
255 200 87
255 200 87
32 42 53
32 42 53
32 42 53
32 42 53
32 42 53
32 42 53
32 42 53
32 42 53
32 42 53
32 42 53
32 42 53
32 42 53
32 42 53
32 42 53
32 42 53
32 42 53
32 42 53
32 42 53
32 42 53
32 42 53
32 42 53
32 42 53
32 42 53
32 42 53
32 42 53
32 42 53
32 42 53
32 42 53
32 42 53
32 42 53
32 42 53
32 42 53
32 42 53
32 42 53
32 42 53
32 42 53
32 42 53
32 42 53
32 42 53
32 42 53
32 42 53
32 42 53
32 42 53
32 42 53
32 42 53
32 42 53
32 42 53
32 42 53
32 42 53
32 42 53
32 42 53
106 124 145
106 124 145
17 24 32
17 24 32
17 24 32
17 24 32
17 24 32
17 24 32
17 24 32
17 24 32
17 24 32
17 24 32
17 24 32
17 24 32
17 24 32
17 24 32
17 24 32
17 24 32
17 24 32
17 24 32
17 24 32
17 24 32
17 24 32
17 24 32
17 24 32
17 24 32
106 124 145
106 124 145
32 42 53
32 42 53
32 42 53
32 42 53
32 42 53
32 42 53
32 42 53
32 42 53
32 42 53
32 42 53
32 42 53
32 42 53
32 42 53
32 42 53
32 42 53
32 42 53
32 42 53
32 42 53
32 42 53
32 42 53
32 42 53
32 42 53
32 42 53
183 210 255
183 210 255
183 210 255
183 210 255
183 210 255
183 210 255
183 210 255
183 210 255
183 210 255
183 210 255
183 210 255
183 210 255
183 210 255
183 210 255
183 210 255
183 210 255
183 210 255
183 210 255
183 210 255
183 210 255
183 210 255
183 210 255
183 210 255
183 210 255
183 210 255
183 210 255
183 210 255
183 210 255
183 210 255
183 210 255
183 210 255
183 210 255
183 210 255
183 210 255
183 210 255
183 210 255
183 210 255
183 210 255
183 210 255
183 210 255
183 210 255
183 210 255
183 210 255
183 210 255
183 210 255
183 210 255
183 210 255
183 210 255
183 210 255
183 210 255
183 210 255
183 210 255
183 210 255
183 210 255
183 210 255
183 210 255
183 210 255
183 210 255
183 210 255
183 210 255
183 210 255
183 210 255
183 210 255
183 210 255
183 210 255
183 210 255
183 210 255
183 210 255
183 210 255
183 210 255
183 210 255
183 210 255
183 210 255
183 210 255
183 210 255
183 210 255
183 210 255
183 210 255
183 210 255
183 210 255
183 210 255
183 210 255
183 210 255
183 210 255
183 210 255
183 210 255
32 42 53
32 42 53
32 42 53
32 42 53
32 42 53
32 42 53
32 42 53
32 42 53
32 42 53
32 42 53
32 42 53
32 42 53
32 42 53
32 42 53
32 42 53
32 42 53
32 42 53
32 42 53
32 42 53
32 42 53
32 42 53
32 42 53
32 42 53
32 42 53
32 42 53
32 42 53
32 42 53
32 42 53
32 42 53
32 42 53
32 42 53
32 42 53
32 42 53
32 42 53
32 42 53
32 42 53
32 42 53
32 42 53
32 42 53
32 42 53
32 42 53
32 42 53
32 42 53
32 42 53
32 42 53
32 42 53
32 42 53
217 255 230
217 255 230
217 255 230
217 255 230
217 255 230
217 255 230
217 255 230
217 255 230
32 42 53
32 42 53
32 42 53
32 42 53
32 42 53
32 42 53
32 42 53
32 42 53
32 42 53
32 42 53
32 42 53
32 42 53
32 42 53
32 42 53
32 42 53
32 42 53
32 42 53
32 42 53
32 42 53
32 42 53
32 42 53
32 42 53
32 42 53
32 42 53
32 42 53
32 42 53
32 42 53
32 42 53
32 42 53
32 42 53
32 42 53
32 42 53
32 42 53
32 42 53
32 42 53
32 42 53
32 42 53
32 42 53
32 42 53
32 42 53
32 42 53
32 42 53
32 42 53
32 42 53
32 42 53
32 42 53
32 42 53
255 200 87
255 200 87
255 200 87
255 200 87
255 200 87
255 200 87
255 200 87
255 200 87
255 200 87
255 200 87
255 200 87
255 200 87
255 200 87
255 200 87
255 200 87
255 200 87
255 200 87
255 200 87
255 200 87
255 200 87
255 200 87
255 200 87
255 200 87
255 200 87
255 200 87
255 200 87
255 200 87
255 200 87
255 200 87
255 200 87
32 42 53
32 42 53
32 42 53
32 42 53
32 42 53
32 42 53
32 42 53
32 42 53
32 42 53
32 42 53
32 42 53
32 42 53
32 42 53
32 42 53
32 42 53
32 42 53
32 42 53
32 42 53
32 42 53
32 42 53
32 42 53
32 42 53
32 42 53
32 42 53
32 42 53
32 42 53
32 42 53
32 42 53
32 42 53
32 42 53
32 42 53
32 42 53
32 42 53
32 42 53
32 42 53
32 42 53
32 42 53
32 42 53
32 42 53
32 42 53
32 42 53
32 42 53
32 42 53
32 42 53
32 42 53
32 42 53
32 42 53
32 42 53
32 42 53
32 42 53
32 42 53
106 124 145
106 124 145
17 24 32
17 24 32
17 24 32
17 24 32
17 24 32
17 24 32
17 24 32
17 24 32
17 24 32
17 24 32
17 24 32
17 24 32
17 24 32
17 24 32
17 24 32
17 24 32
17 24 32
17 24 32
17 24 32
17 24 32
17 24 32
17 24 32
17 24 32
17 24 32
106 124 145
106 124 145
32 42 53
32 42 53
32 42 53
32 42 53
32 42 53
32 42 53
32 42 53
32 42 53
32 42 53
32 42 53
32 42 53
32 42 53
32 42 53
32 42 53
32 42 53
32 42 53
32 42 53
32 42 53
32 42 53
32 42 53
32 42 53
32 42 53
32 42 53
32 42 53
32 42 53
32 42 53
32 42 53
32 42 53
32 42 53
32 42 53
32 42 53
32 42 53
32 42 53
32 42 53
32 42 53
32 42 53
32 42 53
32 42 53
32 42 53
32 42 53
32 42 53
32 42 53
32 42 53
32 42 53
32 42 53
32 42 53
32 42 53
32 42 53
32 42 53
32 42 53
32 42 53
32 42 53
32 42 53
32 42 53
32 42 53
32 42 53
32 42 53
32 42 53
32 42 53
32 42 53
32 42 53
32 42 53
32 42 53
32 42 53
32 42 53
32 42 53
32 42 53
32 42 53
32 42 53
32 42 53
32 42 53
32 42 53
32 42 53
32 42 53
32 42 53
32 42 53
32 42 53
32 42 53
32 42 53
32 42 53
32 42 53
32 42 53
32 42 53
32 42 53
32 42 53
32 42 53
32 42 53
32 42 53
32 42 53
32 42 53
32 42 53
32 42 53
32 42 53
32 42 53
32 42 53
32 42 53
32 42 53
32 42 53
32 42 53
32 42 53
32 42 53
32 42 53
32 42 53
32 42 53
32 42 53
32 42 53
32 42 53
32 42 53
32 42 53
32 42 53
32 42 53
32 42 53
32 42 53
32 42 53
32 42 53
32 42 53
32 42 53
32 42 53
32 42 53
32 42 53
32 42 53
32 42 53
32 42 53
32 42 53
32 42 53
32 42 53
32 42 53
32 42 53
32 42 53
32 42 53
32 42 53
32 42 53
32 42 53
32 42 53
32 42 53
32 42 53
32 42 53
32 42 53
32 42 53
32 42 53
32 42 53
32 42 53
32 42 53
32 42 53
32 42 53
32 42 53
32 42 53
32 42 53
32 42 53
32 42 53
32 42 53
32 42 53
32 42 53
32 42 53
32 42 53
32 42 53
32 42 53
32 42 53
32 42 53
32 42 53
32 42 53
32 42 53
32 42 53
32 42 53
32 42 53
32 42 53
32 42 53
32 42 53
32 42 53
32 42 53
32 42 53
32 42 53
32 42 53
32 42 53
32 42 53
32 42 53
32 42 53
32 42 53
32 42 53
32 42 53
32 42 53
32 42 53
32 42 53
32 42 53
32 42 53
32 42 53
32 42 53
32 42 53
32 42 53
32 42 53
32 42 53
32 42 53
32 42 53
32 42 53
32 42 53
32 42 53
32 42 53
32 42 53
32 42 53
32 42 53
32 42 53
32 42 53
32 42 53
32 42 53
32 42 53
32 42 53
32 42 53
32 42 53
32 42 53
32 42 53
255 200 87
255 200 87
255 200 87
255 200 87
255 200 87
255 200 87
255 200 87
255 200 87
255 200 87
255 200 87
255 200 87
255 200 87
255 200 87
255 200 87
255 200 87
255 200 87
255 200 87
255 200 87
255 200 87
255 200 87
255 200 87
255 200 87
255 200 87
255 200 87
255 200 87
255 200 87
255 200 87
255 200 87
255 200 87
255 200 87
255 200 87
255 200 87
32 42 53
32 42 53
32 42 53
32 42 53
32 42 53
32 42 53
32 42 53
32 42 53
32 42 53
32 42 53
32 42 53
32 42 53
32 42 53
32 42 53
32 42 53
32 42 53
32 42 53
32 42 53
32 42 53
32 42 53
32 42 53
32 42 53
32 42 53
32 42 53
32 42 53
32 42 53
32 42 53
32 42 53
32 42 53
32 42 53
32 42 53
32 42 53
32 42 53
32 42 53
32 42 53
32 42 53
32 42 53
32 42 53
32 42 53
32 42 53
32 42 53
32 42 53
32 42 53
32 42 53
32 42 53
32 42 53
32 42 53
32 42 53
32 42 53
32 42 53
106 124 145
106 124 145
17 24 32
17 24 32
17 24 32
17 24 32
17 24 32
17 24 32
17 24 32
17 24 32
17 24 32
17 24 32
17 24 32
17 24 32
17 24 32
17 24 32
17 24 32
17 24 32
17 24 32
17 24 32
17 24 32
17 24 32
17 24 32
17 24 32
17 24 32
17 24 32
106 124 145
106 124 145
32 42 53
32 42 53
32 42 53
32 42 53
32 42 53
32 42 53
32 42 53
32 42 53
32 42 53
32 42 53
32 42 53
32 42 53
32 42 53
32 42 53
32 42 53
32 42 53
32 42 53
32 42 53
32 42 53
32 42 53
32 42 53
32 42 53
32 42 53
32 42 53
32 42 53
32 42 53
32 42 53
32 42 53
32 42 53
32 42 53
32 42 53
32 42 53
32 42 53
32 42 53
32 42 53
32 42 53
32 42 53
32 42 53
32 42 53
32 42 53
32 42 53
32 42 53
32 42 53
32 42 53
32 42 53
32 42 53
32 42 53
32 42 53
32 42 53
32 42 53
32 42 53
32 42 53
32 42 53
32 42 53
32 42 53
32 42 53
32 42 53
32 42 53
32 42 53
32 42 53
32 42 53
32 42 53
32 42 53
32 42 53
32 42 53
32 42 53
32 42 53
32 42 53
32 42 53
32 42 53
32 42 53
32 42 53
32 42 53
32 42 53
32 42 53
32 42 53
32 42 53
32 42 53
32 42 53
32 42 53
32 42 53
32 42 53
32 42 53
32 42 53
32 42 53
32 42 53
32 42 53
32 42 53
32 42 53
32 42 53
32 42 53
32 42 53
32 42 53
32 42 53
32 42 53
32 42 53
32 42 53
32 42 53
32 42 53
32 42 53
32 42 53
32 42 53
32 42 53
32 42 53
32 42 53
32 42 53
32 42 53
32 42 53
32 42 53
32 42 53
32 42 53
32 42 53
32 42 53
32 42 53
32 42 53
32 42 53
32 42 53
32 42 53
32 42 53
32 42 53
32 42 53
32 42 53
32 42 53
32 42 53
32 42 53
32 42 53
32 42 53
32 42 53
32 42 53
32 42 53
32 42 53
32 42 53
32 42 53
32 42 53
32 42 53
32 42 53
32 42 53
32 42 53
32 42 53
32 42 53
32 42 53
32 42 53
32 42 53
32 42 53
32 42 53
32 42 53
32 42 53
32 42 53
32 42 53
32 42 53
32 42 53
32 42 53
32 42 53
32 42 53
32 42 53
32 42 53
32 42 53
32 42 53
32 42 53
32 42 53
32 42 53
32 42 53
32 42 53
32 42 53
32 42 53
32 42 53
32 42 53
32 42 53
32 42 53
32 42 53
32 42 53
32 42 53
32 42 53
32 42 53
32 42 53
32 42 53
32 42 53
32 42 53
32 42 53
32 42 53
32 42 53
32 42 53
32 42 53
32 42 53
32 42 53
32 42 53
32 42 53
32 42 53
32 42 53
32 42 53
32 42 53
32 42 53
32 42 53
32 42 53
32 42 53
32 42 53
32 42 53
32 42 53
32 42 53
32 42 53
32 42 53
32 42 53
32 42 53
32 42 53
32 42 53
32 42 53
32 42 53
32 42 53
32 42 53
32 42 53
32 42 53
32 42 53
32 42 53
32 42 53
32 42 53
32 42 53
32 42 53
32 42 53
32 42 53
32 42 53
32 42 53
32 42 53
32 42 53
32 42 53
32 42 53
32 42 53
32 42 53
32 42 53
32 42 53
32 42 53
32 42 53
32 42 53
32 42 53
32 42 53
32 42 53
32 42 53
32 42 53
32 42 53
32 42 53
32 42 53
32 42 53
32 42 53
32 42 53
32 42 53
32 42 53
32 42 53
32 42 53
32 42 53
32 42 53
32 42 53
32 42 53
32 42 53
32 42 53
32 42 53
32 42 53
32 42 53
32 42 53
32 42 53
32 42 53
32 42 53
32 42 53
32 42 53
32 42 53
32 42 53
32 42 53
32 42 53
32 42 53
32 42 53
32 42 53
32 42 53
32 42 53
32 42 53
32 42 53
32 42 53
32 42 53
32 42 53
32 42 53
32 42 53
32 42 53
32 42 53
32 42 53
32 42 53
32 42 53
32 42 53
32 42 53
32 42 53
32 42 53
32 42 53
32 42 53
32 42 53
32 42 53
32 42 53
106 124 145
106 124 145
17 24 32
17 24 32
17 24 32
17 24 32
17 24 32
17 24 32
17 24 32
17 24 32
17 24 32
17 24 32
17 24 32
17 24 32
17 24 32
17 24 32
17 24 32
17 24 32
17 24 32
17 24 32
17 24 32
17 24 32
17 24 32
17 24 32
17 24 32
17 24 32
106 124 145
106 124 145
32 42 53
32 42 53
32 42 53
32 42 53
32 42 53
32 42 53
32 42 53
32 42 53
32 42 53
32 42 53
32 42 53
32 42 53
32 42 53
32 42 53
32 42 53
32 42 53
32 42 53
32 42 53
32 42 53
32 42 53
32 42 53
32 42 53
32 42 53
32 42 53
32 42 53
32 42 53
32 42 53
32 42 53
32 42 53
32 42 53
32 42 53
32 42 53
32 42 53
32 42 53
32 42 53
32 42 53
32 42 53
32 42 53
32 42 53
32 42 53
32 42 53
32 42 53
32 42 53
32 42 53
32 42 53
32 42 53
32 42 53
32 42 53
32 42 53
32 42 53
32 42 53
32 42 53
32 42 53
32 42 53
32 42 53
32 42 53
32 42 53
32 42 53
32 42 53
32 42 53
32 42 53
32 42 53
32 42 53
32 42 53
32 42 53
32 42 53
32 42 53
32 42 53
32 42 53
32 42 53
32 42 53
32 42 53
32 42 53
32 42 53
32 42 53
32 42 53
32 42 53
32 42 53
32 42 53
32 42 53
32 42 53
32 42 53
32 42 53
32 42 53
32 42 53
32 42 53
32 42 53
32 42 53
32 42 53
32 42 53
32 42 53
32 42 53
32 42 53
32 42 53
32 42 53
32 42 53
32 42 53
32 42 53
32 42 53
32 42 53
32 42 53
32 42 53
32 42 53
32 42 53
32 42 53
32 42 53
32 42 53
32 42 53
32 42 53
32 42 53
32 42 53
32 42 53
32 42 53
32 42 53
32 42 53
32 42 53
32 42 53
32 42 53
32 42 53
32 42 53
32 42 53
32 42 53
32 42 53
32 42 53
32 42 53
32 42 53
32 42 53
32 42 53
32 42 53
32 42 53
32 42 53
32 42 53
32 42 53
32 42 53
32 42 53
32 42 53
32 42 53
32 42 53
32 42 53
32 42 53
32 42 53
32 42 53
32 42 53
32 42 53
32 42 53
32 42 53
32 42 53
32 42 53
32 42 53
32 42 53
32 42 53
32 42 53
32 42 53
32 42 53
32 42 53
32 42 53
32 42 53
32 42 53
32 42 53
32 42 53
32 42 53
32 42 53
32 42 53
32 42 53
32 42 53
32 42 53
32 42 53
32 42 53
32 42 53
32 42 53
32 42 53
32 42 53
32 42 53
32 42 53
32 42 53
32 42 53
32 42 53
32 42 53
32 42 53
32 42 53
32 42 53
32 42 53
32 42 53
32 42 53
32 42 53
32 42 53
32 42 53
32 42 53
32 42 53
32 42 53
32 42 53
32 42 53
32 42 53
32 42 53
32 42 53
32 42 53
32 42 53
32 42 53
32 42 53
32 42 53
32 42 53
32 42 53
32 42 53
32 42 53
32 42 53
32 42 53
32 42 53
32 42 53
32 42 53
32 42 53
32 42 53
32 42 53
32 42 53
32 42 53
32 42 53
32 42 53
32 42 53
32 42 53
32 42 53
32 42 53
32 42 53
32 42 53
32 42 53
32 42 53
32 42 53
32 42 53
32 42 53
32 42 53
32 42 53
32 42 53
32 42 53
32 42 53
32 42 53
32 42 53
32 42 53
32 42 53
32 42 53
32 42 53
32 42 53
32 42 53
32 42 53
32 42 53
32 42 53
32 42 53
32 42 53
32 42 53
32 42 53
32 42 53
32 42 53
32 42 53
32 42 53
32 42 53
32 42 53
32 42 53
32 42 53
32 42 53
32 42 53
32 42 53
32 42 53
32 42 53
32 42 53
32 42 53
32 42 53
32 42 53
32 42 53
32 42 53
32 42 53
32 42 53
32 42 53
32 42 53
32 42 53
32 42 53
32 42 53
32 42 53
32 42 53
32 42 53
32 42 53
32 42 53
32 42 53
32 42 53
32 42 53
32 42 53
32 42 53
32 42 53
32 42 53
32 42 53
32 42 53
32 42 53
32 42 53
32 42 53
32 42 53
32 42 53
106 124 145
106 124 145
17 24 32
17 24 32
17 24 32
17 24 32
17 24 32
17 24 32
17 24 32
17 24 32
17 24 32
17 24 32
17 24 32
17 24 32
17 24 32
17 24 32
17 24 32
17 24 32
17 24 32
17 24 32
17 24 32
17 24 32
17 24 32
17 24 32
17 24 32
17 24 32
106 124 145
106 124 145
32 42 53
32 42 53
32 42 53
32 42 53
32 42 53
32 42 53
32 42 53
32 42 53
32 42 53
32 42 53
32 42 53
32 42 53
32 42 53
32 42 53
32 42 53
32 42 53
32 42 53
32 42 53
32 42 53
32 42 53
32 42 53
32 42 53
32 42 53
32 42 53
32 42 53
32 42 53
32 42 53
32 42 53
32 42 53
32 42 53
32 42 53
32 42 53
32 42 53
32 42 53
32 42 53
32 42 53
32 42 53
32 42 53
32 42 53
32 42 53
32 42 53
32 42 53
32 42 53
32 42 53
32 42 53
32 42 53
32 42 53
32 42 53
32 42 53
32 42 53
32 42 53
32 42 53
32 42 53
32 42 53
32 42 53
32 42 53
32 42 53
32 42 53
32 42 53
32 42 53
32 42 53
32 42 53
32 42 53
32 42 53
32 42 53
32 42 53
32 42 53
32 42 53
32 42 53
32 42 53
32 42 53
32 42 53
32 42 53
32 42 53
32 42 53
32 42 53
32 42 53
32 42 53
32 42 53
32 42 53
32 42 53
32 42 53
32 42 53
32 42 53
32 42 53
32 42 53
32 42 53
32 42 53
32 42 53
32 42 53
32 42 53
32 42 53
32 42 53
32 42 53
32 42 53
32 42 53
32 42 53
32 42 53
32 42 53
32 42 53
32 42 53
32 42 53
32 42 53
32 42 53
32 42 53
32 42 53
32 42 53
32 42 53
32 42 53
32 42 53
32 42 53
32 42 53
32 42 53
32 42 53
32 42 53
32 42 53
32 42 53
32 42 53
32 42 53
32 42 53
32 42 53
32 42 53
32 42 53
32 42 53
32 42 53
32 42 53
32 42 53
32 42 53
32 42 53
32 42 53
32 42 53
32 42 53
32 42 53
32 42 53
32 42 53
32 42 53
32 42 53
32 42 53
32 42 53
32 42 53
32 42 53
32 42 53
32 42 53
32 42 53
32 42 53
32 42 53
32 42 53
32 42 53
32 42 53
32 42 53
32 42 53
32 42 53
32 42 53
32 42 53
32 42 53
32 42 53
32 42 53
32 42 53
32 42 53
32 42 53
32 42 53
32 42 53
32 42 53
32 42 53
32 42 53
32 42 53
32 42 53
32 42 53
32 42 53
32 42 53
32 42 53
32 42 53
32 42 53
32 42 53
32 42 53
32 42 53
32 42 53
32 42 53
32 42 53
32 42 53
32 42 53
32 42 53
32 42 53
32 42 53
32 42 53
32 42 53
32 42 53
32 42 53
32 42 53
32 42 53
32 42 53
32 42 53
32 42 53
32 42 53
32 42 53
32 42 53
32 42 53
32 42 53
32 42 53
32 42 53
32 42 53
32 42 53
32 42 53
32 42 53
32 42 53
32 42 53
32 42 53
32 42 53
32 42 53
32 42 53
32 42 53
32 42 53
32 42 53
32 42 53
32 42 53
32 42 53
32 42 53
32 42 53
32 42 53
32 42 53
32 42 53
32 42 53
32 42 53
32 42 53
32 42 53
32 42 53
32 42 53
32 42 53
32 42 53
32 42 53
32 42 53
32 42 53
32 42 53
32 42 53
32 42 53
32 42 53
32 42 53
32 42 53
32 42 53
32 42 53
32 42 53
32 42 53
32 42 53
32 42 53
32 42 53
32 42 53
32 42 53
32 42 53
32 42 53
32 42 53
32 42 53
32 42 53
32 42 53
32 42 53
32 42 53
32 42 53
32 42 53
32 42 53
32 42 53
32 42 53
32 42 53
32 42 53
32 42 53
32 42 53
32 42 53
32 42 53
32 42 53
32 42 53
32 42 53
32 42 53
32 42 53
32 42 53
32 42 53
32 42 53
32 42 53
32 42 53
32 42 53
32 42 53
32 42 53
32 42 53
32 42 53
32 42 53
32 42 53
32 42 53
32 42 53
32 42 53
32 42 53
32 42 53
32 42 53
32 42 53
32 42 53
32 42 53
106 124 145
106 124 145
17 24 32
17 24 32
17 24 32
17 24 32
17 24 32
17 24 32
17 24 32
17 24 32
17 24 32
17 24 32
17 24 32
17 24 32
17 24 32
17 24 32
17 24 32
17 24 32
17 24 32
17 24 32
17 24 32
17 24 32
17 24 32
17 24 32
17 24 32
17 24 32
106 124 145
106 124 145
32 42 53
32 42 53
32 42 53
32 42 53
32 42 53
32 42 53
32 42 53
32 42 53
32 42 53
32 42 53
32 42 53
32 42 53
32 42 53
32 42 53
32 42 53
32 42 53
32 42 53
32 42 53
32 42 53
32 42 53
32 42 53
32 42 53
32 42 53
32 42 53
32 42 53
32 42 53
32 42 53
32 42 53
32 42 53
32 42 53
32 42 53
32 42 53
32 42 53
32 42 53
32 42 53
32 42 53
32 42 53
32 42 53
32 42 53
32 42 53
32 42 53
32 42 53
32 42 53
32 42 53
32 42 53
32 42 53
32 42 53
32 42 53
32 42 53
32 42 53
32 42 53
32 42 53
32 42 53
32 42 53
32 42 53
32 42 53
32 42 53
32 42 53
32 42 53
32 42 53
32 42 53
32 42 53
32 42 53
32 42 53
32 42 53
32 42 53
32 42 53
32 42 53
32 42 53
32 42 53
32 42 53
32 42 53
32 42 53
32 42 53
32 42 53
32 42 53
32 42 53
32 42 53
32 42 53
32 42 53
32 42 53
32 42 53
32 42 53
32 42 53
32 42 53
32 42 53
32 42 53
32 42 53
32 42 53
32 42 53
32 42 53
32 42 53
32 42 53
32 42 53
32 42 53
32 42 53
32 42 53
32 42 53
32 42 53
32 42 53
32 42 53
32 42 53
32 42 53
32 42 53
32 42 53
32 42 53
32 42 53
32 42 53
32 42 53
32 42 53
32 42 53
32 42 53
32 42 53
32 42 53
32 42 53
32 42 53
32 42 53
32 42 53
32 42 53
32 42 53
32 42 53
32 42 53
32 42 53
32 42 53
32 42 53
32 42 53
32 42 53
32 42 53
32 42 53
32 42 53
32 42 53
32 42 53
32 42 53
32 42 53
32 42 53
32 42 53
32 42 53
32 42 53
32 42 53
32 42 53
32 42 53
32 42 53
32 42 53
32 42 53
32 42 53
32 42 53
32 42 53
32 42 53
32 42 53
32 42 53
32 42 53
32 42 53
32 42 53
32 42 53
32 42 53
32 42 53
32 42 53
32 42 53
32 42 53
32 42 53
32 42 53
32 42 53
32 42 53
32 42 53
32 42 53
32 42 53
32 42 53
32 42 53
32 42 53
32 42 53
32 42 53
32 42 53
32 42 53
32 42 53
32 42 53
32 42 53
32 42 53
32 42 53
32 42 53
32 42 53
32 42 53
32 42 53
32 42 53
32 42 53
32 42 53
32 42 53
32 42 53
32 42 53
32 42 53
32 42 53
32 42 53
32 42 53
32 42 53
32 42 53
32 42 53
32 42 53
32 42 53
32 42 53
32 42 53
32 42 53
32 42 53
32 42 53
32 42 53
32 42 53
32 42 53
32 42 53
32 42 53
32 42 53
32 42 53
32 42 53
32 42 53
32 42 53
32 42 53
32 42 53
32 42 53
32 42 53
32 42 53
32 42 53
32 42 53
32 42 53
32 42 53
32 42 53
32 42 53
32 42 53
32 42 53
32 42 53
32 42 53
32 42 53
32 42 53
32 42 53
32 42 53
32 42 53
32 42 53
32 42 53
32 42 53
32 42 53
32 42 53
32 42 53
32 42 53
32 42 53
32 42 53
32 42 53
32 42 53
32 42 53
32 42 53
32 42 53
32 42 53
32 42 53
32 42 53
32 42 53
32 42 53
32 42 53
32 42 53
32 42 53
32 42 53
32 42 53
32 42 53
32 42 53
32 42 53
32 42 53
32 42 53
32 42 53
32 42 53
32 42 53
32 42 53
32 42 53
32 42 53
32 42 53
32 42 53
32 42 53
32 42 53
32 42 53
32 42 53
32 42 53
32 42 53
32 42 53
32 42 53
32 42 53
32 42 53
32 42 53
32 42 53
32 42 53
32 42 53
32 42 53
32 42 53
32 42 53
32 42 53
32 42 53
32 42 53
32 42 53
32 42 53
32 42 53
106 124 145
106 124 145
17 24 32
17 24 32
17 24 32
17 24 32
17 24 32
17 24 32
17 24 32
17 24 32
17 24 32
17 24 32
17 24 32
17 24 32
17 24 32
17 24 32
17 24 32
17 24 32
17 24 32
17 24 32
17 24 32
17 24 32
17 24 32
17 24 32
17 24 32
17 24 32
106 124 145
106 124 145
32 42 53
32 42 53
32 42 53
32 42 53
32 42 53
32 42 53
32 42 53
32 42 53
32 42 53
32 42 53
32 42 53
32 42 53
32 42 53
32 42 53
32 42 53
32 42 53
32 42 53
32 42 53
32 42 53
32 42 53
32 42 53
32 42 53
32 42 53
32 42 53
32 42 53
32 42 53
32 42 53
32 42 53
32 42 53
32 42 53
32 42 53
32 42 53
32 42 53
32 42 53
32 42 53
32 42 53
32 42 53
32 42 53
32 42 53
32 42 53
32 42 53
32 42 53
32 42 53
32 42 53
32 42 53
32 42 53
32 42 53
32 42 53
32 42 53
32 42 53
32 42 53
32 42 53
32 42 53
32 42 53
32 42 53
32 42 53
32 42 53
32 42 53
32 42 53
32 42 53
32 42 53
32 42 53
32 42 53
32 42 53
32 42 53
32 42 53
32 42 53
32 42 53
32 42 53
32 42 53
32 42 53
32 42 53
32 42 53
32 42 53
32 42 53
32 42 53
32 42 53
32 42 53
32 42 53
32 42 53
32 42 53
32 42 53
32 42 53
32 42 53
32 42 53
32 42 53
32 42 53
32 42 53
32 42 53
32 42 53
32 42 53
32 42 53
32 42 53
32 42 53
32 42 53
32 42 53
32 42 53
32 42 53
32 42 53
32 42 53
32 42 53
32 42 53
32 42 53
32 42 53
32 42 53
32 42 53
32 42 53
32 42 53
32 42 53
32 42 53
32 42 53
32 42 53
32 42 53
32 42 53
32 42 53
32 42 53
32 42 53
32 42 53
32 42 53
32 42 53
32 42 53
32 42 53
32 42 53
32 42 53
32 42 53
32 42 53
32 42 53
32 42 53
32 42 53
32 42 53
32 42 53
32 42 53
32 42 53
32 42 53
32 42 53
32 42 53
32 42 53
32 42 53
32 42 53
32 42 53
32 42 53
32 42 53
32 42 53
32 42 53
32 42 53
32 42 53
32 42 53
32 42 53
32 42 53
32 42 53
32 42 53
32 42 53
32 42 53
32 42 53
32 42 53
32 42 53
32 42 53
32 42 53
32 42 53
32 42 53
32 42 53
32 42 53
32 42 53
32 42 53
32 42 53
32 42 53
32 42 53
32 42 53
32 42 53
32 42 53
32 42 53
32 42 53
32 42 53
32 42 53
32 42 53
32 42 53
32 42 53
32 42 53
32 42 53
32 42 53
32 42 53
32 42 53
32 42 53
32 42 53
32 42 53
32 42 53
32 42 53
32 42 53
32 42 53
32 42 53
32 42 53
32 42 53
32 42 53
32 42 53
32 42 53
32 42 53
32 42 53
32 42 53
32 42 53
32 42 53
32 42 53
32 42 53
32 42 53
32 42 53
32 42 53
32 42 53
32 42 53
32 42 53
32 42 53
32 42 53
32 42 53
32 42 53
32 42 53
32 42 53
32 42 53
32 42 53
32 42 53
32 42 53
32 42 53
32 42 53
32 42 53
32 42 53
32 42 53
32 42 53
32 42 53
32 42 53
32 42 53
32 42 53
32 42 53
32 42 53
32 42 53
32 42 53
32 42 53
32 42 53
32 42 53
32 42 53
32 42 53
32 42 53
32 42 53
32 42 53
32 42 53
32 42 53
32 42 53
32 42 53
32 42 53
32 42 53
32 42 53
32 42 53
32 42 53
32 42 53
32 42 53
32 42 53
32 42 53
32 42 53
32 42 53
32 42 53
32 42 53
32 42 53
32 42 53
32 42 53
32 42 53
32 42 53
32 42 53
32 42 53
32 42 53
32 42 53
32 42 53
32 42 53
32 42 53
32 42 53
32 42 53
32 42 53
32 42 53
32 42 53
32 42 53
32 42 53
32 42 53
32 42 53
32 42 53
32 42 53
32 42 53
32 42 53
32 42 53
32 42 53
32 42 53
32 42 53
32 42 53
32 42 53
32 42 53
32 42 53
32 42 53
32 42 53
106 124 145
106 124 145
17 24 32
17 24 32
17 24 32
17 24 32
17 24 32
17 24 32
17 24 32
17 24 32
17 24 32
17 24 32
17 24 32
17 24 32
17 24 32
17 24 32
17 24 32
17 24 32
17 24 32
17 24 32
17 24 32
17 24 32
17 24 32
17 24 32
17 24 32
17 24 32
106 124 145
106 124 145
32 42 53
32 42 53
32 42 53
32 42 53
32 42 53
32 42 53
32 42 53
32 42 53
32 42 53
32 42 53
32 42 53
32 42 53
32 42 53
32 42 53
32 42 53
32 42 53
32 42 53
32 42 53
32 42 53
32 42 53
32 42 53
32 42 53
32 42 53
32 42 53
32 42 53
32 42 53
32 42 53
32 42 53
32 42 53
32 42 53
32 42 53
32 42 53
32 42 53
32 42 53
32 42 53
32 42 53
32 42 53
32 42 53
32 42 53
32 42 53
32 42 53
32 42 53
32 42 53
32 42 53
32 42 53
32 42 53
32 42 53
32 42 53
32 42 53
32 42 53
32 42 53
32 42 53
32 42 53
32 42 53
32 42 53
32 42 53
32 42 53
32 42 53
32 42 53
32 42 53
32 42 53
32 42 53
32 42 53
32 42 53
32 42 53
32 42 53
32 42 53
32 42 53
32 42 53
32 42 53
32 42 53
32 42 53
32 42 53
32 42 53
32 42 53
32 42 53
32 42 53
32 42 53
32 42 53
32 42 53
32 42 53
32 42 53
32 42 53
32 42 53
32 42 53
32 42 53
32 42 53
32 42 53
32 42 53
32 42 53
32 42 53
32 42 53
32 42 53
32 42 53
32 42 53
32 42 53
32 42 53
32 42 53
32 42 53
32 42 53
32 42 53
32 42 53
32 42 53
32 42 53
32 42 53
32 42 53
32 42 53
32 42 53
32 42 53
32 42 53
32 42 53
32 42 53
32 42 53
32 42 53
32 42 53
32 42 53
32 42 53
32 42 53
32 42 53
32 42 53
32 42 53
32 42 53
32 42 53
32 42 53
32 42 53
32 42 53
32 42 53
32 42 53
32 42 53
32 42 53
32 42 53
32 42 53
32 42 53
32 42 53
32 42 53
32 42 53
32 42 53
32 42 53
32 42 53
32 42 53
32 42 53
32 42 53
32 42 53
32 42 53
32 42 53
32 42 53
32 42 53
32 42 53
32 42 53
32 42 53
32 42 53
32 42 53
32 42 53
32 42 53
32 42 53
32 42 53
32 42 53
32 42 53
32 42 53
32 42 53
32 42 53
32 42 53
32 42 53
32 42 53
32 42 53
32 42 53
32 42 53
32 42 53
32 42 53
32 42 53
32 42 53
32 42 53
32 42 53
32 42 53
32 42 53
32 42 53
32 42 53
32 42 53
32 42 53
32 42 53
32 42 53
32 42 53
32 42 53
32 42 53
32 42 53
32 42 53
32 42 53
32 42 53
32 42 53
32 42 53
32 42 53
32 42 53
32 42 53
32 42 53
32 42 53
32 42 53
32 42 53
32 42 53
32 42 53
32 42 53
32 42 53
32 42 53
32 42 53
32 42 53
32 42 53
32 42 53
32 42 53
32 42 53
32 42 53
32 42 53
32 42 53
32 42 53
32 42 53
32 42 53
32 42 53
32 42 53
32 42 53
32 42 53
32 42 53
32 42 53
32 42 53
32 42 53
32 42 53
32 42 53
32 42 53
32 42 53
32 42 53
32 42 53
32 42 53
32 42 53
32 42 53
32 42 53
32 42 53
32 42 53
32 42 53
32 42 53
32 42 53
32 42 53
32 42 53
32 42 53
32 42 53
32 42 53
32 42 53
32 42 53
32 42 53
32 42 53
32 42 53
32 42 53
32 42 53
32 42 53
32 42 53
32 42 53
32 42 53
32 42 53
32 42 53
32 42 53
32 42 53
32 42 53
32 42 53
32 42 53
32 42 53
32 42 53
32 42 53
32 42 53
32 42 53
32 42 53
32 42 53
32 42 53
32 42 53
32 42 53
32 42 53
32 42 53
32 42 53
32 42 53
32 42 53
32 42 53
32 42 53
32 42 53
32 42 53
32 42 53
32 42 53
32 42 53
32 42 53
32 42 53
32 42 53
32 42 53
32 42 53
32 42 53
32 42 53
32 42 53
32 42 53
32 42 53
106 124 145
106 124 145
17 24 32
17 24 32
17 24 32
17 24 32
17 24 32
17 24 32
17 24 32
17 24 32
17 24 32
17 24 32
17 24 32
17 24 32
17 24 32
17 24 32
17 24 32
17 24 32
17 24 32
17 24 32
17 24 32
17 24 32
17 24 32
17 24 32
17 24 32
17 24 32
106 124 145
106 124 145
32 42 53
32 42 53
32 42 53
32 42 53
32 42 53
32 42 53
32 42 53
32 42 53
32 42 53
32 42 53
32 42 53
32 42 53
32 42 53
32 42 53
32 42 53
32 42 53
32 42 53
32 42 53
32 42 53
32 42 53
32 42 53
32 42 53
32 42 53
32 42 53
32 42 53
32 42 53
32 42 53
32 42 53
32 42 53
32 42 53
32 42 53
32 42 53
32 42 53
32 42 53
32 42 53
32 42 53
32 42 53
32 42 53
32 42 53
32 42 53
32 42 53
32 42 53
32 42 53
32 42 53
32 42 53
32 42 53
32 42 53
32 42 53
32 42 53
32 42 53
32 42 53
32 42 53
32 42 53
32 42 53
32 42 53
32 42 53
32 42 53
32 42 53
32 42 53
32 42 53
32 42 53
32 42 53
32 42 53
32 42 53
32 42 53
32 42 53
32 42 53
32 42 53
32 42 53
32 42 53
32 42 53
32 42 53
32 42 53
32 42 53
32 42 53
32 42 53
32 42 53
32 42 53
32 42 53
32 42 53
32 42 53
32 42 53
32 42 53
32 42 53
32 42 53
32 42 53
32 42 53
32 42 53
32 42 53
32 42 53
32 42 53
32 42 53
32 42 53
32 42 53
32 42 53
32 42 53
32 42 53
32 42 53
32 42 53
32 42 53
32 42 53
32 42 53
32 42 53
32 42 53
32 42 53
32 42 53
32 42 53
32 42 53
32 42 53
32 42 53
32 42 53
32 42 53
32 42 53
32 42 53
32 42 53
32 42 53
32 42 53
32 42 53
32 42 53
32 42 53
32 42 53
32 42 53
32 42 53
32 42 53
32 42 53
32 42 53
32 42 53
32 42 53
32 42 53
32 42 53
32 42 53
32 42 53
32 42 53
32 42 53
32 42 53
32 42 53
32 42 53
32 42 53
32 42 53
32 42 53
32 42 53
32 42 53
32 42 53
32 42 53
32 42 53
32 42 53
32 42 53
32 42 53
32 42 53
32 42 53
32 42 53
32 42 53
32 42 53
32 42 53
32 42 53
32 42 53
32 42 53
32 42 53
32 42 53
32 42 53
32 42 53
32 42 53
32 42 53
32 42 53
32 42 53
32 42 53
32 42 53
32 42 53
32 42 53
32 42 53
32 42 53
32 42 53
32 42 53
32 42 53
32 42 53
32 42 53
32 42 53
32 42 53
32 42 53
32 42 53
32 42 53
32 42 53
32 42 53
32 42 53
32 42 53
32 42 53
32 42 53
32 42 53
32 42 53
32 42 53
32 42 53
32 42 53
32 42 53
32 42 53
32 42 53
32 42 53
32 42 53
32 42 53
32 42 53
32 42 53
32 42 53
32 42 53
32 42 53
32 42 53
32 42 53
32 42 53
32 42 53
32 42 53
32 42 53
32 42 53
32 42 53
32 42 53
32 42 53
32 42 53
32 42 53
32 42 53
32 42 53
32 42 53
32 42 53
32 42 53
32 42 53
32 42 53
32 42 53
32 42 53
32 42 53
32 42 53
32 42 53
32 42 53
32 42 53
32 42 53
32 42 53
32 42 53
32 42 53
32 42 53
32 42 53
32 42 53
32 42 53
32 42 53
32 42 53
32 42 53
32 42 53
32 42 53
32 42 53
32 42 53
32 42 53
32 42 53
32 42 53
32 42 53
32 42 53
32 42 53
32 42 53
32 42 53
32 42 53
32 42 53
32 42 53
32 42 53
32 42 53
32 42 53
32 42 53
32 42 53
32 42 53
32 42 53
32 42 53
32 42 53
32 42 53
32 42 53
32 42 53
32 42 53
32 42 53
32 42 53
32 42 53
32 42 53
32 42 53
32 42 53
32 42 53
32 42 53
32 42 53
32 42 53
32 42 53
32 42 53
32 42 53
32 42 53
32 42 53
32 42 53
32 42 53
32 42 53
32 42 53
32 42 53
32 42 53
32 42 53
32 42 53
32 42 53
106 124 145
106 124 145
17 24 32
17 24 32
17 24 32
17 24 32
17 24 32
17 24 32
17 24 32
17 24 32
17 24 32
17 24 32
17 24 32
17 24 32
17 24 32
17 24 32
17 24 32
17 24 32
17 24 32
17 24 32
17 24 32
17 24 32
17 24 32
17 24 32
17 24 32
17 24 32
106 124 145
106 124 145
32 42 53
32 42 53
32 42 53
32 42 53
32 42 53
32 42 53
32 42 53
32 42 53
32 42 53
32 42 53
32 42 53
32 42 53
32 42 53
32 42 53
32 42 53
32 42 53
32 42 53
32 42 53
32 42 53
32 42 53
32 42 53
32 42 53
32 42 53
32 42 53
32 42 53
32 42 53
32 42 53
32 42 53
32 42 53
32 42 53
32 42 53
32 42 53
32 42 53
32 42 53
32 42 53
32 42 53
32 42 53
32 42 53
32 42 53
32 42 53
32 42 53
32 42 53
32 42 53
32 42 53
32 42 53
32 42 53
32 42 53
32 42 53
32 42 53
32 42 53
32 42 53
32 42 53
32 42 53
32 42 53
32 42 53
32 42 53
32 42 53
32 42 53
32 42 53
32 42 53
32 42 53
32 42 53
32 42 53
32 42 53
32 42 53
32 42 53
32 42 53
32 42 53
32 42 53
32 42 53
32 42 53
32 42 53
32 42 53
32 42 53
32 42 53
32 42 53
32 42 53
32 42 53
32 42 53
32 42 53
32 42 53
32 42 53
32 42 53
32 42 53
32 42 53
32 42 53
32 42 53
32 42 53
32 42 53
32 42 53
32 42 53
32 42 53
32 42 53
32 42 53
32 42 53
32 42 53
32 42 53
32 42 53
32 42 53
32 42 53
32 42 53
32 42 53
32 42 53
32 42 53
32 42 53
32 42 53
32 42 53
32 42 53
32 42 53
32 42 53
32 42 53
32 42 53
32 42 53
32 42 53
32 42 53
32 42 53
32 42 53
32 42 53
32 42 53
32 42 53
32 42 53
32 42 53
32 42 53
32 42 53
32 42 53
32 42 53
32 42 53
32 42 53
32 42 53
32 42 53
32 42 53
32 42 53
32 42 53
32 42 53
32 42 53
32 42 53
32 42 53
32 42 53
32 42 53
32 42 53
32 42 53
32 42 53
32 42 53
32 42 53
32 42 53
32 42 53
32 42 53
32 42 53
32 42 53
32 42 53
32 42 53
32 42 53
32 42 53
32 42 53
32 42 53
32 42 53
32 42 53
32 42 53
32 42 53
32 42 53
32 42 53
32 42 53
32 42 53
32 42 53
32 42 53
32 42 53
32 42 53
32 42 53
32 42 53
32 42 53
32 42 53
32 42 53
32 42 53
32 42 53
32 42 53
32 42 53
32 42 53
32 42 53
32 42 53
32 42 53
32 42 53
32 42 53
32 42 53
32 42 53
32 42 53
32 42 53
32 42 53
32 42 53
32 42 53
32 42 53
32 42 53
32 42 53
32 42 53
32 42 53
32 42 53
32 42 53
32 42 53
32 42 53
32 42 53
32 42 53
32 42 53
32 42 53
32 42 53
32 42 53
32 42 53
32 42 53
32 42 53
32 42 53
32 42 53
32 42 53
32 42 53
32 42 53
32 42 53
32 42 53
32 42 53
32 42 53
32 42 53
32 42 53
32 42 53
32 42 53
32 42 53
32 42 53
32 42 53
32 42 53
32 42 53
32 42 53
32 42 53
32 42 53
32 42 53
32 42 53
32 42 53
32 42 53
32 42 53
32 42 53
32 42 53
32 42 53
32 42 53
32 42 53
32 42 53
32 42 53
32 42 53
32 42 53
32 42 53
32 42 53
32 42 53
32 42 53
32 42 53
32 42 53
32 42 53
32 42 53
32 42 53
32 42 53
32 42 53
32 42 53
32 42 53
32 42 53
32 42 53
32 42 53
32 42 53
32 42 53
32 42 53
32 42 53
32 42 53
32 42 53
32 42 53
32 42 53
32 42 53
32 42 53
32 42 53
32 42 53
32 42 53
32 42 53
32 42 53
32 42 53
32 42 53
32 42 53
32 42 53
32 42 53
32 42 53
32 42 53
32 42 53
32 42 53
32 42 53
32 42 53
32 42 53
32 42 53
32 42 53
32 42 53
32 42 53
32 42 53
32 42 53
32 42 53
106 124 145
106 124 145
17 24 32
17 24 32
17 24 32
17 24 32
17 24 32
17 24 32
17 24 32
17 24 32
17 24 32
17 24 32
17 24 32
17 24 32
17 24 32
17 24 32
17 24 32
17 24 32
17 24 32
17 24 32
17 24 32
17 24 32
17 24 32
17 24 32
17 24 32
17 24 32
106 124 145
106 124 145
32 42 53
32 42 53
32 42 53
32 42 53
32 42 53
32 42 53
32 42 53
32 42 53
32 42 53
32 42 53
32 42 53
32 42 53
32 42 53
32 42 53
32 42 53
32 42 53
32 42 53
32 42 53
32 42 53
32 42 53
32 42 53
32 42 53
32 42 53
32 42 53
32 42 53
32 42 53
32 42 53
32 42 53
32 42 53
32 42 53
32 42 53
32 42 53
32 42 53
32 42 53
32 42 53
32 42 53
32 42 53
32 42 53
32 42 53
32 42 53
32 42 53
32 42 53
32 42 53
32 42 53
32 42 53
32 42 53
32 42 53
32 42 53
32 42 53
32 42 53
32 42 53
32 42 53
32 42 53
32 42 53
32 42 53
32 42 53
32 42 53
32 42 53
32 42 53
32 42 53
32 42 53
32 42 53
32 42 53
32 42 53
32 42 53
32 42 53
32 42 53
32 42 53
32 42 53
32 42 53
32 42 53
32 42 53
32 42 53
32 42 53
32 42 53
32 42 53
32 42 53
32 42 53
32 42 53
32 42 53
32 42 53
32 42 53
32 42 53
32 42 53
32 42 53
32 42 53
32 42 53
32 42 53
32 42 53
32 42 53
32 42 53
32 42 53
32 42 53
32 42 53
32 42 53
32 42 53
32 42 53
32 42 53
32 42 53
32 42 53
32 42 53
32 42 53
32 42 53
32 42 53
32 42 53
32 42 53
32 42 53
32 42 53
32 42 53
32 42 53
32 42 53
32 42 53
32 42 53
32 42 53
32 42 53
32 42 53
32 42 53
32 42 53
32 42 53
32 42 53
32 42 53
32 42 53
32 42 53
32 42 53
32 42 53
32 42 53
32 42 53
32 42 53
32 42 53
32 42 53
32 42 53
32 42 53
32 42 53
32 42 53
32 42 53
32 42 53
32 42 53
32 42 53
32 42 53
32 42 53
32 42 53
32 42 53
32 42 53
32 42 53
32 42 53
32 42 53
32 42 53
32 42 53
32 42 53
32 42 53
32 42 53
32 42 53
32 42 53
32 42 53
32 42 53
32 42 53
32 42 53
32 42 53
32 42 53
32 42 53
32 42 53
32 42 53
32 42 53
32 42 53
32 42 53
32 42 53
32 42 53
32 42 53
32 42 53
32 42 53
32 42 53
32 42 53
32 42 53
32 42 53
32 42 53
32 42 53
32 42 53
32 42 53
32 42 53
32 42 53
32 42 53
32 42 53
32 42 53
32 42 53
32 42 53
32 42 53
32 42 53
32 42 53
32 42 53
32 42 53
32 42 53
32 42 53
32 42 53
32 42 53
32 42 53
32 42 53
32 42 53
32 42 53
32 42 53
32 42 53
32 42 53
32 42 53
32 42 53
32 42 53
32 42 53
32 42 53
32 42 53
32 42 53
32 42 53
32 42 53
32 42 53
32 42 53
32 42 53
32 42 53
32 42 53
32 42 53
32 42 53
32 42 53
32 42 53
32 42 53
32 42 53
32 42 53
32 42 53
32 42 53
32 42 53
32 42 53
32 42 53
32 42 53
32 42 53
32 42 53
32 42 53
32 42 53
32 42 53
32 42 53
32 42 53
32 42 53
32 42 53
32 42 53
32 42 53
32 42 53
32 42 53
32 42 53
32 42 53
32 42 53
32 42 53
32 42 53
32 42 53
32 42 53
32 42 53
32 42 53
32 42 53
32 42 53
32 42 53
32 42 53
32 42 53
32 42 53
32 42 53
32 42 53
32 42 53
32 42 53
32 42 53
32 42 53
32 42 53
32 42 53
32 42 53
32 42 53
32 42 53
32 42 53
32 42 53
32 42 53
32 42 53
32 42 53
32 42 53
32 42 53
32 42 53
32 42 53
32 42 53
32 42 53
32 42 53
32 42 53
32 42 53
32 42 53
32 42 53
32 42 53
32 42 53
32 42 53
32 42 53
32 42 53
32 42 53
32 42 53
32 42 53
32 42 53
106 124 145
106 124 145
17 24 32
17 24 32
17 24 32
17 24 32
17 24 32
17 24 32
17 24 32
17 24 32
17 24 32
17 24 32
17 24 32
17 24 32
17 24 32
17 24 32
17 24 32
17 24 32
17 24 32
17 24 32
17 24 32
17 24 32
17 24 32
17 24 32
17 24 32
17 24 32
106 124 145
106 124 145
32 42 53
32 42 53
32 42 53
32 42 53
32 42 53
32 42 53
32 42 53
32 42 53
32 42 53
32 42 53
32 42 53
32 42 53
32 42 53
32 42 53
32 42 53
32 42 53
32 42 53
32 42 53
32 42 53
32 42 53
32 42 53
32 42 53
32 42 53
32 42 53
32 42 53
32 42 53
32 42 53
32 42 53
32 42 53
32 42 53
32 42 53
32 42 53
32 42 53
32 42 53
32 42 53
32 42 53
32 42 53
32 42 53
32 42 53
32 42 53
32 42 53
32 42 53
32 42 53
32 42 53
32 42 53
32 42 53
32 42 53
32 42 53
32 42 53
32 42 53
32 42 53
32 42 53
32 42 53
32 42 53
32 42 53
32 42 53
32 42 53
32 42 53
32 42 53
32 42 53
32 42 53
32 42 53
32 42 53
32 42 53
32 42 53
32 42 53
32 42 53
32 42 53
32 42 53
32 42 53
32 42 53
32 42 53
32 42 53
32 42 53
32 42 53
32 42 53
32 42 53
32 42 53
32 42 53
32 42 53
32 42 53
32 42 53
32 42 53
32 42 53
32 42 53
32 42 53
32 42 53
32 42 53
32 42 53
32 42 53
32 42 53
32 42 53
32 42 53
32 42 53
32 42 53
32 42 53
32 42 53
32 42 53
32 42 53
32 42 53
32 42 53
32 42 53
32 42 53
32 42 53
32 42 53
32 42 53
32 42 53
32 42 53
32 42 53
32 42 53
32 42 53
32 42 53
32 42 53
32 42 53
32 42 53
32 42 53
32 42 53
32 42 53
32 42 53
32 42 53
32 42 53
32 42 53
32 42 53
32 42 53
32 42 53
32 42 53
32 42 53
32 42 53
32 42 53
32 42 53
32 42 53
32 42 53
32 42 53
32 42 53
32 42 53
32 42 53
32 42 53
32 42 53
32 42 53
32 42 53
32 42 53
32 42 53
32 42 53
32 42 53
32 42 53
32 42 53
32 42 53
32 42 53
32 42 53
32 42 53
32 42 53
32 42 53
32 42 53
32 42 53
32 42 53
32 42 53
32 42 53
32 42 53
32 42 53
32 42 53
32 42 53
32 42 53
32 42 53
32 42 53
32 42 53
32 42 53
32 42 53
32 42 53
32 42 53
32 42 53
32 42 53
32 42 53
32 42 53
32 42 53
32 42 53
32 42 53
32 42 53
32 42 53
32 42 53
32 42 53
32 42 53
32 42 53
32 42 53
32 42 53
32 42 53
32 42 53
32 42 53
32 42 53
32 42 53
32 42 53
32 42 53
32 42 53
32 42 53
32 42 53
32 42 53
32 42 53
32 42 53
32 42 53
32 42 53
32 42 53
32 42 53
32 42 53
32 42 53
32 42 53
32 42 53
32 42 53
32 42 53
32 42 53
32 42 53
32 42 53
32 42 53
32 42 53
32 42 53
32 42 53
32 42 53
32 42 53
32 42 53
32 42 53
32 42 53
32 42 53
32 42 53
32 42 53
32 42 53
32 42 53
32 42 53
32 42 53
32 42 53
32 42 53
32 42 53
32 42 53
32 42 53
32 42 53
32 42 53
32 42 53
32 42 53
32 42 53
32 42 53
32 42 53
32 42 53
32 42 53
32 42 53
32 42 53
32 42 53
32 42 53
32 42 53
32 42 53
32 42 53
32 42 53
32 42 53
32 42 53
32 42 53
32 42 53
32 42 53
32 42 53
32 42 53
32 42 53
32 42 53
32 42 53
32 42 53
32 42 53
32 42 53
32 42 53
32 42 53
32 42 53
32 42 53
32 42 53
32 42 53
32 42 53
32 42 53
32 42 53
32 42 53
32 42 53
32 42 53
32 42 53
32 42 53
32 42 53
32 42 53
32 42 53
32 42 53
32 42 53
32 42 53
32 42 53
32 42 53
32 42 53
32 42 53
32 42 53
32 42 53
32 42 53
32 42 53
32 42 53
32 42 53
32 42 53
106 124 145
106 124 145
17 24 32
17 24 32
17 24 32
17 24 32
17 24 32
17 24 32
17 24 32
17 24 32
17 24 32
17 24 32
17 24 32
17 24 32
17 24 32
17 24 32
17 24 32
17 24 32
17 24 32
17 24 32
17 24 32
17 24 32
17 24 32
17 24 32
17 24 32
17 24 32
106 124 145
106 124 145
32 42 53
32 42 53
32 42 53
32 42 53
32 42 53
32 42 53
32 42 53
32 42 53
32 42 53
32 42 53
32 42 53
32 42 53
32 42 53
32 42 53
32 42 53
32 42 53
32 42 53
32 42 53
32 42 53
32 42 53
32 42 53
32 42 53
32 42 53
32 42 53
32 42 53
32 42 53
32 42 53
32 42 53
32 42 53
32 42 53
32 42 53
32 42 53
32 42 53
32 42 53
32 42 53
32 42 53
32 42 53
32 42 53
32 42 53
32 42 53
32 42 53
32 42 53
32 42 53
32 42 53
32 42 53
32 42 53
32 42 53
32 42 53
32 42 53
32 42 53
32 42 53
32 42 53
32 42 53
32 42 53
32 42 53
32 42 53
32 42 53
32 42 53
32 42 53
32 42 53
32 42 53
32 42 53
32 42 53
32 42 53
32 42 53
32 42 53
32 42 53
32 42 53
32 42 53
32 42 53
32 42 53
32 42 53
32 42 53
32 42 53
32 42 53
32 42 53
32 42 53
32 42 53
32 42 53
32 42 53
32 42 53
32 42 53
32 42 53
32 42 53
32 42 53
32 42 53
32 42 53
32 42 53
32 42 53
32 42 53
32 42 53
32 42 53
32 42 53
32 42 53
32 42 53
32 42 53
32 42 53
32 42 53
32 42 53
32 42 53
32 42 53
32 42 53
32 42 53
32 42 53
32 42 53
32 42 53
32 42 53
32 42 53
32 42 53
32 42 53
32 42 53
32 42 53
32 42 53
32 42 53
32 42 53
32 42 53
32 42 53
32 42 53
32 42 53
32 42 53
32 42 53
32 42 53
32 42 53
32 42 53
32 42 53
32 42 53
32 42 53
32 42 53
32 42 53
32 42 53
32 42 53
32 42 53
32 42 53
32 42 53
32 42 53
32 42 53
32 42 53
32 42 53
32 42 53
32 42 53
32 42 53
32 42 53
32 42 53
32 42 53
32 42 53
32 42 53
32 42 53
32 42 53
32 42 53
32 42 53
32 42 53
32 42 53
32 42 53
32 42 53
32 42 53
32 42 53
32 42 53
32 42 53
32 42 53
32 42 53
32 42 53
32 42 53
32 42 53
32 42 53
32 42 53
32 42 53
32 42 53
32 42 53
32 42 53
32 42 53
32 42 53
32 42 53
32 42 53
32 42 53
32 42 53
32 42 53
32 42 53
32 42 53
32 42 53
32 42 53
32 42 53
32 42 53
32 42 53
32 42 53
32 42 53
32 42 53
32 42 53
32 42 53
32 42 53
32 42 53
32 42 53
32 42 53
32 42 53
32 42 53
32 42 53
32 42 53
32 42 53
32 42 53
32 42 53
32 42 53
32 42 53
32 42 53
32 42 53
32 42 53
32 42 53
32 42 53
32 42 53
32 42 53
32 42 53
32 42 53
32 42 53
32 42 53
32 42 53
32 42 53
32 42 53
32 42 53
32 42 53
32 42 53
32 42 53
32 42 53
32 42 53
32 42 53
32 42 53
32 42 53
32 42 53
32 42 53
32 42 53
32 42 53
32 42 53
32 42 53
32 42 53
32 42 53
32 42 53
32 42 53
32 42 53
32 42 53
32 42 53
32 42 53
32 42 53
32 42 53
32 42 53
32 42 53
32 42 53
32 42 53
32 42 53
32 42 53
32 42 53
32 42 53
32 42 53
32 42 53
32 42 53
32 42 53
32 42 53
32 42 53
32 42 53
32 42 53
32 42 53
32 42 53
32 42 53
32 42 53
32 42 53
32 42 53
32 42 53
32 42 53
32 42 53
32 42 53
32 42 53
32 42 53
32 42 53
32 42 53
32 42 53
32 42 53
32 42 53
32 42 53
32 42 53
32 42 53
32 42 53
32 42 53
32 42 53
32 42 53
32 42 53
32 42 53
32 42 53
32 42 53
32 42 53
32 42 53
32 42 53
32 42 53
32 42 53
32 42 53
32 42 53
32 42 53
106 124 145
106 124 145
17 24 32
17 24 32
17 24 32
17 24 32
17 24 32
17 24 32
17 24 32
17 24 32
17 24 32
17 24 32
17 24 32
17 24 32
17 24 32
17 24 32
17 24 32
17 24 32
17 24 32
17 24 32
17 24 32
17 24 32
17 24 32
17 24 32
17 24 32
17 24 32
106 124 145
106 124 145
32 42 53
32 42 53
32 42 53
32 42 53
32 42 53
32 42 53
32 42 53
32 42 53
32 42 53
32 42 53
32 42 53
32 42 53
32 42 53
32 42 53
32 42 53
32 42 53
32 42 53
32 42 53
32 42 53
32 42 53
32 42 53
32 42 53
32 42 53
32 42 53
32 42 53
32 42 53
32 42 53
32 42 53
32 42 53
32 42 53
32 42 53
32 42 53
32 42 53
32 42 53
32 42 53
32 42 53
32 42 53
32 42 53
32 42 53
32 42 53
32 42 53
32 42 53
32 42 53
32 42 53
32 42 53
32 42 53
32 42 53
32 42 53
32 42 53
32 42 53
32 42 53
32 42 53
32 42 53
32 42 53
32 42 53
32 42 53
32 42 53
32 42 53
32 42 53
32 42 53
32 42 53
32 42 53
32 42 53
32 42 53
32 42 53
32 42 53
32 42 53
32 42 53
32 42 53
32 42 53
32 42 53
32 42 53
32 42 53
32 42 53
32 42 53
32 42 53
32 42 53
32 42 53
32 42 53
32 42 53
32 42 53
32 42 53
32 42 53
32 42 53
32 42 53
32 42 53
32 42 53
32 42 53
32 42 53
32 42 53
32 42 53
32 42 53
32 42 53
32 42 53
32 42 53
32 42 53
32 42 53
32 42 53
32 42 53
32 42 53
32 42 53
32 42 53
32 42 53
32 42 53
32 42 53
32 42 53
32 42 53
32 42 53
32 42 53
32 42 53
32 42 53
32 42 53
32 42 53
32 42 53
32 42 53
32 42 53
32 42 53
32 42 53
32 42 53
32 42 53
32 42 53
32 42 53
32 42 53
32 42 53
32 42 53
32 42 53
32 42 53
32 42 53
32 42 53
32 42 53
32 42 53
32 42 53
32 42 53
32 42 53
32 42 53
32 42 53
32 42 53
32 42 53
32 42 53
32 42 53
32 42 53
32 42 53
32 42 53
32 42 53
32 42 53
32 42 53
32 42 53
32 42 53
32 42 53
32 42 53
32 42 53
32 42 53
32 42 53
32 42 53
32 42 53
32 42 53
32 42 53
32 42 53
32 42 53
32 42 53
32 42 53
32 42 53
32 42 53
32 42 53
32 42 53
32 42 53
32 42 53
32 42 53
32 42 53
32 42 53
32 42 53
32 42 53
32 42 53
32 42 53
32 42 53
32 42 53
32 42 53
32 42 53
32 42 53
32 42 53
32 42 53
32 42 53
32 42 53
32 42 53
32 42 53
32 42 53
32 42 53
32 42 53
32 42 53
32 42 53
32 42 53
32 42 53
32 42 53
32 42 53
32 42 53
32 42 53
32 42 53
32 42 53
32 42 53
32 42 53
32 42 53
32 42 53
32 42 53
32 42 53
32 42 53
32 42 53
32 42 53
32 42 53
32 42 53
32 42 53
32 42 53
32 42 53
32 42 53
32 42 53
32 42 53
32 42 53
32 42 53
32 42 53
32 42 53
32 42 53
32 42 53
32 42 53
32 42 53
32 42 53
32 42 53
32 42 53
32 42 53
32 42 53
32 42 53
32 42 53
32 42 53
32 42 53
32 42 53
32 42 53
32 42 53
32 42 53
32 42 53
32 42 53
32 42 53
32 42 53
32 42 53
32 42 53
32 42 53
32 42 53
32 42 53
32 42 53
32 42 53
32 42 53
32 42 53
32 42 53
32 42 53
32 42 53
32 42 53
32 42 53
32 42 53
32 42 53
32 42 53
32 42 53
32 42 53
32 42 53
32 42 53
32 42 53
32 42 53
32 42 53
32 42 53
32 42 53
32 42 53
32 42 53
32 42 53
32 42 53
32 42 53
32 42 53
32 42 53
32 42 53
32 42 53
32 42 53
32 42 53
32 42 53
32 42 53
32 42 53
32 42 53
32 42 53
32 42 53
32 42 53
32 42 53
32 42 53
32 42 53
32 42 53
32 42 53
32 42 53
32 42 53
32 42 53
106 124 145
106 124 145
17 24 32
17 24 32
17 24 32
17 24 32
17 24 32
17 24 32
17 24 32
17 24 32
17 24 32
17 24 32
17 24 32
17 24 32
17 24 32
17 24 32
17 24 32
17 24 32
17 24 32
17 24 32
17 24 32
17 24 32
17 24 32
17 24 32
17 24 32
17 24 32
106 124 145
106 124 145
32 42 53
32 42 53
32 42 53
32 42 53
32 42 53
32 42 53
32 42 53
32 42 53
32 42 53
32 42 53
32 42 53
32 42 53
32 42 53
32 42 53
32 42 53
32 42 53
32 42 53
32 42 53
32 42 53
32 42 53
32 42 53
32 42 53
32 42 53
32 42 53
32 42 53
32 42 53
32 42 53
32 42 53
32 42 53
32 42 53
32 42 53
32 42 53
32 42 53
32 42 53
32 42 53
32 42 53
32 42 53
32 42 53
32 42 53
32 42 53
32 42 53
32 42 53
32 42 53
32 42 53
32 42 53
32 42 53
32 42 53
32 42 53
32 42 53
32 42 53
32 42 53
32 42 53
32 42 53
32 42 53
32 42 53
32 42 53
32 42 53
32 42 53
32 42 53
32 42 53
32 42 53
32 42 53
32 42 53
32 42 53
32 42 53
32 42 53
32 42 53
32 42 53
32 42 53
32 42 53
32 42 53
32 42 53
32 42 53
32 42 53
32 42 53
32 42 53
32 42 53
32 42 53
32 42 53
32 42 53
32 42 53
32 42 53
32 42 53
32 42 53
32 42 53
32 42 53
32 42 53
32 42 53
32 42 53
32 42 53
32 42 53
32 42 53
32 42 53
32 42 53
32 42 53
32 42 53
32 42 53
32 42 53
32 42 53
32 42 53
32 42 53
32 42 53
32 42 53
32 42 53
32 42 53
32 42 53
32 42 53
32 42 53
32 42 53
32 42 53
32 42 53
32 42 53
32 42 53
32 42 53
32 42 53
32 42 53
32 42 53
32 42 53
32 42 53
32 42 53
32 42 53
32 42 53
32 42 53
32 42 53
32 42 53
32 42 53
32 42 53
32 42 53
32 42 53
32 42 53
32 42 53
32 42 53
32 42 53
32 42 53
32 42 53
32 42 53
32 42 53
32 42 53
32 42 53
32 42 53
32 42 53
32 42 53
32 42 53
32 42 53
32 42 53
32 42 53
32 42 53
32 42 53
32 42 53
32 42 53
32 42 53
32 42 53
32 42 53
32 42 53
32 42 53
32 42 53
32 42 53
32 42 53
32 42 53
32 42 53
32 42 53
32 42 53
32 42 53
32 42 53
32 42 53
32 42 53
32 42 53
32 42 53
32 42 53
32 42 53
32 42 53
32 42 53
32 42 53
32 42 53
32 42 53
32 42 53
32 42 53
32 42 53
32 42 53
32 42 53
32 42 53
32 42 53
32 42 53
32 42 53
32 42 53
32 42 53
32 42 53
32 42 53
32 42 53
32 42 53
32 42 53
32 42 53
32 42 53
32 42 53
32 42 53
32 42 53
32 42 53
32 42 53
32 42 53
32 42 53
32 42 53
32 42 53
32 42 53
32 42 53
32 42 53
32 42 53
32 42 53
32 42 53
32 42 53
32 42 53
32 42 53
32 42 53
32 42 53
32 42 53
32 42 53
32 42 53
32 42 53
32 42 53
32 42 53
32 42 53
32 42 53
32 42 53
32 42 53
32 42 53
32 42 53
32 42 53
32 42 53
32 42 53
32 42 53
32 42 53
32 42 53
32 42 53
32 42 53
32 42 53
32 42 53
32 42 53
32 42 53
32 42 53
32 42 53
32 42 53
32 42 53
32 42 53
32 42 53
32 42 53
32 42 53
32 42 53
32 42 53
32 42 53
32 42 53
32 42 53
32 42 53
32 42 53
32 42 53
32 42 53
32 42 53
32 42 53
32 42 53
32 42 53
32 42 53
32 42 53
32 42 53
32 42 53
32 42 53
32 42 53
32 42 53
32 42 53
32 42 53
32 42 53
32 42 53
32 42 53
32 42 53
32 42 53
32 42 53
32 42 53
32 42 53
32 42 53
32 42 53
32 42 53
32 42 53
32 42 53
32 42 53
32 42 53
32 42 53
32 42 53
32 42 53
32 42 53
32 42 53
32 42 53
32 42 53
32 42 53
32 42 53
32 42 53
106 124 145
106 124 145
17 24 32
17 24 32
17 24 32
17 24 32
17 24 32
17 24 32
17 24 32
17 24 32
17 24 32
17 24 32
17 24 32
17 24 32
17 24 32
17 24 32
17 24 32
17 24 32
17 24 32
17 24 32
17 24 32
17 24 32
17 24 32
17 24 32
17 24 32
17 24 32
106 124 145
106 124 145
32 42 53
32 42 53
32 42 53
32 42 53
32 42 53
32 42 53
32 42 53
32 42 53
32 42 53
32 42 53
32 42 53
32 42 53
32 42 53
32 42 53
32 42 53
32 42 53
32 42 53
32 42 53
32 42 53
32 42 53
32 42 53
32 42 53
32 42 53
32 42 53
32 42 53
32 42 53
32 42 53
32 42 53
32 42 53
32 42 53
32 42 53
32 42 53
32 42 53
32 42 53
32 42 53
32 42 53
32 42 53
32 42 53
32 42 53
32 42 53
32 42 53
32 42 53
32 42 53
32 42 53
32 42 53
32 42 53
32 42 53
32 42 53
32 42 53
32 42 53
32 42 53
32 42 53
32 42 53
32 42 53
32 42 53
32 42 53
32 42 53
32 42 53
32 42 53
32 42 53
32 42 53
32 42 53
32 42 53
32 42 53
32 42 53
32 42 53
32 42 53
32 42 53
32 42 53
32 42 53
32 42 53
32 42 53
32 42 53
32 42 53
32 42 53
32 42 53
32 42 53
32 42 53
32 42 53
32 42 53
32 42 53
32 42 53
32 42 53
32 42 53
32 42 53
32 42 53
32 42 53
32 42 53
32 42 53
32 42 53
32 42 53
32 42 53
32 42 53
32 42 53
32 42 53
32 42 53
32 42 53
32 42 53
32 42 53
32 42 53
32 42 53
32 42 53
32 42 53
32 42 53
32 42 53
32 42 53
32 42 53
32 42 53
32 42 53
32 42 53
32 42 53
32 42 53
32 42 53
32 42 53
32 42 53
32 42 53
32 42 53
32 42 53
32 42 53
32 42 53
32 42 53
32 42 53
32 42 53
32 42 53
32 42 53
32 42 53
32 42 53
32 42 53
32 42 53
32 42 53
32 42 53
32 42 53
32 42 53
32 42 53
32 42 53
32 42 53
32 42 53
32 42 53
32 42 53
32 42 53
32 42 53
32 42 53
32 42 53
32 42 53
32 42 53
32 42 53
32 42 53
32 42 53
32 42 53
32 42 53
32 42 53
32 42 53
32 42 53
32 42 53
32 42 53
32 42 53
32 42 53
32 42 53
32 42 53
32 42 53
32 42 53
32 42 53
32 42 53
32 42 53
32 42 53
32 42 53
32 42 53
32 42 53
32 42 53
32 42 53
32 42 53
32 42 53
32 42 53
32 42 53
32 42 53
32 42 53
32 42 53
32 42 53
32 42 53
32 42 53
32 42 53
32 42 53
32 42 53
32 42 53
32 42 53
32 42 53
32 42 53
32 42 53
32 42 53
32 42 53
32 42 53
32 42 53
32 42 53
32 42 53
32 42 53
32 42 53
32 42 53
32 42 53
32 42 53
32 42 53
32 42 53
32 42 53
32 42 53
32 42 53
32 42 53
32 42 53
32 42 53
32 42 53
32 42 53
32 42 53
32 42 53
32 42 53
32 42 53
32 42 53
32 42 53
32 42 53
32 42 53
32 42 53
32 42 53
32 42 53
32 42 53
32 42 53
32 42 53
32 42 53
32 42 53
32 42 53
32 42 53
32 42 53
32 42 53
32 42 53
32 42 53
32 42 53
32 42 53
32 42 53
32 42 53
32 42 53
32 42 53
32 42 53
32 42 53
32 42 53
32 42 53
32 42 53
32 42 53
32 42 53
32 42 53
32 42 53
32 42 53
32 42 53
32 42 53
32 42 53
32 42 53
32 42 53
32 42 53
32 42 53
32 42 53
32 42 53
32 42 53
32 42 53
32 42 53
32 42 53
32 42 53
32 42 53
32 42 53
32 42 53
32 42 53
32 42 53
32 42 53
32 42 53
32 42 53
32 42 53
32 42 53
32 42 53
32 42 53
32 42 53
32 42 53
32 42 53
32 42 53
32 42 53
32 42 53
32 42 53
32 42 53
32 42 53
32 42 53
32 42 53
32 42 53
32 42 53
32 42 53
32 42 53
32 42 53
32 42 53
32 42 53
32 42 53
106 124 145
106 124 145
17 24 32
17 24 32
17 24 32
17 24 32
17 24 32
17 24 32
17 24 32
17 24 32
17 24 32
17 24 32
17 24 32
17 24 32
17 24 32
17 24 32
17 24 32
17 24 32
17 24 32
17 24 32
17 24 32
17 24 32
17 24 32
17 24 32
17 24 32
17 24 32
106 124 145
106 124 145
32 42 53
32 42 53
32 42 53
32 42 53
32 42 53
32 42 53
32 42 53
32 42 53
32 42 53
32 42 53
32 42 53
32 42 53
32 42 53
32 42 53
32 42 53
32 42 53
32 42 53
32 42 53
32 42 53
32 42 53
32 42 53
32 42 53
32 42 53
32 42 53
32 42 53
32 42 53
32 42 53
32 42 53
32 42 53
32 42 53
32 42 53
32 42 53
32 42 53
32 42 53
32 42 53
32 42 53
32 42 53
32 42 53
32 42 53
32 42 53
32 42 53
32 42 53
32 42 53
32 42 53
32 42 53
32 42 53
32 42 53
32 42 53
32 42 53
32 42 53
32 42 53
32 42 53
32 42 53
32 42 53
32 42 53
32 42 53
32 42 53
32 42 53
32 42 53
32 42 53
32 42 53
32 42 53
32 42 53
32 42 53
32 42 53
32 42 53
32 42 53
32 42 53
32 42 53
32 42 53
32 42 53
32 42 53
32 42 53
32 42 53
32 42 53
32 42 53
32 42 53
32 42 53
32 42 53
32 42 53
32 42 53
32 42 53
32 42 53
32 42 53
32 42 53
32 42 53
32 42 53
32 42 53
32 42 53
32 42 53
32 42 53
32 42 53
32 42 53
32 42 53
32 42 53
32 42 53
32 42 53
32 42 53
32 42 53
32 42 53
32 42 53
32 42 53
32 42 53
32 42 53
32 42 53
32 42 53
32 42 53
32 42 53
32 42 53
32 42 53
32 42 53
32 42 53
32 42 53
32 42 53
32 42 53
32 42 53
32 42 53
32 42 53
32 42 53
32 42 53
32 42 53
32 42 53
32 42 53
32 42 53
32 42 53
32 42 53
32 42 53
32 42 53
32 42 53
32 42 53
32 42 53
32 42 53
32 42 53
32 42 53
32 42 53
32 42 53
32 42 53
32 42 53
32 42 53
32 42 53
32 42 53
32 42 53
32 42 53
32 42 53
32 42 53
32 42 53
32 42 53
32 42 53
32 42 53
32 42 53
32 42 53
32 42 53
32 42 53
32 42 53
32 42 53
32 42 53
32 42 53
32 42 53
32 42 53
32 42 53
32 42 53
32 42 53
32 42 53
32 42 53
32 42 53
32 42 53
32 42 53
32 42 53
32 42 53
32 42 53
32 42 53
32 42 53
32 42 53
32 42 53
32 42 53
32 42 53
32 42 53
32 42 53
32 42 53
32 42 53
32 42 53
32 42 53
32 42 53
32 42 53
32 42 53
32 42 53
32 42 53
32 42 53
32 42 53
32 42 53
32 42 53
32 42 53
32 42 53
32 42 53
32 42 53
32 42 53
32 42 53
32 42 53
32 42 53
32 42 53
32 42 53
32 42 53
32 42 53
32 42 53
32 42 53
32 42 53
32 42 53
32 42 53
32 42 53
32 42 53
32 42 53
32 42 53
32 42 53
32 42 53
32 42 53
32 42 53
32 42 53
32 42 53
32 42 53
32 42 53
32 42 53
32 42 53
32 42 53
32 42 53
32 42 53
32 42 53
32 42 53
32 42 53
32 42 53
32 42 53
32 42 53
32 42 53
32 42 53
32 42 53
32 42 53
32 42 53
32 42 53
32 42 53
32 42 53
32 42 53
32 42 53
32 42 53
32 42 53
32 42 53
32 42 53
32 42 53
32 42 53
32 42 53
32 42 53
32 42 53
32 42 53
32 42 53
32 42 53
32 42 53
32 42 53
32 42 53
32 42 53
32 42 53
32 42 53
32 42 53
32 42 53
32 42 53
32 42 53
32 42 53
32 42 53
32 42 53
32 42 53
32 42 53
32 42 53
32 42 53
32 42 53
32 42 53
32 42 53
32 42 53
32 42 53
32 42 53
32 42 53
32 42 53
32 42 53
32 42 53
32 42 53
32 42 53
32 42 53
32 42 53
32 42 53
32 42 53
32 42 53
32 42 53
32 42 53
32 42 53
32 42 53
32 42 53
106 124 145
106 124 145
17 24 32
17 24 32
17 24 32
17 24 32
17 24 32
17 24 32
17 24 32
17 24 32
17 24 32
17 24 32
17 24 32
17 24 32
17 24 32
17 24 32
17 24 32
17 24 32
17 24 32
17 24 32
17 24 32
17 24 32
17 24 32
17 24 32
17 24 32
17 24 32
106 124 145
106 124 145
32 42 53
32 42 53
32 42 53
32 42 53
32 42 53
32 42 53
32 42 53
32 42 53
32 42 53
32 42 53
32 42 53
32 42 53
32 42 53
32 42 53
32 42 53
32 42 53
32 42 53
32 42 53
32 42 53
32 42 53
32 42 53
32 42 53
32 42 53
32 42 53
32 42 53
32 42 53
32 42 53
32 42 53
32 42 53
32 42 53
32 42 53
32 42 53
32 42 53
32 42 53
32 42 53
32 42 53
32 42 53
32 42 53
32 42 53
32 42 53
32 42 53
32 42 53
32 42 53
32 42 53
32 42 53
32 42 53
32 42 53
32 42 53
32 42 53
32 42 53
32 42 53
32 42 53
32 42 53
32 42 53
32 42 53
32 42 53
32 42 53
32 42 53
32 42 53
32 42 53
32 42 53
32 42 53
32 42 53
32 42 53
32 42 53
32 42 53
32 42 53
32 42 53
32 42 53
32 42 53
32 42 53
32 42 53
32 42 53
32 42 53
32 42 53
32 42 53
32 42 53
32 42 53
32 42 53
32 42 53
32 42 53
32 42 53
32 42 53
32 42 53
32 42 53
32 42 53
32 42 53
32 42 53
32 42 53
32 42 53
32 42 53
32 42 53
32 42 53
32 42 53
32 42 53
32 42 53
32 42 53
32 42 53
32 42 53
32 42 53
32 42 53
32 42 53
32 42 53
32 42 53
32 42 53
32 42 53
32 42 53
32 42 53
32 42 53
32 42 53
32 42 53
32 42 53
32 42 53
32 42 53
32 42 53
32 42 53
32 42 53
32 42 53
32 42 53
32 42 53
32 42 53
32 42 53
32 42 53
32 42 53
32 42 53
32 42 53
32 42 53
32 42 53
32 42 53
32 42 53
32 42 53
32 42 53
32 42 53
32 42 53
32 42 53
32 42 53
32 42 53
32 42 53
32 42 53
32 42 53
32 42 53
32 42 53
32 42 53
32 42 53
32 42 53
32 42 53
32 42 53
32 42 53
32 42 53
32 42 53
32 42 53
32 42 53
32 42 53
32 42 53
32 42 53
32 42 53
32 42 53
32 42 53
32 42 53
32 42 53
32 42 53
32 42 53
32 42 53
32 42 53
32 42 53
32 42 53
32 42 53
32 42 53
32 42 53
32 42 53
32 42 53
32 42 53
32 42 53
32 42 53
32 42 53
32 42 53
32 42 53
32 42 53
32 42 53
32 42 53
32 42 53
32 42 53
32 42 53
32 42 53
32 42 53
32 42 53
32 42 53
32 42 53
32 42 53
32 42 53
32 42 53
32 42 53
32 42 53
32 42 53
32 42 53
32 42 53
32 42 53
32 42 53
32 42 53
32 42 53
32 42 53
32 42 53
32 42 53
32 42 53
32 42 53
32 42 53
32 42 53
32 42 53
32 42 53
32 42 53
32 42 53
32 42 53
32 42 53
32 42 53
32 42 53
32 42 53
32 42 53
32 42 53
32 42 53
32 42 53
32 42 53
32 42 53
32 42 53
32 42 53
32 42 53
32 42 53
32 42 53
32 42 53
32 42 53
32 42 53
32 42 53
32 42 53
32 42 53
32 42 53
32 42 53
32 42 53
32 42 53
32 42 53
32 42 53
32 42 53
32 42 53
32 42 53
32 42 53
32 42 53
32 42 53
32 42 53
32 42 53
32 42 53
32 42 53
32 42 53
32 42 53
32 42 53
32 42 53
32 42 53
32 42 53
32 42 53
32 42 53
32 42 53
32 42 53
32 42 53
32 42 53
32 42 53
32 42 53
32 42 53
32 42 53
32 42 53
32 42 53
32 42 53
32 42 53
32 42 53
32 42 53
32 42 53
32 42 53
32 42 53
32 42 53
32 42 53
32 42 53
32 42 53
32 42 53
32 42 53
32 42 53
32 42 53
32 42 53
32 42 53
32 42 53
32 42 53
32 42 53
32 42 53
32 42 53
32 42 53
32 42 53
32 42 53
106 124 145
106 124 145
17 24 32
17 24 32
17 24 32
17 24 32
17 24 32
17 24 32
17 24 32
17 24 32
17 24 32
17 24 32
17 24 32
17 24 32
17 24 32
17 24 32
17 24 32
17 24 32
17 24 32
17 24 32
17 24 32
17 24 32
17 24 32
17 24 32
17 24 32
17 24 32
106 124 145
106 124 145
32 42 53
32 42 53
32 42 53
32 42 53
32 42 53
32 42 53
32 42 53
32 42 53
32 42 53
32 42 53
32 42 53
32 42 53
32 42 53
32 42 53
32 42 53
32 42 53
32 42 53
32 42 53
32 42 53
32 42 53
32 42 53
32 42 53
32 42 53
32 42 53
32 42 53
32 42 53
32 42 53
32 42 53
32 42 53
32 42 53
32 42 53
32 42 53
32 42 53
32 42 53
32 42 53
32 42 53
32 42 53
32 42 53
32 42 53
32 42 53
32 42 53
32 42 53
32 42 53
32 42 53
32 42 53
32 42 53
32 42 53
32 42 53
32 42 53
32 42 53
32 42 53
32 42 53
32 42 53
32 42 53
32 42 53
32 42 53
32 42 53
32 42 53
32 42 53
32 42 53
32 42 53
32 42 53
32 42 53
32 42 53
32 42 53
32 42 53
32 42 53
32 42 53
32 42 53
32 42 53
32 42 53
32 42 53
32 42 53
32 42 53
32 42 53
32 42 53
32 42 53
32 42 53
32 42 53
32 42 53
32 42 53
32 42 53
32 42 53
32 42 53
32 42 53
32 42 53
32 42 53
32 42 53
32 42 53
32 42 53
32 42 53
32 42 53
32 42 53
32 42 53
32 42 53
32 42 53
32 42 53
32 42 53
32 42 53
32 42 53
32 42 53
32 42 53
32 42 53
32 42 53
32 42 53
32 42 53
32 42 53
32 42 53
32 42 53
32 42 53
32 42 53
32 42 53
32 42 53
32 42 53
32 42 53
32 42 53
32 42 53
32 42 53
32 42 53
32 42 53
32 42 53
32 42 53
32 42 53
32 42 53
32 42 53
32 42 53
32 42 53
32 42 53
32 42 53
32 42 53
32 42 53
32 42 53
32 42 53
32 42 53
32 42 53
32 42 53
32 42 53
32 42 53
32 42 53
32 42 53
32 42 53
32 42 53
32 42 53
32 42 53
32 42 53
32 42 53
32 42 53
32 42 53
32 42 53
32 42 53
32 42 53
32 42 53
32 42 53
32 42 53
32 42 53
32 42 53
32 42 53
32 42 53
32 42 53
32 42 53
32 42 53
32 42 53
32 42 53
32 42 53
32 42 53
32 42 53
32 42 53
32 42 53
32 42 53
32 42 53
32 42 53
32 42 53
32 42 53
32 42 53
32 42 53
32 42 53
32 42 53
32 42 53
32 42 53
32 42 53
32 42 53
32 42 53
32 42 53
32 42 53
32 42 53
32 42 53
32 42 53
32 42 53
32 42 53
32 42 53
32 42 53
32 42 53
32 42 53
32 42 53
32 42 53
32 42 53
32 42 53
32 42 53
32 42 53
32 42 53
32 42 53
32 42 53
32 42 53
32 42 53
32 42 53
32 42 53
32 42 53
32 42 53
32 42 53
32 42 53
32 42 53
32 42 53
32 42 53
32 42 53
32 42 53
32 42 53
32 42 53
32 42 53
32 42 53
32 42 53
32 42 53
32 42 53
32 42 53
32 42 53
32 42 53
32 42 53
32 42 53
32 42 53
32 42 53
32 42 53
32 42 53
32 42 53
32 42 53
32 42 53
32 42 53
32 42 53
32 42 53
32 42 53
32 42 53
32 42 53
32 42 53
32 42 53
32 42 53
32 42 53
32 42 53
32 42 53
32 42 53
32 42 53
32 42 53
32 42 53
32 42 53
32 42 53
32 42 53
32 42 53
32 42 53
32 42 53
32 42 53
32 42 53
32 42 53
32 42 53
32 42 53
32 42 53
32 42 53
32 42 53
32 42 53
32 42 53
32 42 53
32 42 53
32 42 53
32 42 53
32 42 53
32 42 53
32 42 53
32 42 53
32 42 53
32 42 53
32 42 53
32 42 53
32 42 53
32 42 53
32 42 53
32 42 53
32 42 53
32 42 53
32 42 53
32 42 53
32 42 53
32 42 53
32 42 53
32 42 53
32 42 53
32 42 53
106 124 145
106 124 145
17 24 32
17 24 32
17 24 32
17 24 32
17 24 32
17 24 32
17 24 32
17 24 32
17 24 32
17 24 32
17 24 32
17 24 32
17 24 32
17 24 32
17 24 32
17 24 32
17 24 32
17 24 32
17 24 32
17 24 32
17 24 32
17 24 32
17 24 32
17 24 32
106 124 145
106 124 145
32 42 53
32 42 53
32 42 53
32 42 53
32 42 53
32 42 53
32 42 53
32 42 53
32 42 53
32 42 53
32 42 53
32 42 53
32 42 53
32 42 53
32 42 53
32 42 53
32 42 53
32 42 53
32 42 53
32 42 53
32 42 53
32 42 53
32 42 53
32 42 53
32 42 53
32 42 53
32 42 53
32 42 53
32 42 53
32 42 53
32 42 53
32 42 53
32 42 53
32 42 53
32 42 53
32 42 53
32 42 53
32 42 53
32 42 53
32 42 53
32 42 53
32 42 53
32 42 53
32 42 53
32 42 53
32 42 53
32 42 53
32 42 53
32 42 53
32 42 53
32 42 53
32 42 53
32 42 53
32 42 53
32 42 53
32 42 53
32 42 53
32 42 53
32 42 53
32 42 53
32 42 53
32 42 53
32 42 53
32 42 53
32 42 53
32 42 53
32 42 53
32 42 53
32 42 53
32 42 53
32 42 53
32 42 53
32 42 53
32 42 53
32 42 53
32 42 53
32 42 53
32 42 53
32 42 53
32 42 53
32 42 53
32 42 53
32 42 53
32 42 53
32 42 53
32 42 53
32 42 53
32 42 53
32 42 53
32 42 53
32 42 53
32 42 53
32 42 53
32 42 53
32 42 53
32 42 53
32 42 53
32 42 53
32 42 53
32 42 53
32 42 53
32 42 53
32 42 53
32 42 53
32 42 53
32 42 53
32 42 53
32 42 53
32 42 53
32 42 53
32 42 53
32 42 53
32 42 53
32 42 53
32 42 53
32 42 53
32 42 53
32 42 53
32 42 53
32 42 53
32 42 53
32 42 53
32 42 53
32 42 53
32 42 53
32 42 53
32 42 53
32 42 53
32 42 53
32 42 53
32 42 53
32 42 53
32 42 53
32 42 53
32 42 53
32 42 53
32 42 53
32 42 53
32 42 53
32 42 53
32 42 53
32 42 53
32 42 53
32 42 53
32 42 53
32 42 53
32 42 53
32 42 53
32 42 53
32 42 53
32 42 53
32 42 53
32 42 53
32 42 53
32 42 53
32 42 53
32 42 53
32 42 53
32 42 53
32 42 53
32 42 53
32 42 53
32 42 53
32 42 53
32 42 53
32 42 53
32 42 53
32 42 53
32 42 53
32 42 53
32 42 53
32 42 53
32 42 53
32 42 53
32 42 53
32 42 53
32 42 53
32 42 53
32 42 53
32 42 53
32 42 53
32 42 53
32 42 53
32 42 53
32 42 53
32 42 53
32 42 53
32 42 53
32 42 53
32 42 53
32 42 53
32 42 53
32 42 53
32 42 53
32 42 53
32 42 53
32 42 53
32 42 53
32 42 53
32 42 53
32 42 53
32 42 53
32 42 53
32 42 53
32 42 53
32 42 53
32 42 53
32 42 53
32 42 53
32 42 53
32 42 53
32 42 53
32 42 53
32 42 53
32 42 53
32 42 53
32 42 53
32 42 53
32 42 53
32 42 53
32 42 53
32 42 53
32 42 53
32 42 53
32 42 53
32 42 53
32 42 53
32 42 53
32 42 53
32 42 53
32 42 53
32 42 53
32 42 53
32 42 53
32 42 53
32 42 53
32 42 53
32 42 53
32 42 53
32 42 53
32 42 53
32 42 53
32 42 53
32 42 53
32 42 53
32 42 53
32 42 53
32 42 53
32 42 53
32 42 53
32 42 53
32 42 53
32 42 53
32 42 53
32 42 53
32 42 53
32 42 53
32 42 53
32 42 53
32 42 53
32 42 53
32 42 53
32 42 53
32 42 53
32 42 53
32 42 53
32 42 53
32 42 53
32 42 53
32 42 53
32 42 53
32 42 53
32 42 53
32 42 53
32 42 53
32 42 53
32 42 53
32 42 53
32 42 53
32 42 53
32 42 53
32 42 53
32 42 53
32 42 53
32 42 53
32 42 53
32 42 53
32 42 53
32 42 53
32 42 53
32 42 53
32 42 53
106 124 145
106 124 145
17 24 32
17 24 32
17 24 32
17 24 32
17 24 32
17 24 32
17 24 32
17 24 32
17 24 32
17 24 32
17 24 32
17 24 32
17 24 32
17 24 32
17 24 32
17 24 32
17 24 32
17 24 32
17 24 32
17 24 32
17 24 32
17 24 32
17 24 32
17 24 32
106 124 145
106 124 145
32 42 53
32 42 53
32 42 53
32 42 53
32 42 53
32 42 53
32 42 53
32 42 53
32 42 53
32 42 53
32 42 53
32 42 53
32 42 53
32 42 53
32 42 53
32 42 53
32 42 53
32 42 53
32 42 53
32 42 53
32 42 53
32 42 53
32 42 53
32 42 53
32 42 53
32 42 53
32 42 53
32 42 53
32 42 53
32 42 53
32 42 53
32 42 53
32 42 53
32 42 53
32 42 53
32 42 53
32 42 53
32 42 53
32 42 53
32 42 53
32 42 53
32 42 53
32 42 53
32 42 53
32 42 53
32 42 53
32 42 53
32 42 53
32 42 53
32 42 53
32 42 53
32 42 53
32 42 53
32 42 53
32 42 53
32 42 53
32 42 53
32 42 53
32 42 53
32 42 53
32 42 53
32 42 53
32 42 53
32 42 53
32 42 53
32 42 53
32 42 53
32 42 53
32 42 53
32 42 53
32 42 53
32 42 53
32 42 53
32 42 53
32 42 53
32 42 53
32 42 53
32 42 53
32 42 53
32 42 53
32 42 53
32 42 53
32 42 53
32 42 53
32 42 53
32 42 53
32 42 53
32 42 53
32 42 53
32 42 53
32 42 53
32 42 53
32 42 53
32 42 53
32 42 53
32 42 53
32 42 53
32 42 53
32 42 53
32 42 53
32 42 53
32 42 53
32 42 53
32 42 53
32 42 53
32 42 53
32 42 53
32 42 53
32 42 53
32 42 53
32 42 53
32 42 53
32 42 53
32 42 53
32 42 53
32 42 53
32 42 53
32 42 53
32 42 53
32 42 53
32 42 53
32 42 53
32 42 53
32 42 53
32 42 53
32 42 53
32 42 53
32 42 53
32 42 53
32 42 53
32 42 53
32 42 53
32 42 53
32 42 53
32 42 53
32 42 53
32 42 53
32 42 53
32 42 53
32 42 53
32 42 53
32 42 53
32 42 53
32 42 53
32 42 53
32 42 53
32 42 53
32 42 53
32 42 53
32 42 53
32 42 53
32 42 53
32 42 53
32 42 53
32 42 53
32 42 53
32 42 53
32 42 53
32 42 53
32 42 53
32 42 53
32 42 53
32 42 53
32 42 53
32 42 53
32 42 53
32 42 53
32 42 53
32 42 53
32 42 53
32 42 53
32 42 53
32 42 53
32 42 53
32 42 53
32 42 53
32 42 53
32 42 53
32 42 53
32 42 53
32 42 53
32 42 53
32 42 53
32 42 53
32 42 53
32 42 53
32 42 53
32 42 53
32 42 53
32 42 53
32 42 53
32 42 53
32 42 53
32 42 53
32 42 53
32 42 53
32 42 53
32 42 53
32 42 53
32 42 53
32 42 53
32 42 53
32 42 53
32 42 53
32 42 53
32 42 53
32 42 53
32 42 53
32 42 53
32 42 53
32 42 53
32 42 53
32 42 53
32 42 53
32 42 53
32 42 53
32 42 53
32 42 53
32 42 53
32 42 53
32 42 53
32 42 53
32 42 53
32 42 53
32 42 53
32 42 53
32 42 53
32 42 53
32 42 53
32 42 53
32 42 53
32 42 53
32 42 53
32 42 53
32 42 53
32 42 53
32 42 53
32 42 53
32 42 53
32 42 53
32 42 53
32 42 53
32 42 53
32 42 53
32 42 53
32 42 53
32 42 53
32 42 53
32 42 53
32 42 53
32 42 53
32 42 53
32 42 53
32 42 53
32 42 53
32 42 53
32 42 53
32 42 53
32 42 53
32 42 53
32 42 53
32 42 53
32 42 53
32 42 53
32 42 53
32 42 53
32 42 53
32 42 53
32 42 53
32 42 53
32 42 53
32 42 53
32 42 53
32 42 53
32 42 53
32 42 53
32 42 53
32 42 53
32 42 53
32 42 53
32 42 53
32 42 53
32 42 53
32 42 53
32 42 53
32 42 53
32 42 53
32 42 53
32 42 53
32 42 53
32 42 53
32 42 53
106 124 145
106 124 145
17 24 32
17 24 32
17 24 32
17 24 32
17 24 32
17 24 32
17 24 32
17 24 32
17 24 32
17 24 32
17 24 32
17 24 32
17 24 32
17 24 32
17 24 32
17 24 32
17 24 32
17 24 32
17 24 32
17 24 32
17 24 32
17 24 32
17 24 32
17 24 32
106 124 145
106 124 145
32 42 53
32 42 53
32 42 53
32 42 53
32 42 53
32 42 53
32 42 53
32 42 53
32 42 53
32 42 53
32 42 53
32 42 53
32 42 53
32 42 53
32 42 53
32 42 53
32 42 53
32 42 53
32 42 53
32 42 53
32 42 53
32 42 53
32 42 53
32 42 53
32 42 53
32 42 53
32 42 53
32 42 53
32 42 53
32 42 53
32 42 53
32 42 53
32 42 53
32 42 53
32 42 53
32 42 53
32 42 53
32 42 53
32 42 53
32 42 53
32 42 53
32 42 53
32 42 53
32 42 53
32 42 53
32 42 53
32 42 53
32 42 53
32 42 53
32 42 53
32 42 53
32 42 53
32 42 53
32 42 53
32 42 53
32 42 53
32 42 53
32 42 53
32 42 53
32 42 53
32 42 53
32 42 53
32 42 53
32 42 53
32 42 53
32 42 53
32 42 53
32 42 53
32 42 53
32 42 53
32 42 53
32 42 53
32 42 53
32 42 53
32 42 53
32 42 53
32 42 53
32 42 53
32 42 53
32 42 53
32 42 53
32 42 53
32 42 53
32 42 53
32 42 53
32 42 53
32 42 53
32 42 53
32 42 53
32 42 53
32 42 53
32 42 53
32 42 53
32 42 53
32 42 53
32 42 53
32 42 53
32 42 53
32 42 53
32 42 53
32 42 53
32 42 53
32 42 53
32 42 53
32 42 53
32 42 53
32 42 53
32 42 53
32 42 53
32 42 53
32 42 53
32 42 53
32 42 53
32 42 53
32 42 53
32 42 53
32 42 53
32 42 53
32 42 53
32 42 53
32 42 53
32 42 53
32 42 53
32 42 53
32 42 53
32 42 53
32 42 53
32 42 53
32 42 53
32 42 53
32 42 53
32 42 53
32 42 53
32 42 53
32 42 53
32 42 53
32 42 53
32 42 53
32 42 53
32 42 53
32 42 53
32 42 53
32 42 53
32 42 53
32 42 53
32 42 53
32 42 53
32 42 53
32 42 53
32 42 53
32 42 53
32 42 53
32 42 53
32 42 53
32 42 53
32 42 53
32 42 53
32 42 53
32 42 53
32 42 53
32 42 53
32 42 53
32 42 53
32 42 53
32 42 53
32 42 53
32 42 53
32 42 53
32 42 53
32 42 53
32 42 53
32 42 53
32 42 53
32 42 53
32 42 53
32 42 53
32 42 53
32 42 53
32 42 53
32 42 53
32 42 53
32 42 53
32 42 53
32 42 53
32 42 53
32 42 53
32 42 53
32 42 53
32 42 53
32 42 53
32 42 53
32 42 53
32 42 53
32 42 53
32 42 53
32 42 53
32 42 53
32 42 53
32 42 53
32 42 53
32 42 53
32 42 53
32 42 53
32 42 53
32 42 53
32 42 53
32 42 53
32 42 53
32 42 53
32 42 53
32 42 53
32 42 53
32 42 53
32 42 53
32 42 53
32 42 53
32 42 53
32 42 53
32 42 53
32 42 53
32 42 53
32 42 53
32 42 53
32 42 53
32 42 53
32 42 53
32 42 53
32 42 53
32 42 53
32 42 53
32 42 53
32 42 53
32 42 53
32 42 53
32 42 53
32 42 53
32 42 53
32 42 53
32 42 53
32 42 53
32 42 53
32 42 53
32 42 53
32 42 53
32 42 53
32 42 53
32 42 53
32 42 53
32 42 53
32 42 53
32 42 53
32 42 53
32 42 53
32 42 53
32 42 53
32 42 53
32 42 53
32 42 53
32 42 53
32 42 53
32 42 53
32 42 53
32 42 53
32 42 53
32 42 53
32 42 53
32 42 53
32 42 53
32 42 53
32 42 53
32 42 53
32 42 53
32 42 53
32 42 53
32 42 53
32 42 53
32 42 53
32 42 53
32 42 53
32 42 53
32 42 53
32 42 53
32 42 53
32 42 53
32 42 53
32 42 53
32 42 53
32 42 53
32 42 53
32 42 53
32 42 53
32 42 53
106 124 145
106 124 145
17 24 32
17 24 32
17 24 32
17 24 32
17 24 32
17 24 32
17 24 32
17 24 32
17 24 32
17 24 32
17 24 32
17 24 32
17 24 32
17 24 32
17 24 32
17 24 32
17 24 32
17 24 32
17 24 32
17 24 32
17 24 32
17 24 32
17 24 32
17 24 32
106 124 145
106 124 145
32 42 53
32 42 53
32 42 53
32 42 53
32 42 53
32 42 53
32 42 53
32 42 53
32 42 53
32 42 53
32 42 53
32 42 53
32 42 53
32 42 53
32 42 53
32 42 53
32 42 53
32 42 53
32 42 53
32 42 53
32 42 53
32 42 53
32 42 53
32 42 53
32 42 53
32 42 53
32 42 53
32 42 53
32 42 53
32 42 53
32 42 53
32 42 53
32 42 53
32 42 53
32 42 53
32 42 53
32 42 53
32 42 53
32 42 53
32 42 53
32 42 53
32 42 53
32 42 53
32 42 53
32 42 53
32 42 53
32 42 53
32 42 53
32 42 53
32 42 53
32 42 53
32 42 53
32 42 53
32 42 53
32 42 53
32 42 53
32 42 53
32 42 53
32 42 53
32 42 53
32 42 53
32 42 53
32 42 53
32 42 53
32 42 53
32 42 53
32 42 53
32 42 53
32 42 53
32 42 53
32 42 53
32 42 53
32 42 53
32 42 53
32 42 53
32 42 53
32 42 53
32 42 53
32 42 53
32 42 53
32 42 53
32 42 53
32 42 53
32 42 53
32 42 53
32 42 53
32 42 53
32 42 53
32 42 53
32 42 53
32 42 53
32 42 53
32 42 53
32 42 53
32 42 53
32 42 53
32 42 53
32 42 53
32 42 53
32 42 53
32 42 53
32 42 53
32 42 53
32 42 53
32 42 53
32 42 53
32 42 53
32 42 53
32 42 53
32 42 53
32 42 53
32 42 53
32 42 53
32 42 53
32 42 53
32 42 53
32 42 53
32 42 53
32 42 53
32 42 53
32 42 53
32 42 53
32 42 53
32 42 53
32 42 53
32 42 53
32 42 53
32 42 53
32 42 53
32 42 53
32 42 53
32 42 53
32 42 53
32 42 53
32 42 53
32 42 53
32 42 53
32 42 53
32 42 53
32 42 53
32 42 53
32 42 53
32 42 53
32 42 53
32 42 53
32 42 53
32 42 53
32 42 53
32 42 53
32 42 53
32 42 53
32 42 53
32 42 53
32 42 53
32 42 53
32 42 53
32 42 53
32 42 53
32 42 53
32 42 53
32 42 53
32 42 53
32 42 53
32 42 53
32 42 53
32 42 53
32 42 53
32 42 53
32 42 53
32 42 53
32 42 53
32 42 53
32 42 53
32 42 53
32 42 53
32 42 53
32 42 53
32 42 53
32 42 53
32 42 53
32 42 53
32 42 53
32 42 53
32 42 53
32 42 53
32 42 53
32 42 53
32 42 53
32 42 53
32 42 53
32 42 53
32 42 53
32 42 53
32 42 53
32 42 53
32 42 53
32 42 53
32 42 53
32 42 53
32 42 53
32 42 53
32 42 53
32 42 53
32 42 53
32 42 53
32 42 53
32 42 53
32 42 53
32 42 53
32 42 53
32 42 53
32 42 53
32 42 53
32 42 53
32 42 53
32 42 53
32 42 53
32 42 53
32 42 53
32 42 53
32 42 53
32 42 53
32 42 53
32 42 53
32 42 53
32 42 53
32 42 53
32 42 53
32 42 53
32 42 53
32 42 53
32 42 53
32 42 53
32 42 53
32 42 53
32 42 53
32 42 53
32 42 53
32 42 53
32 42 53
32 42 53
32 42 53
32 42 53
32 42 53
32 42 53
32 42 53
32 42 53
32 42 53
32 42 53
32 42 53
32 42 53
32 42 53
32 42 53
32 42 53
32 42 53
32 42 53
32 42 53
32 42 53
32 42 53
32 42 53
32 42 53
32 42 53
32 42 53
32 42 53
32 42 53
32 42 53
32 42 53
32 42 53
32 42 53
32 42 53
32 42 53
32 42 53
32 42 53
32 42 53
32 42 53
32 42 53
32 42 53
32 42 53
32 42 53
32 42 53
32 42 53
32 42 53
32 42 53
32 42 53
32 42 53
32 42 53
32 42 53
32 42 53
32 42 53
32 42 53
32 42 53
32 42 53
106 124 145
106 124 145
17 24 32
17 24 32
17 24 32
17 24 32
17 24 32
17 24 32
17 24 32
17 24 32
17 24 32
17 24 32
17 24 32
17 24 32
17 24 32
17 24 32
17 24 32
17 24 32
17 24 32
17 24 32
17 24 32
17 24 32
17 24 32
17 24 32
17 24 32
17 24 32
106 124 145
106 124 145
32 42 53
32 42 53
32 42 53
32 42 53
32 42 53
32 42 53
32 42 53
32 42 53
32 42 53
32 42 53
32 42 53
32 42 53
32 42 53
32 42 53
32 42 53
32 42 53
32 42 53
32 42 53
32 42 53
32 42 53
32 42 53
32 42 53
32 42 53
32 42 53
32 42 53
32 42 53
32 42 53
32 42 53
32 42 53
32 42 53
32 42 53
32 42 53
32 42 53
32 42 53
32 42 53
32 42 53
32 42 53
32 42 53
32 42 53
32 42 53
32 42 53
32 42 53
32 42 53
32 42 53
32 42 53
32 42 53
32 42 53
32 42 53
32 42 53
32 42 53
32 42 53
32 42 53
32 42 53
32 42 53
32 42 53
32 42 53
32 42 53
32 42 53
32 42 53
32 42 53
32 42 53
32 42 53
32 42 53
32 42 53
32 42 53
32 42 53
32 42 53
32 42 53
32 42 53
32 42 53
32 42 53
32 42 53
32 42 53
32 42 53
32 42 53
32 42 53
32 42 53
32 42 53
32 42 53
32 42 53
32 42 53
32 42 53
32 42 53
32 42 53
32 42 53
32 42 53
32 42 53
32 42 53
32 42 53
32 42 53
32 42 53
32 42 53
32 42 53
32 42 53
32 42 53
32 42 53
32 42 53
32 42 53
32 42 53
32 42 53
32 42 53
32 42 53
32 42 53
32 42 53
32 42 53
32 42 53
32 42 53
32 42 53
32 42 53
32 42 53
32 42 53
32 42 53
32 42 53
32 42 53
32 42 53
32 42 53
32 42 53
32 42 53
32 42 53
32 42 53
32 42 53
32 42 53
32 42 53
32 42 53
32 42 53
32 42 53
32 42 53
32 42 53
32 42 53
32 42 53
32 42 53
32 42 53
32 42 53
32 42 53
32 42 53
32 42 53
32 42 53
32 42 53
32 42 53
32 42 53
32 42 53
32 42 53
32 42 53
32 42 53
32 42 53
32 42 53
32 42 53
32 42 53
32 42 53
32 42 53
32 42 53
32 42 53
32 42 53
32 42 53
32 42 53
32 42 53
32 42 53
32 42 53
32 42 53
32 42 53
32 42 53
32 42 53
32 42 53
32 42 53
32 42 53
32 42 53
32 42 53
32 42 53
32 42 53
32 42 53
32 42 53
32 42 53
32 42 53
32 42 53
32 42 53
32 42 53
32 42 53
32 42 53
32 42 53
32 42 53
32 42 53
32 42 53
32 42 53
32 42 53
32 42 53
32 42 53
32 42 53
32 42 53
32 42 53
32 42 53
32 42 53
32 42 53
32 42 53
32 42 53
32 42 53
32 42 53
32 42 53
32 42 53
32 42 53
32 42 53
32 42 53
32 42 53
32 42 53
32 42 53
32 42 53
32 42 53
32 42 53
32 42 53
32 42 53
32 42 53
32 42 53
32 42 53
32 42 53
32 42 53
32 42 53
32 42 53
32 42 53
32 42 53
32 42 53
32 42 53
32 42 53
32 42 53
32 42 53
32 42 53
32 42 53
32 42 53
32 42 53
32 42 53
32 42 53
32 42 53
32 42 53
32 42 53
32 42 53
32 42 53
32 42 53
32 42 53
32 42 53
32 42 53
32 42 53
32 42 53
32 42 53
32 42 53
32 42 53
32 42 53
32 42 53
32 42 53
32 42 53
32 42 53
32 42 53
32 42 53
32 42 53
32 42 53
32 42 53
32 42 53
32 42 53
32 42 53
32 42 53
32 42 53
32 42 53
32 42 53
32 42 53
32 42 53
32 42 53
32 42 53
32 42 53
32 42 53
32 42 53
32 42 53
32 42 53
32 42 53
32 42 53
32 42 53
32 42 53
32 42 53
32 42 53
32 42 53
32 42 53
32 42 53
32 42 53
32 42 53
32 42 53
32 42 53
32 42 53
32 42 53
32 42 53
32 42 53
32 42 53
32 42 53
32 42 53
32 42 53
32 42 53
32 42 53
106 124 145
106 124 145
17 24 32
17 24 32
17 24 32
17 24 32
17 24 32
17 24 32
17 24 32
17 24 32
17 24 32
17 24 32
17 24 32
17 24 32
17 24 32
17 24 32
17 24 32
17 24 32
17 24 32
17 24 32
17 24 32
17 24 32
17 24 32
17 24 32
17 24 32
17 24 32
106 124 145
106 124 145
32 42 53
32 42 53
32 42 53
32 42 53
32 42 53
32 42 53
32 42 53
32 42 53
32 42 53
32 42 53
32 42 53
32 42 53
32 42 53
32 42 53
32 42 53
32 42 53
32 42 53
32 42 53
32 42 53
32 42 53
32 42 53
32 42 53
32 42 53
32 42 53
32 42 53
32 42 53
32 42 53
32 42 53
32 42 53
32 42 53
32 42 53
32 42 53
32 42 53
32 42 53
32 42 53
32 42 53
32 42 53
32 42 53
32 42 53
32 42 53
32 42 53
32 42 53
32 42 53
32 42 53
32 42 53
32 42 53
32 42 53
32 42 53
32 42 53
32 42 53
32 42 53
32 42 53
32 42 53
32 42 53
32 42 53
32 42 53
32 42 53
32 42 53
32 42 53
32 42 53
32 42 53
32 42 53
32 42 53
32 42 53
32 42 53
32 42 53
32 42 53
32 42 53
32 42 53
32 42 53
32 42 53
32 42 53
32 42 53
32 42 53
32 42 53
32 42 53
32 42 53
32 42 53
32 42 53
32 42 53
32 42 53
32 42 53
32 42 53
32 42 53
32 42 53
32 42 53
32 42 53
32 42 53
32 42 53
32 42 53
32 42 53
32 42 53
32 42 53
32 42 53
32 42 53
32 42 53
32 42 53
32 42 53
32 42 53
32 42 53
32 42 53
32 42 53
32 42 53
32 42 53
32 42 53
32 42 53
32 42 53
32 42 53
32 42 53
32 42 53
32 42 53
32 42 53
32 42 53
32 42 53
32 42 53
32 42 53
32 42 53
32 42 53
32 42 53
32 42 53
32 42 53
32 42 53
32 42 53
32 42 53
32 42 53
32 42 53
32 42 53
32 42 53
32 42 53
32 42 53
32 42 53
32 42 53
32 42 53
32 42 53
32 42 53
32 42 53
32 42 53
32 42 53
32 42 53
32 42 53
32 42 53
32 42 53
32 42 53
32 42 53
32 42 53
32 42 53
32 42 53
32 42 53
32 42 53
32 42 53
32 42 53
32 42 53
32 42 53
32 42 53
32 42 53
32 42 53
32 42 53
32 42 53
32 42 53
32 42 53
32 42 53
32 42 53
32 42 53
32 42 53
32 42 53
32 42 53
32 42 53
32 42 53
32 42 53
32 42 53
32 42 53
32 42 53
32 42 53
32 42 53
32 42 53
32 42 53
32 42 53
32 42 53
32 42 53
32 42 53
32 42 53
32 42 53
32 42 53
32 42 53
32 42 53
32 42 53
32 42 53
32 42 53
32 42 53
32 42 53
32 42 53
32 42 53
32 42 53
32 42 53
32 42 53
32 42 53
32 42 53
32 42 53
32 42 53
32 42 53
32 42 53
32 42 53
32 42 53
32 42 53
32 42 53
32 42 53
32 42 53
32 42 53
32 42 53
32 42 53
32 42 53
32 42 53
32 42 53
32 42 53
32 42 53
32 42 53
32 42 53
32 42 53
32 42 53
32 42 53
32 42 53
32 42 53
32 42 53
32 42 53
32 42 53
32 42 53
32 42 53
32 42 53
32 42 53
32 42 53
32 42 53
32 42 53
32 42 53
32 42 53
32 42 53
32 42 53
32 42 53
32 42 53
32 42 53
32 42 53
32 42 53
32 42 53
32 42 53
32 42 53
32 42 53
32 42 53
32 42 53
32 42 53
32 42 53
32 42 53
32 42 53
32 42 53
32 42 53
32 42 53
32 42 53
32 42 53
32 42 53
32 42 53
32 42 53
32 42 53
32 42 53
32 42 53
32 42 53
32 42 53
32 42 53
32 42 53
32 42 53
32 42 53
32 42 53
32 42 53
32 42 53
32 42 53
32 42 53
32 42 53
32 42 53
32 42 53
32 42 53
32 42 53
32 42 53
32 42 53
32 42 53
32 42 53
32 42 53
32 42 53
32 42 53
32 42 53
32 42 53
32 42 53
32 42 53
32 42 53
32 42 53
32 42 53
106 124 145
106 124 145
17 24 32
17 24 32
17 24 32
17 24 32
17 24 32
17 24 32
17 24 32
17 24 32
17 24 32
17 24 32
17 24 32
17 24 32
17 24 32
17 24 32
17 24 32
17 24 32
17 24 32
17 24 32
17 24 32
17 24 32
17 24 32
17 24 32
17 24 32
17 24 32
106 124 145
106 124 145
32 42 53
32 42 53
32 42 53
32 42 53
32 42 53
32 42 53
32 42 53
32 42 53
32 42 53
32 42 53
32 42 53
32 42 53
32 42 53
32 42 53
32 42 53
32 42 53
32 42 53
32 42 53
32 42 53
32 42 53
32 42 53
32 42 53
32 42 53
32 42 53
32 42 53
32 42 53
32 42 53
32 42 53
32 42 53
32 42 53
32 42 53
32 42 53
32 42 53
32 42 53
32 42 53
32 42 53
32 42 53
32 42 53
32 42 53
32 42 53
32 42 53
32 42 53
32 42 53
32 42 53
32 42 53
32 42 53
32 42 53
32 42 53
32 42 53
32 42 53
32 42 53
32 42 53
32 42 53
32 42 53
32 42 53
32 42 53
32 42 53
32 42 53
32 42 53
32 42 53
32 42 53
32 42 53
32 42 53
32 42 53
32 42 53
32 42 53
32 42 53
32 42 53
32 42 53
32 42 53
32 42 53
32 42 53
32 42 53
32 42 53
32 42 53
32 42 53
32 42 53
32 42 53
32 42 53
32 42 53
32 42 53
32 42 53
32 42 53
32 42 53
32 42 53
32 42 53
32 42 53
32 42 53
32 42 53
32 42 53
32 42 53
32 42 53
32 42 53
32 42 53
32 42 53
32 42 53
32 42 53
32 42 53
32 42 53
32 42 53
32 42 53
32 42 53
32 42 53
32 42 53
32 42 53
32 42 53
32 42 53
32 42 53
32 42 53
32 42 53
32 42 53
32 42 53
32 42 53
32 42 53
32 42 53
32 42 53
32 42 53
32 42 53
32 42 53
32 42 53
32 42 53
32 42 53
32 42 53
32 42 53
32 42 53
32 42 53
32 42 53
32 42 53
32 42 53
32 42 53
32 42 53
32 42 53
32 42 53
32 42 53
32 42 53
32 42 53
32 42 53
32 42 53
32 42 53
32 42 53
32 42 53
32 42 53
32 42 53
32 42 53
32 42 53
32 42 53
32 42 53
32 42 53
32 42 53
32 42 53
32 42 53
32 42 53
32 42 53
32 42 53
32 42 53
32 42 53
32 42 53
32 42 53
32 42 53
32 42 53
32 42 53
32 42 53
32 42 53
32 42 53
32 42 53
32 42 53
32 42 53
32 42 53
32 42 53
32 42 53
32 42 53
32 42 53
32 42 53
32 42 53
32 42 53
32 42 53
32 42 53
32 42 53
32 42 53
32 42 53
32 42 53
32 42 53
32 42 53
32 42 53
32 42 53
32 42 53
32 42 53
32 42 53
32 42 53
32 42 53
32 42 53
32 42 53
32 42 53
32 42 53
32 42 53
32 42 53
32 42 53
32 42 53
32 42 53
32 42 53
32 42 53
32 42 53
32 42 53
32 42 53
32 42 53
32 42 53
32 42 53
32 42 53
32 42 53
32 42 53
32 42 53
32 42 53
32 42 53
32 42 53
32 42 53
32 42 53
32 42 53
32 42 53
32 42 53
32 42 53
32 42 53
32 42 53
32 42 53
32 42 53
32 42 53
32 42 53
32 42 53
32 42 53
32 42 53
32 42 53
32 42 53
32 42 53
32 42 53
32 42 53
32 42 53
32 42 53
32 42 53
32 42 53
32 42 53
32 42 53
32 42 53
32 42 53
32 42 53
32 42 53
32 42 53
32 42 53
32 42 53
32 42 53
32 42 53
32 42 53
32 42 53
32 42 53
32 42 53
32 42 53
32 42 53
32 42 53
32 42 53
32 42 53
32 42 53
32 42 53
32 42 53
32 42 53
32 42 53
32 42 53
32 42 53
32 42 53
32 42 53
32 42 53
32 42 53
32 42 53
32 42 53
32 42 53
32 42 53
32 42 53
32 42 53
32 42 53
32 42 53
32 42 53
32 42 53
32 42 53
32 42 53
32 42 53
32 42 53
32 42 53
32 42 53
32 42 53
32 42 53
32 42 53
32 42 53
32 42 53
32 42 53
32 42 53
106 124 145
106 124 145
17 24 32
17 24 32
17 24 32
17 24 32
17 24 32
17 24 32
17 24 32
17 24 32
17 24 32
17 24 32
17 24 32
17 24 32
17 24 32
17 24 32
17 24 32
17 24 32
17 24 32
17 24 32
17 24 32
17 24 32
17 24 32
17 24 32
17 24 32
17 24 32
106 124 145
106 124 145
32 42 53
32 42 53
32 42 53
32 42 53
32 42 53
32 42 53
32 42 53
32 42 53
32 42 53
32 42 53
32 42 53
32 42 53
32 42 53
32 42 53
32 42 53
32 42 53
32 42 53
32 42 53
32 42 53
32 42 53
32 42 53
32 42 53
32 42 53
32 42 53
32 42 53
32 42 53
32 42 53
32 42 53
32 42 53
32 42 53
32 42 53
32 42 53
32 42 53
32 42 53
32 42 53
32 42 53
32 42 53
32 42 53
32 42 53
32 42 53
32 42 53
32 42 53
32 42 53
32 42 53
32 42 53
32 42 53
32 42 53
32 42 53
32 42 53
32 42 53
32 42 53
32 42 53
32 42 53
32 42 53
32 42 53
32 42 53
32 42 53
32 42 53
32 42 53
32 42 53
32 42 53
32 42 53
32 42 53
32 42 53
32 42 53
32 42 53
32 42 53
32 42 53
32 42 53
32 42 53
32 42 53
32 42 53
32 42 53
32 42 53
32 42 53
32 42 53
32 42 53
32 42 53
32 42 53
32 42 53
32 42 53
32 42 53
32 42 53
32 42 53
32 42 53
32 42 53
32 42 53
32 42 53
32 42 53
32 42 53
32 42 53
32 42 53
32 42 53
32 42 53
32 42 53
32 42 53
32 42 53
32 42 53
32 42 53
32 42 53
32 42 53
32 42 53
32 42 53
32 42 53
32 42 53
32 42 53
32 42 53
32 42 53
32 42 53
32 42 53
32 42 53
32 42 53
32 42 53
32 42 53
32 42 53
32 42 53
32 42 53
32 42 53
32 42 53
32 42 53
32 42 53
32 42 53
32 42 53
32 42 53
32 42 53
32 42 53
32 42 53
32 42 53
32 42 53
32 42 53
32 42 53
32 42 53
32 42 53
32 42 53
32 42 53
32 42 53
32 42 53
32 42 53
32 42 53
32 42 53
32 42 53
32 42 53
32 42 53
32 42 53
32 42 53
32 42 53
32 42 53
32 42 53
32 42 53
32 42 53
32 42 53
32 42 53
32 42 53
32 42 53
32 42 53
32 42 53
32 42 53
32 42 53
32 42 53
32 42 53
32 42 53
32 42 53
32 42 53
32 42 53
32 42 53
32 42 53
32 42 53
32 42 53
32 42 53
32 42 53
32 42 53
32 42 53
32 42 53
32 42 53
32 42 53
32 42 53
32 42 53
32 42 53
32 42 53
32 42 53
32 42 53
32 42 53
32 42 53
32 42 53
32 42 53
32 42 53
32 42 53
32 42 53
32 42 53
32 42 53
32 42 53
32 42 53
32 42 53
32 42 53
32 42 53
32 42 53
32 42 53
32 42 53
32 42 53
32 42 53
32 42 53
32 42 53
32 42 53
32 42 53
32 42 53
32 42 53
32 42 53
32 42 53
32 42 53
32 42 53
32 42 53
32 42 53
32 42 53
32 42 53
32 42 53
32 42 53
32 42 53
32 42 53
32 42 53
32 42 53
32 42 53
32 42 53
32 42 53
32 42 53
32 42 53
32 42 53
32 42 53
32 42 53
32 42 53
32 42 53
32 42 53
32 42 53
32 42 53
32 42 53
32 42 53
32 42 53
32 42 53
32 42 53
32 42 53
32 42 53
32 42 53
32 42 53
32 42 53
32 42 53
32 42 53
32 42 53
32 42 53
32 42 53
32 42 53
32 42 53
32 42 53
32 42 53
32 42 53
32 42 53
32 42 53
32 42 53
32 42 53
32 42 53
32 42 53
32 42 53
32 42 53
32 42 53
32 42 53
32 42 53
32 42 53
32 42 53
32 42 53
32 42 53
32 42 53
32 42 53
32 42 53
32 42 53
32 42 53
32 42 53
32 42 53
32 42 53
32 42 53
32 42 53
32 42 53
32 42 53
32 42 53
32 42 53
32 42 53
32 42 53
32 42 53
32 42 53
32 42 53
32 42 53
32 42 53
32 42 53
32 42 53
32 42 53
106 124 145
106 124 145
17 24 32
17 24 32
17 24 32
17 24 32
17 24 32
17 24 32
17 24 32
17 24 32
17 24 32
17 24 32
17 24 32
17 24 32
17 24 32
17 24 32
17 24 32
17 24 32
17 24 32
17 24 32
17 24 32
17 24 32
17 24 32
17 24 32
17 24 32
17 24 32
106 124 145
106 124 145
32 42 53
32 42 53
32 42 53
32 42 53
32 42 53
32 42 53
32 42 53
32 42 53
32 42 53
32 42 53
32 42 53
32 42 53
32 42 53
32 42 53
32 42 53
32 42 53
32 42 53
32 42 53
32 42 53
32 42 53
32 42 53
32 42 53
32 42 53
32 42 53
32 42 53
32 42 53
32 42 53
32 42 53
32 42 53
32 42 53
32 42 53
32 42 53
32 42 53
32 42 53
32 42 53
32 42 53
32 42 53
32 42 53
32 42 53
32 42 53
32 42 53
32 42 53
32 42 53
32 42 53
32 42 53
32 42 53
32 42 53
32 42 53
32 42 53
32 42 53
32 42 53
32 42 53
32 42 53
32 42 53
32 42 53
32 42 53
32 42 53
32 42 53
32 42 53
32 42 53
32 42 53
32 42 53
32 42 53
32 42 53
32 42 53
32 42 53
32 42 53
32 42 53
32 42 53
32 42 53
32 42 53
32 42 53
32 42 53
32 42 53
32 42 53
32 42 53
32 42 53
32 42 53
32 42 53
32 42 53
32 42 53
32 42 53
32 42 53
32 42 53
32 42 53
32 42 53
32 42 53
32 42 53
32 42 53
32 42 53
32 42 53
32 42 53
32 42 53
32 42 53
32 42 53
32 42 53
32 42 53
32 42 53
32 42 53
32 42 53
32 42 53
32 42 53
32 42 53
32 42 53
32 42 53
32 42 53
32 42 53
32 42 53
32 42 53
32 42 53
32 42 53
32 42 53
32 42 53
32 42 53
32 42 53
32 42 53
32 42 53
32 42 53
32 42 53
32 42 53
32 42 53
32 42 53
32 42 53
32 42 53
32 42 53
32 42 53
32 42 53
32 42 53
32 42 53
32 42 53
32 42 53
32 42 53
32 42 53
32 42 53
32 42 53
32 42 53
32 42 53
32 42 53
32 42 53
32 42 53
32 42 53
32 42 53
32 42 53
32 42 53
32 42 53
32 42 53
32 42 53
32 42 53
32 42 53
32 42 53
32 42 53
32 42 53
32 42 53
32 42 53
32 42 53
32 42 53
32 42 53
32 42 53
32 42 53
32 42 53
32 42 53
32 42 53
32 42 53
32 42 53
32 42 53
32 42 53
32 42 53
32 42 53
32 42 53
32 42 53
32 42 53
32 42 53
32 42 53
32 42 53
32 42 53
32 42 53
32 42 53
32 42 53
32 42 53
32 42 53
32 42 53
32 42 53
32 42 53
32 42 53
32 42 53
32 42 53
32 42 53
32 42 53
32 42 53
32 42 53
32 42 53
32 42 53
32 42 53
32 42 53
32 42 53
32 42 53
32 42 53
32 42 53
32 42 53
32 42 53
32 42 53
32 42 53
32 42 53
32 42 53
32 42 53
32 42 53
32 42 53
32 42 53
32 42 53
32 42 53
32 42 53
32 42 53
32 42 53
32 42 53
32 42 53
32 42 53
32 42 53
32 42 53
32 42 53
32 42 53
32 42 53
32 42 53
32 42 53
32 42 53
32 42 53
32 42 53
32 42 53
32 42 53
32 42 53
32 42 53
32 42 53
32 42 53
32 42 53
32 42 53
32 42 53
32 42 53
32 42 53
32 42 53
32 42 53
32 42 53
32 42 53
32 42 53
32 42 53
32 42 53
32 42 53
32 42 53
32 42 53
32 42 53
32 42 53
32 42 53
32 42 53
32 42 53
32 42 53
32 42 53
32 42 53
32 42 53
32 42 53
32 42 53
32 42 53
32 42 53
32 42 53
32 42 53
32 42 53
32 42 53
32 42 53
32 42 53
32 42 53
32 42 53
32 42 53
32 42 53
32 42 53
32 42 53
32 42 53
32 42 53
32 42 53
32 42 53
32 42 53
32 42 53
32 42 53
32 42 53
32 42 53
32 42 53
32 42 53
32 42 53
32 42 53
32 42 53
32 42 53
32 42 53
32 42 53
32 42 53
32 42 53
32 42 53
106 124 145
106 124 145
17 24 32
17 24 32
17 24 32
17 24 32
17 24 32
17 24 32
17 24 32
17 24 32
17 24 32
17 24 32
17 24 32
17 24 32
17 24 32
17 24 32
17 24 32
17 24 32
17 24 32
17 24 32
17 24 32
17 24 32
17 24 32
17 24 32
17 24 32
17 24 32
106 124 145
106 124 145
32 42 53
32 42 53
32 42 53
32 42 53
32 42 53
32 42 53
32 42 53
32 42 53
32 42 53
32 42 53
32 42 53
32 42 53
32 42 53
32 42 53
32 42 53
32 42 53
32 42 53
32 42 53
32 42 53
32 42 53
32 42 53
32 42 53
32 42 53
32 42 53
32 42 53
32 42 53
32 42 53
32 42 53
32 42 53
32 42 53
32 42 53
32 42 53
32 42 53
32 42 53
32 42 53
32 42 53
32 42 53
32 42 53
32 42 53
32 42 53
32 42 53
32 42 53
32 42 53
32 42 53
32 42 53
32 42 53
32 42 53
32 42 53
32 42 53
32 42 53
32 42 53
32 42 53
32 42 53
32 42 53
32 42 53
32 42 53
32 42 53
32 42 53
32 42 53
32 42 53
32 42 53
32 42 53
32 42 53
32 42 53
32 42 53
32 42 53
32 42 53
32 42 53
32 42 53
32 42 53
32 42 53
32 42 53
32 42 53
32 42 53
32 42 53
32 42 53
32 42 53
32 42 53
32 42 53
32 42 53
32 42 53
32 42 53
32 42 53
32 42 53
32 42 53
32 42 53
32 42 53
32 42 53
32 42 53
32 42 53
32 42 53
32 42 53
32 42 53
32 42 53
32 42 53
32 42 53
32 42 53
32 42 53
32 42 53
32 42 53
32 42 53
32 42 53
32 42 53
32 42 53
32 42 53
32 42 53
32 42 53
32 42 53
32 42 53
32 42 53
32 42 53
32 42 53
32 42 53
32 42 53
32 42 53
32 42 53
32 42 53
32 42 53
32 42 53
32 42 53
32 42 53
32 42 53
32 42 53
32 42 53
32 42 53
32 42 53
32 42 53
32 42 53
32 42 53
32 42 53
32 42 53
32 42 53
32 42 53
32 42 53
32 42 53
32 42 53
32 42 53
32 42 53
32 42 53
32 42 53
32 42 53
32 42 53
32 42 53
32 42 53
32 42 53
32 42 53
32 42 53
32 42 53
32 42 53
32 42 53
32 42 53
32 42 53
32 42 53
32 42 53
32 42 53
32 42 53
32 42 53
32 42 53
32 42 53
32 42 53
32 42 53
32 42 53
32 42 53
32 42 53
32 42 53
32 42 53
32 42 53
32 42 53
32 42 53
32 42 53
32 42 53
32 42 53
32 42 53
32 42 53
32 42 53
32 42 53
32 42 53
32 42 53
32 42 53
32 42 53
32 42 53
32 42 53
32 42 53
32 42 53
32 42 53
32 42 53
32 42 53
32 42 53
32 42 53
32 42 53
32 42 53
32 42 53
32 42 53
32 42 53
32 42 53
32 42 53
32 42 53
32 42 53
32 42 53
32 42 53
32 42 53
32 42 53
32 42 53
32 42 53
32 42 53
32 42 53
32 42 53
32 42 53
32 42 53
32 42 53
32 42 53
32 42 53
32 42 53
32 42 53
32 42 53
32 42 53
32 42 53
32 42 53
32 42 53
32 42 53
32 42 53
32 42 53
32 42 53
32 42 53
32 42 53
32 42 53
32 42 53
32 42 53
32 42 53
32 42 53
32 42 53
32 42 53
32 42 53
32 42 53
32 42 53
32 42 53
32 42 53
32 42 53
32 42 53
32 42 53
32 42 53
32 42 53
32 42 53
32 42 53
32 42 53
32 42 53
32 42 53
32 42 53
32 42 53
32 42 53
32 42 53
32 42 53
32 42 53
32 42 53
32 42 53
32 42 53
32 42 53
32 42 53
32 42 53
32 42 53
32 42 53
32 42 53
32 42 53
32 42 53
32 42 53
32 42 53
32 42 53
32 42 53
32 42 53
32 42 53
32 42 53
32 42 53
32 42 53
32 42 53
32 42 53
32 42 53
32 42 53
32 42 53
32 42 53
32 42 53
32 42 53
32 42 53
32 42 53
32 42 53
32 42 53
32 42 53
32 42 53
32 42 53
32 42 53
32 42 53
32 42 53
32 42 53
106 124 145
106 124 145
17 24 32
17 24 32
17 24 32
17 24 32
17 24 32
17 24 32
17 24 32
17 24 32
17 24 32
17 24 32
17 24 32
17 24 32
17 24 32
17 24 32
17 24 32
17 24 32
17 24 32
17 24 32
17 24 32
17 24 32
17 24 32
17 24 32
17 24 32
17 24 32
106 124 145
106 124 145
32 42 53
32 42 53
32 42 53
32 42 53
32 42 53
32 42 53
32 42 53
32 42 53
32 42 53
32 42 53
32 42 53
32 42 53
32 42 53
32 42 53
32 42 53
32 42 53
32 42 53
32 42 53
32 42 53
32 42 53
32 42 53
32 42 53
32 42 53
32 42 53
32 42 53
32 42 53
32 42 53
32 42 53
32 42 53
32 42 53
32 42 53
32 42 53
32 42 53
32 42 53
32 42 53
32 42 53
32 42 53
32 42 53
32 42 53
32 42 53
167 139 250
167 139 250
167 139 250
167 139 250
167 139 250
167 139 250
167 139 250
167 139 250
167 139 250
167 139 250
167 139 250
167 139 250
167 139 250
167 139 250
167 139 250
167 139 250
167 139 250
167 139 250
167 139 250
167 139 250
167 139 250
167 139 250
167 139 250
167 139 250
167 139 250
167 139 250
167 139 250
167 139 250
167 139 250
167 139 250
167 139 250
167 139 250
167 139 250
167 139 250
167 139 250
167 139 250
167 139 250
167 139 250
167 139 250
167 139 250
167 139 250
167 139 250
167 139 250
167 139 250
167 139 250
167 139 250
167 139 250
167 139 250
32 42 53
32 42 53
32 42 53
32 42 53
32 42 53
32 42 53
32 42 53
32 42 53
32 42 53
32 42 53
32 42 53
32 42 53
32 42 53
32 42 53
32 42 53
32 42 53
32 42 53
32 42 53
32 42 53
32 42 53
32 42 53
32 42 53
32 42 53
32 42 53
32 42 53
32 42 53
32 42 53
32 42 53
32 42 53
32 42 53
32 42 53
32 42 53
32 42 53
32 42 53
32 42 53
32 42 53
32 42 53
32 42 53
32 42 53
32 42 53
32 42 53
32 42 53
32 42 53
32 42 53
32 42 53
32 42 53
32 42 53
32 42 53
32 42 53
32 42 53
32 42 53
32 42 53
32 42 53
32 42 53
32 42 53
32 42 53
32 42 53
32 42 53
32 42 53
32 42 53
32 42 53
32 42 53
32 42 53
32 42 53
32 42 53
32 42 53
32 42 53
32 42 53
32 42 53
32 42 53
32 42 53
32 42 53
32 42 53
32 42 53
32 42 53
32 42 53
32 42 53
32 42 53
32 42 53
32 42 53
32 42 53
32 42 53
32 42 53
32 42 53
32 42 53
32 42 53
32 42 53
32 42 53
32 42 53
32 42 53
32 42 53
32 42 53
32 42 53
32 42 53
32 42 53
32 42 53
32 42 53
32 42 53
32 42 53
32 42 53
32 42 53
32 42 53
32 42 53
32 42 53
32 42 53
32 42 53
32 42 53
32 42 53
32 42 53
32 42 53
32 42 53
32 42 53
32 42 53
32 42 53
32 42 53
32 42 53
32 42 53
32 42 53
32 42 53
32 42 53
32 42 53
32 42 53
32 42 53
32 42 53
32 42 53
32 42 53
32 42 53
32 42 53
32 42 53
32 42 53
32 42 53
32 42 53
32 42 53
32 42 53
32 42 53
32 42 53
32 42 53
32 42 53
32 42 53
32 42 53
32 42 53
32 42 53
32 42 53
32 42 53
32 42 53
32 42 53
32 42 53
32 42 53
32 42 53
32 42 53
32 42 53
32 42 53
32 42 53
32 42 53
32 42 53
32 42 53
32 42 53
32 42 53
32 42 53
32 42 53
32 42 53
32 42 53
32 42 53
32 42 53
32 42 53
32 42 53
32 42 53
32 42 53
32 42 53
32 42 53
32 42 53
32 42 53
32 42 53
32 42 53
32 42 53
32 42 53
32 42 53
32 42 53
32 42 53
32 42 53
32 42 53
32 42 53
32 42 53
32 42 53
32 42 53
32 42 53
32 42 53
32 42 53
32 42 53
32 42 53
32 42 53
32 42 53
32 42 53
32 42 53
32 42 53
32 42 53
32 42 53
32 42 53
32 42 53
32 42 53
32 42 53
32 42 53
32 42 53
32 42 53
106 124 145
106 124 145
17 24 32
17 24 32
17 24 32
17 24 32
17 24 32
17 24 32
17 24 32
17 24 32
17 24 32
17 24 32
17 24 32
17 24 32
17 24 32
17 24 32
17 24 32
17 24 32
17 24 32
17 24 32
17 24 32
17 24 32
17 24 32
17 24 32
17 24 32
17 24 32
106 124 145
106 124 145
32 42 53
32 42 53
32 42 53
32 42 53
32 42 53
32 42 53
32 42 53
32 42 53
32 42 53
32 42 53
32 42 53
32 42 53
32 42 53
32 42 53
32 42 53
32 42 53
32 42 53
32 42 53
32 42 53
32 42 53
32 42 53
32 42 53
32 42 53
32 42 53
32 42 53
32 42 53
32 42 53
32 42 53
32 42 53
32 42 53
32 42 53
32 42 53
32 42 53
32 42 53
32 42 53
32 42 53
32 42 53
32 42 53
32 42 53
32 42 53
167 139 250
167 139 250
167 139 250
167 139 250
167 139 250
167 139 250
167 139 250
167 139 250
167 139 250
167 139 250
167 139 250
167 139 250
167 139 250
167 139 250
167 139 250
167 139 250
167 139 250
167 139 250
167 139 250
167 139 250
167 139 250
167 139 250
167 139 250
167 139 250
167 139 250
167 139 250
167 139 250
167 139 250
167 139 250
167 139 250
167 139 250
167 139 250
167 139 250
167 139 250
167 139 250
167 139 250
167 139 250
167 139 250
167 139 250
167 139 250
167 139 250
167 139 250
167 139 250
167 139 250
167 139 250
167 139 250
167 139 250
167 139 250
32 42 53
32 42 53
32 42 53
32 42 53
32 42 53
32 42 53
32 42 53
32 42 53
32 42 53
32 42 53
32 42 53
32 42 53
32 42 53
32 42 53
32 42 53
32 42 53
32 42 53
32 42 53
32 42 53
32 42 53
32 42 53
32 42 53
32 42 53
32 42 53
32 42 53
32 42 53
32 42 53
32 42 53
32 42 53
32 42 53
32 42 53
32 42 53
32 42 53
32 42 53
32 42 53
32 42 53
32 42 53
32 42 53
32 42 53
32 42 53
32 42 53
32 42 53
32 42 53
32 42 53
32 42 53
32 42 53
32 42 53
32 42 53
32 42 53
32 42 53
32 42 53
32 42 53
32 42 53
32 42 53
32 42 53
32 42 53
32 42 53
32 42 53
32 42 53
32 42 53
32 42 53
32 42 53
32 42 53
32 42 53
32 42 53
32 42 53
32 42 53
32 42 53
32 42 53
32 42 53
32 42 53
32 42 53
32 42 53
32 42 53
32 42 53
32 42 53
32 42 53
32 42 53
32 42 53
32 42 53
32 42 53
32 42 53
32 42 53
32 42 53
32 42 53
32 42 53
32 42 53
32 42 53
32 42 53
32 42 53
32 42 53
32 42 53
32 42 53
32 42 53
32 42 53
32 42 53
32 42 53
32 42 53
32 42 53
32 42 53
32 42 53
32 42 53
32 42 53
32 42 53
32 42 53
32 42 53
32 42 53
32 42 53
32 42 53
32 42 53
32 42 53
32 42 53
32 42 53
32 42 53
32 42 53
32 42 53
32 42 53
32 42 53
32 42 53
32 42 53
32 42 53
32 42 53
32 42 53
32 42 53
32 42 53
32 42 53
32 42 53
32 42 53
32 42 53
32 42 53
32 42 53
32 42 53
32 42 53
32 42 53
32 42 53
32 42 53
32 42 53
32 42 53
32 42 53
32 42 53
32 42 53
32 42 53
32 42 53
32 42 53
32 42 53
32 42 53
32 42 53
32 42 53
32 42 53
32 42 53
32 42 53
32 42 53
32 42 53
32 42 53
32 42 53
32 42 53
32 42 53
32 42 53
32 42 53
32 42 53
32 42 53
32 42 53
32 42 53
32 42 53
32 42 53
32 42 53
32 42 53
32 42 53
32 42 53
32 42 53
32 42 53
32 42 53
32 42 53
32 42 53
32 42 53
32 42 53
32 42 53
32 42 53
32 42 53
32 42 53
32 42 53
32 42 53
32 42 53
32 42 53
32 42 53
32 42 53
32 42 53
32 42 53
32 42 53
32 42 53
32 42 53
32 42 53
32 42 53
32 42 53
32 42 53
32 42 53
32 42 53
32 42 53
32 42 53
32 42 53
32 42 53
32 42 53
32 42 53
32 42 53
106 124 145
106 124 145
17 24 32
17 24 32
17 24 32
17 24 32
17 24 32
17 24 32
17 24 32
17 24 32
17 24 32
17 24 32
17 24 32
17 24 32
17 24 32
17 24 32
17 24 32
17 24 32
17 24 32
17 24 32
17 24 32
17 24 32
17 24 32
17 24 32
17 24 32
17 24 32
106 124 145
106 124 145
32 42 53
32 42 53
32 42 53
32 42 53
32 42 53
32 42 53
32 42 53
32 42 53
32 42 53
32 42 53
32 42 53
32 42 53
32 42 53
32 42 53
32 42 53
32 42 53
32 42 53
32 42 53
32 42 53
32 42 53
32 42 53
32 42 53
32 42 53
32 42 53
32 42 53
32 42 53
32 42 53
32 42 53
32 42 53
32 42 53
32 42 53
32 42 53
32 42 53
32 42 53
32 42 53
32 42 53
32 42 53
32 42 53
32 42 53
32 42 53
167 139 250
167 139 250
167 139 250
167 139 250
167 139 250
167 139 250
167 139 250
167 139 250
167 139 250
167 139 250
167 139 250
167 139 250
167 139 250
167 139 250
167 139 250
167 139 250
167 139 250
167 139 250
167 139 250
167 139 250
167 139 250
167 139 250
167 139 250
167 139 250
167 139 250
167 139 250
167 139 250
167 139 250
167 139 250
167 139 250
167 139 250
167 139 250
167 139 250
167 139 250
167 139 250
167 139 250
167 139 250
167 139 250
167 139 250
167 139 250
167 139 250
167 139 250
167 139 250
167 139 250
167 139 250
167 139 250
167 139 250
167 139 250
32 42 53
32 42 53
32 42 53
32 42 53
32 42 53
32 42 53
32 42 53
32 42 53
32 42 53
32 42 53
32 42 53
32 42 53
32 42 53
32 42 53
32 42 53
32 42 53
32 42 53
32 42 53
32 42 53
32 42 53
32 42 53
32 42 53
32 42 53
32 42 53
32 42 53
32 42 53
32 42 53
32 42 53
32 42 53
32 42 53
32 42 53
32 42 53
32 42 53
32 42 53
32 42 53
32 42 53
32 42 53
32 42 53
32 42 53
32 42 53
32 42 53
32 42 53
32 42 53
32 42 53
32 42 53
32 42 53
32 42 53
32 42 53
32 42 53
32 42 53
32 42 53
32 42 53
32 42 53
32 42 53
32 42 53
32 42 53
32 42 53
32 42 53
32 42 53
32 42 53
32 42 53
32 42 53
32 42 53
32 42 53
32 42 53
32 42 53
32 42 53
32 42 53
32 42 53
32 42 53
32 42 53
32 42 53
32 42 53
32 42 53
32 42 53
32 42 53
32 42 53
32 42 53
32 42 53
32 42 53
32 42 53
32 42 53
32 42 53
32 42 53
32 42 53
32 42 53
32 42 53
32 42 53
32 42 53
32 42 53
32 42 53
32 42 53
32 42 53
32 42 53
32 42 53
32 42 53
32 42 53
32 42 53
32 42 53
32 42 53
32 42 53
32 42 53
32 42 53
32 42 53
32 42 53
32 42 53
32 42 53
32 42 53
32 42 53
32 42 53
32 42 53
32 42 53
32 42 53
32 42 53
32 42 53
32 42 53
32 42 53
32 42 53
32 42 53
32 42 53
32 42 53
32 42 53
32 42 53
32 42 53
32 42 53
32 42 53
32 42 53
32 42 53
32 42 53
32 42 53
32 42 53
32 42 53
32 42 53
32 42 53
32 42 53
32 42 53
32 42 53
32 42 53
32 42 53
32 42 53
32 42 53
32 42 53
32 42 53
32 42 53
32 42 53
32 42 53
32 42 53
32 42 53
32 42 53
32 42 53
32 42 53
32 42 53
32 42 53
32 42 53
32 42 53
32 42 53
32 42 53
32 42 53
32 42 53
32 42 53
32 42 53
32 42 53
32 42 53
32 42 53
32 42 53
32 42 53
32 42 53
32 42 53
32 42 53
32 42 53
32 42 53
32 42 53
32 42 53
32 42 53
32 42 53
32 42 53
32 42 53
32 42 53
32 42 53
32 42 53
32 42 53
32 42 53
32 42 53
32 42 53
32 42 53
32 42 53
32 42 53
32 42 53
32 42 53
32 42 53
32 42 53
32 42 53
32 42 53
32 42 53
32 42 53
32 42 53
32 42 53
32 42 53
32 42 53
32 42 53
32 42 53
32 42 53
32 42 53
32 42 53
106 124 145
106 124 145
17 24 32
17 24 32
17 24 32
17 24 32
17 24 32
17 24 32
17 24 32
17 24 32
17 24 32
17 24 32
17 24 32
17 24 32
17 24 32
17 24 32
17 24 32
17 24 32
17 24 32
17 24 32
17 24 32
17 24 32
17 24 32
17 24 32
17 24 32
17 24 32
106 124 145
106 124 145
32 42 53
32 42 53
32 42 53
32 42 53
32 42 53
32 42 53
32 42 53
32 42 53
32 42 53
32 42 53
32 42 53
32 42 53
32 42 53
32 42 53
32 42 53
32 42 53
32 42 53
32 42 53
32 42 53
32 42 53
32 42 53
32 42 53
32 42 53
32 42 53
32 42 53
32 42 53
32 42 53
32 42 53
32 42 53
32 42 53
32 42 53
32 42 53
32 42 53
32 42 53
32 42 53
32 42 53
32 42 53
32 42 53
32 42 53
32 42 53
167 139 250
167 139 250
167 139 250
167 139 250
167 139 250
167 139 250
167 139 250
167 139 250
167 139 250
167 139 250
167 139 250
167 139 250
167 139 250
167 139 250
167 139 250
167 139 250
167 139 250
167 139 250
167 139 250
167 139 250
167 139 250
167 139 250
167 139 250
167 139 250
167 139 250
167 139 250
167 139 250
167 139 250
167 139 250
167 139 250
167 139 250
167 139 250
167 139 250
167 139 250
167 139 250
167 139 250
167 139 250
167 139 250
167 139 250
167 139 250
167 139 250
167 139 250
167 139 250
167 139 250
167 139 250
167 139 250
167 139 250
167 139 250
32 42 53
32 42 53
32 42 53
32 42 53
32 42 53
32 42 53
32 42 53
32 42 53
32 42 53
32 42 53
32 42 53
32 42 53
32 42 53
32 42 53
32 42 53
32 42 53
32 42 53
32 42 53
32 42 53
32 42 53
32 42 53
32 42 53
32 42 53
32 42 53
32 42 53
32 42 53
32 42 53
32 42 53
32 42 53
32 42 53
32 42 53
32 42 53
32 42 53
32 42 53
32 42 53
32 42 53
32 42 53
32 42 53
32 42 53
32 42 53
32 42 53
32 42 53
32 42 53
32 42 53
32 42 53
32 42 53
32 42 53
32 42 53
32 42 53
32 42 53
32 42 53
32 42 53
32 42 53
32 42 53
32 42 53
32 42 53
32 42 53
32 42 53
32 42 53
32 42 53
32 42 53
32 42 53
32 42 53
32 42 53
32 42 53
32 42 53
32 42 53
32 42 53
32 42 53
32 42 53
32 42 53
32 42 53
32 42 53
32 42 53
32 42 53
32 42 53
32 42 53
32 42 53
32 42 53
32 42 53
32 42 53
32 42 53
32 42 53
32 42 53
32 42 53
32 42 53
32 42 53
32 42 53
32 42 53
32 42 53
32 42 53
32 42 53
32 42 53
32 42 53
32 42 53
32 42 53
32 42 53
32 42 53
32 42 53
32 42 53
32 42 53
32 42 53
32 42 53
32 42 53
32 42 53
32 42 53
32 42 53
32 42 53
32 42 53
32 42 53
32 42 53
32 42 53
32 42 53
32 42 53
32 42 53
32 42 53
32 42 53
32 42 53
32 42 53
32 42 53
32 42 53
32 42 53
32 42 53
32 42 53
32 42 53
32 42 53
32 42 53
32 42 53
32 42 53
32 42 53
32 42 53
32 42 53
32 42 53
32 42 53
32 42 53
32 42 53
32 42 53
32 42 53
32 42 53
32 42 53
32 42 53
32 42 53
32 42 53
32 42 53
32 42 53
32 42 53
32 42 53
32 42 53
32 42 53
32 42 53
32 42 53
32 42 53
32 42 53
32 42 53
32 42 53
32 42 53
32 42 53
32 42 53
32 42 53
32 42 53
32 42 53
32 42 53
32 42 53
32 42 53
32 42 53
32 42 53
32 42 53
32 42 53
32 42 53
32 42 53
32 42 53
32 42 53
32 42 53
32 42 53
32 42 53
32 42 53
32 42 53
32 42 53
32 42 53
32 42 53
32 42 53
32 42 53
32 42 53
32 42 53
32 42 53
32 42 53
32 42 53
32 42 53
32 42 53
32 42 53
32 42 53
32 42 53
32 42 53
32 42 53
32 42 53
32 42 53
32 42 53
32 42 53
32 42 53
32 42 53
32 42 53
32 42 53
32 42 53
32 42 53
106 124 145
106 124 145
17 24 32
17 24 32
17 24 32
17 24 32
17 24 32
17 24 32
17 24 32
17 24 32
17 24 32
17 24 32
17 24 32
17 24 32
17 24 32
17 24 32
17 24 32
17 24 32
17 24 32
17 24 32
17 24 32
17 24 32
17 24 32
17 24 32
17 24 32
17 24 32
106 124 145
106 124 145
32 42 53
32 42 53
32 42 53
32 42 53
32 42 53
32 42 53
32 42 53
32 42 53
32 42 53
32 42 53
32 42 53
32 42 53
32 42 53
32 42 53
32 42 53
32 42 53
32 42 53
32 42 53
32 42 53
32 42 53
32 42 53
32 42 53
32 42 53
32 42 53
32 42 53
32 42 53
32 42 53
32 42 53
32 42 53
32 42 53
32 42 53
32 42 53
32 42 53
32 42 53
32 42 53
32 42 53
32 42 53
32 42 53
32 42 53
32 42 53
167 139 250
167 139 250
167 139 250
167 139 250
167 139 250
167 139 250
167 139 250
167 139 250
167 139 250
167 139 250
167 139 250
167 139 250
167 139 250
167 139 250
167 139 250
167 139 250
167 139 250
167 139 250
167 139 250
167 139 250
167 139 250
167 139 250
167 139 250
167 139 250
167 139 250
167 139 250
167 139 250
167 139 250
167 139 250
167 139 250
167 139 250
167 139 250
167 139 250
167 139 250
167 139 250
167 139 250
167 139 250
167 139 250
167 139 250
167 139 250
167 139 250
167 139 250
167 139 250
167 139 250
167 139 250
167 139 250
167 139 250
167 139 250
32 42 53
32 42 53
32 42 53
32 42 53
32 42 53
32 42 53
32 42 53
32 42 53
32 42 53
32 42 53
32 42 53
32 42 53
32 42 53
32 42 53
32 42 53
32 42 53
32 42 53
32 42 53
32 42 53
32 42 53
32 42 53
32 42 53
32 42 53
32 42 53
32 42 53
32 42 53
32 42 53
32 42 53
32 42 53
32 42 53
32 42 53
32 42 53
32 42 53
32 42 53
32 42 53
32 42 53
32 42 53
32 42 53
32 42 53
32 42 53
32 42 53
32 42 53
32 42 53
32 42 53
32 42 53
32 42 53
32 42 53
32 42 53
32 42 53
32 42 53
32 42 53
32 42 53
32 42 53
32 42 53
32 42 53
32 42 53
32 42 53
32 42 53
32 42 53
32 42 53
32 42 53
32 42 53
32 42 53
32 42 53
32 42 53
32 42 53
32 42 53
32 42 53
32 42 53
32 42 53
32 42 53
32 42 53
32 42 53
32 42 53
32 42 53
32 42 53
32 42 53
32 42 53
32 42 53
32 42 53
32 42 53
32 42 53
32 42 53
32 42 53
32 42 53
32 42 53
32 42 53
32 42 53
32 42 53
32 42 53
32 42 53
32 42 53
32 42 53
32 42 53
32 42 53
32 42 53
32 42 53
32 42 53
32 42 53
32 42 53
32 42 53
32 42 53
32 42 53
32 42 53
32 42 53
32 42 53
32 42 53
32 42 53
32 42 53
32 42 53
32 42 53
32 42 53
32 42 53
32 42 53
32 42 53
32 42 53
32 42 53
32 42 53
32 42 53
32 42 53
32 42 53
32 42 53
32 42 53
32 42 53
32 42 53
32 42 53
32 42 53
32 42 53
32 42 53
32 42 53
32 42 53
32 42 53
32 42 53
32 42 53
32 42 53
32 42 53
32 42 53
32 42 53
32 42 53
32 42 53
32 42 53
32 42 53
32 42 53
32 42 53
32 42 53
32 42 53
32 42 53
32 42 53
32 42 53
32 42 53
32 42 53
32 42 53
32 42 53
32 42 53
32 42 53
32 42 53
32 42 53
32 42 53
32 42 53
32 42 53
32 42 53
32 42 53
32 42 53
32 42 53
32 42 53
32 42 53
32 42 53
32 42 53
32 42 53
32 42 53
32 42 53
32 42 53
32 42 53
32 42 53
32 42 53
32 42 53
32 42 53
32 42 53
32 42 53
32 42 53
32 42 53
32 42 53
32 42 53
32 42 53
32 42 53
32 42 53
32 42 53
32 42 53
32 42 53
32 42 53
32 42 53
32 42 53
32 42 53
32 42 53
32 42 53
32 42 53
32 42 53
32 42 53
32 42 53
32 42 53
32 42 53
32 42 53
32 42 53
32 42 53
106 124 145
106 124 145
17 24 32
17 24 32
17 24 32
17 24 32
17 24 32
17 24 32
17 24 32
17 24 32
17 24 32
17 24 32
17 24 32
17 24 32
17 24 32
17 24 32
17 24 32
17 24 32
17 24 32
17 24 32
17 24 32
17 24 32
17 24 32
17 24 32
17 24 32
17 24 32
106 124 145
106 124 145
32 42 53
32 42 53
32 42 53
32 42 53
32 42 53
32 42 53
32 42 53
32 42 53
32 42 53
32 42 53
32 42 53
32 42 53
32 42 53
32 42 53
32 42 53
32 42 53
32 42 53
32 42 53
32 42 53
32 42 53
32 42 53
32 42 53
32 42 53
32 42 53
32 42 53
32 42 53
32 42 53
32 42 53
32 42 53
32 42 53
32 42 53
32 42 53
32 42 53
32 42 53
32 42 53
32 42 53
32 42 53
32 42 53
32 42 53
32 42 53
167 139 250
167 139 250
167 139 250
167 139 250
167 139 250
167 139 250
167 139 250
167 139 250
167 139 250
167 139 250
167 139 250
167 139 250
167 139 250
167 139 250
167 139 250
167 139 250
167 139 250
167 139 250
167 139 250
167 139 250
167 139 250
167 139 250
167 139 250
167 139 250
167 139 250
167 139 250
167 139 250
167 139 250
167 139 250
167 139 250
167 139 250
167 139 250
167 139 250
167 139 250
167 139 250
167 139 250
167 139 250
167 139 250
167 139 250
167 139 250
167 139 250
167 139 250
167 139 250
167 139 250
167 139 250
167 139 250
167 139 250
167 139 250
32 42 53
32 42 53
32 42 53
32 42 53
32 42 53
32 42 53
32 42 53
32 42 53
32 42 53
32 42 53
32 42 53
32 42 53
32 42 53
32 42 53
32 42 53
32 42 53
32 42 53
32 42 53
32 42 53
32 42 53
32 42 53
32 42 53
32 42 53
32 42 53
32 42 53
32 42 53
32 42 53
32 42 53
32 42 53
32 42 53
32 42 53
32 42 53
32 42 53
32 42 53
32 42 53
32 42 53
32 42 53
32 42 53
32 42 53
32 42 53
32 42 53
32 42 53
32 42 53
32 42 53
32 42 53
32 42 53
32 42 53
32 42 53
32 42 53
32 42 53
32 42 53
32 42 53
32 42 53
32 42 53
32 42 53
32 42 53
32 42 53
32 42 53
32 42 53
32 42 53
32 42 53
32 42 53
32 42 53
32 42 53
32 42 53
32 42 53
32 42 53
32 42 53
32 42 53
32 42 53
32 42 53
32 42 53
32 42 53
32 42 53
32 42 53
32 42 53
32 42 53
32 42 53
32 42 53
32 42 53
32 42 53
32 42 53
32 42 53
32 42 53
32 42 53
32 42 53
32 42 53
32 42 53
32 42 53
32 42 53
32 42 53
32 42 53
32 42 53
32 42 53
32 42 53
32 42 53
32 42 53
32 42 53
32 42 53
32 42 53
32 42 53
32 42 53
32 42 53
32 42 53
32 42 53
32 42 53
32 42 53
32 42 53
32 42 53
32 42 53
32 42 53
32 42 53
32 42 53
32 42 53
32 42 53
32 42 53
32 42 53
32 42 53
32 42 53
32 42 53
32 42 53
32 42 53
32 42 53
32 42 53
32 42 53
32 42 53
32 42 53
32 42 53
32 42 53
32 42 53
32 42 53
32 42 53
32 42 53
32 42 53
32 42 53
32 42 53
32 42 53
32 42 53
32 42 53
32 42 53
32 42 53
32 42 53
32 42 53
32 42 53
32 42 53
32 42 53
32 42 53
32 42 53
32 42 53
32 42 53
32 42 53
32 42 53
32 42 53
32 42 53
32 42 53
32 42 53
32 42 53
32 42 53
32 42 53
32 42 53
32 42 53
32 42 53
32 42 53
32 42 53
32 42 53
32 42 53
32 42 53
32 42 53
32 42 53
32 42 53
32 42 53
32 42 53
32 42 53
32 42 53
32 42 53
32 42 53
32 42 53
32 42 53
32 42 53
32 42 53
32 42 53
32 42 53
32 42 53
32 42 53
32 42 53
32 42 53
32 42 53
32 42 53
32 42 53
32 42 53
32 42 53
32 42 53
32 42 53
32 42 53
32 42 53
32 42 53
32 42 53
32 42 53
32 42 53
32 42 53
32 42 53
32 42 53
32 42 53
32 42 53
106 124 145
106 124 145
17 24 32
17 24 32
17 24 32
17 24 32
17 24 32
17 24 32
17 24 32
17 24 32
17 24 32
17 24 32
17 24 32
17 24 32
17 24 32
17 24 32
17 24 32
17 24 32
17 24 32
17 24 32
17 24 32
17 24 32
17 24 32
17 24 32
17 24 32
17 24 32
106 124 145
106 124 145
32 42 53
32 42 53
32 42 53
32 42 53
32 42 53
32 42 53
32 42 53
32 42 53
32 42 53
32 42 53
32 42 53
32 42 53
32 42 53
32 42 53
32 42 53
32 42 53
32 42 53
32 42 53
32 42 53
32 42 53
32 42 53
32 42 53
32 42 53
32 42 53
32 42 53
32 42 53
32 42 53
32 42 53
32 42 53
32 42 53
32 42 53
32 42 53
32 42 53
32 42 53
32 42 53
32 42 53
32 42 53
32 42 53
32 42 53
32 42 53
167 139 250
167 139 250
167 139 250
167 139 250
167 139 250
167 139 250
167 139 250
167 139 250
167 139 250
167 139 250
167 139 250
167 139 250
167 139 250
167 139 250
167 139 250
167 139 250
167 139 250
167 139 250
167 139 250
167 139 250
167 139 250
167 139 250
167 139 250
167 139 250
167 139 250
167 139 250
167 139 250
167 139 250
167 139 250
167 139 250
167 139 250
167 139 250
167 139 250
167 139 250
167 139 250
167 139 250
167 139 250
167 139 250
167 139 250
167 139 250
167 139 250
167 139 250
167 139 250
167 139 250
167 139 250
167 139 250
167 139 250
167 139 250
32 42 53
32 42 53
32 42 53
32 42 53
32 42 53
32 42 53
32 42 53
32 42 53
32 42 53
32 42 53
32 42 53
32 42 53
32 42 53
32 42 53
32 42 53
32 42 53
32 42 53
32 42 53
32 42 53
32 42 53
32 42 53
32 42 53
32 42 53
32 42 53
32 42 53
32 42 53
32 42 53
32 42 53
32 42 53
32 42 53
32 42 53
32 42 53
32 42 53
32 42 53
32 42 53
32 42 53
32 42 53
32 42 53
32 42 53
32 42 53
32 42 53
32 42 53
32 42 53
32 42 53
32 42 53
32 42 53
32 42 53
32 42 53
32 42 53
32 42 53
32 42 53
32 42 53
32 42 53
32 42 53
32 42 53
32 42 53
32 42 53
32 42 53
32 42 53
32 42 53
32 42 53
32 42 53
32 42 53
32 42 53
32 42 53
32 42 53
32 42 53
32 42 53
32 42 53
32 42 53
32 42 53
32 42 53
32 42 53
32 42 53
32 42 53
32 42 53
32 42 53
32 42 53
32 42 53
32 42 53
32 42 53
32 42 53
32 42 53
32 42 53
32 42 53
32 42 53
32 42 53
32 42 53
32 42 53
32 42 53
32 42 53
32 42 53
32 42 53
32 42 53
32 42 53
32 42 53
32 42 53
32 42 53
32 42 53
32 42 53
32 42 53
32 42 53
32 42 53
32 42 53
32 42 53
32 42 53
32 42 53
32 42 53
32 42 53
32 42 53
32 42 53
32 42 53
32 42 53
32 42 53
32 42 53
32 42 53
32 42 53
32 42 53
32 42 53
32 42 53
32 42 53
32 42 53
32 42 53
32 42 53
32 42 53
32 42 53
32 42 53
32 42 53
32 42 53
32 42 53
32 42 53
32 42 53
32 42 53
32 42 53
32 42 53
32 42 53
32 42 53
32 42 53
32 42 53
32 42 53
32 42 53
32 42 53
32 42 53
32 42 53
32 42 53
32 42 53
32 42 53
32 42 53
32 42 53
32 42 53
32 42 53
32 42 53
32 42 53
32 42 53
32 42 53
32 42 53
32 42 53
32 42 53
32 42 53
32 42 53
32 42 53
32 42 53
32 42 53
32 42 53
32 42 53
32 42 53
32 42 53
32 42 53
32 42 53
32 42 53
32 42 53
32 42 53
32 42 53
32 42 53
32 42 53
32 42 53
32 42 53
32 42 53
32 42 53
32 42 53
32 42 53
32 42 53
32 42 53
32 42 53
32 42 53
32 42 53
32 42 53
32 42 53
32 42 53
32 42 53
32 42 53
32 42 53
32 42 53
32 42 53
32 42 53
32 42 53
32 42 53
32 42 53
32 42 53
32 42 53
32 42 53
32 42 53
32 42 53
32 42 53
106 124 145
106 124 145
17 24 32
17 24 32
17 24 32
17 24 32
17 24 32
17 24 32
17 24 32
17 24 32
17 24 32
17 24 32
17 24 32
17 24 32
17 24 32
17 24 32
17 24 32
17 24 32
17 24 32
17 24 32
17 24 32
17 24 32
17 24 32
17 24 32
17 24 32
17 24 32
106 124 145
106 124 145
32 42 53
32 42 53
32 42 53
32 42 53
32 42 53
32 42 53
32 42 53
32 42 53
32 42 53
32 42 53
32 42 53
32 42 53
32 42 53
32 42 53
32 42 53
32 42 53
32 42 53
32 42 53
32 42 53
32 42 53
32 42 53
32 42 53
32 42 53
32 42 53
32 42 53
32 42 53
32 42 53
32 42 53
32 42 53
32 42 53
32 42 53
32 42 53
32 42 53
32 42 53
32 42 53
32 42 53
32 42 53
32 42 53
32 42 53
32 42 53
167 139 250
167 139 250
167 139 250
167 139 250
167 139 250
167 139 250
167 139 250
167 139 250
167 139 250
167 139 250
167 139 250
167 139 250
167 139 250
167 139 250
167 139 250
167 139 250
167 139 250
167 139 250
167 139 250
167 139 250
167 139 250
167 139 250
167 139 250
167 139 250
167 139 250
167 139 250
167 139 250
167 139 250
167 139 250
167 139 250
167 139 250
167 139 250
167 139 250
167 139 250
167 139 250
167 139 250
167 139 250
167 139 250
167 139 250
167 139 250
167 139 250
167 139 250
167 139 250
167 139 250
167 139 250
167 139 250
167 139 250
167 139 250
32 42 53
32 42 53
32 42 53
32 42 53
32 42 53
32 42 53
32 42 53
32 42 53
32 42 53
32 42 53
32 42 53
32 42 53
32 42 53
32 42 53
32 42 53
32 42 53
32 42 53
32 42 53
32 42 53
32 42 53
32 42 53
32 42 53
32 42 53
32 42 53
32 42 53
32 42 53
32 42 53
32 42 53
32 42 53
32 42 53
32 42 53
32 42 53
32 42 53
32 42 53
32 42 53
32 42 53
32 42 53
32 42 53
32 42 53
32 42 53
32 42 53
32 42 53
32 42 53
32 42 53
32 42 53
32 42 53
32 42 53
32 42 53
32 42 53
32 42 53
32 42 53
32 42 53
32 42 53
32 42 53
32 42 53
32 42 53
32 42 53
32 42 53
32 42 53
32 42 53
32 42 53
32 42 53
32 42 53
32 42 53
32 42 53
32 42 53
32 42 53
32 42 53
32 42 53
32 42 53
32 42 53
32 42 53
32 42 53
32 42 53
32 42 53
32 42 53
32 42 53
32 42 53
32 42 53
32 42 53
32 42 53
32 42 53
32 42 53
32 42 53
32 42 53
32 42 53
32 42 53
32 42 53
32 42 53
32 42 53
32 42 53
32 42 53
32 42 53
32 42 53
32 42 53
32 42 53
32 42 53
32 42 53
32 42 53
32 42 53
32 42 53
32 42 53
32 42 53
32 42 53
32 42 53
32 42 53
32 42 53
32 42 53
32 42 53
32 42 53
32 42 53
32 42 53
32 42 53
32 42 53
32 42 53
32 42 53
32 42 53
32 42 53
32 42 53
32 42 53
32 42 53
32 42 53
32 42 53
32 42 53
32 42 53
32 42 53
32 42 53
32 42 53
32 42 53
32 42 53
32 42 53
32 42 53
32 42 53
32 42 53
32 42 53
32 42 53
32 42 53
32 42 53
32 42 53
32 42 53
32 42 53
32 42 53
32 42 53
32 42 53
32 42 53
32 42 53
32 42 53
32 42 53
102 227 255
102 227 255
102 227 255
102 227 255
32 42 53
32 42 53
32 42 53
32 42 53
32 42 53
32 42 53
32 42 53
32 42 53
32 42 53
32 42 53
32 42 53
32 42 53
32 42 53
32 42 53
32 42 53
32 42 53
32 42 53
32 42 53
32 42 53
32 42 53
32 42 53
32 42 53
32 42 53
32 42 53
32 42 53
32 42 53
32 42 53
32 42 53
32 42 53
32 42 53
32 42 53
32 42 53
32 42 53
32 42 53
32 42 53
32 42 53
32 42 53
32 42 53
32 42 53
32 42 53
32 42 53
32 42 53
32 42 53
32 42 53
32 42 53
32 42 53
32 42 53
32 42 53
32 42 53
32 42 53
32 42 53
32 42 53
106 124 145
106 124 145
17 24 32
17 24 32
17 24 32
17 24 32
17 24 32
17 24 32
17 24 32
17 24 32
17 24 32
17 24 32
17 24 32
17 24 32
17 24 32
17 24 32
17 24 32
17 24 32
17 24 32
17 24 32
17 24 32
17 24 32
17 24 32
17 24 32
17 24 32
17 24 32
106 124 145
106 124 145
32 42 53
32 42 53
32 42 53
32 42 53
32 42 53
32 42 53
32 42 53
32 42 53
32 42 53
32 42 53
32 42 53
32 42 53
32 42 53
32 42 53
32 42 53
32 42 53
32 42 53
32 42 53
32 42 53
32 42 53
32 42 53
32 42 53
32 42 53
32 42 53
32 42 53
32 42 53
32 42 53
32 42 53
32 42 53
32 42 53
32 42 53
32 42 53
32 42 53
32 42 53
32 42 53
32 42 53
32 42 53
32 42 53
32 42 53
32 42 53
167 139 250
167 139 250
167 139 250
167 139 250
167 139 250
167 139 250
167 139 250
167 139 250
167 139 250
167 139 250
167 139 250
167 139 250
167 139 250
167 139 250
167 139 250
167 139 250
167 139 250
167 139 250
167 139 250
167 139 250
167 139 250
167 139 250
167 139 250
167 139 250
167 139 250
167 139 250
167 139 250
167 139 250
167 139 250
167 139 250
167 139 250
167 139 250
167 139 250
167 139 250
167 139 250
167 139 250
167 139 250
167 139 250
167 139 250
167 139 250
167 139 250
167 139 250
167 139 250
167 139 250
167 139 250
167 139 250
167 139 250
167 139 250
32 42 53
32 42 53
32 42 53
32 42 53
32 42 53
32 42 53
32 42 53
32 42 53
32 42 53
32 42 53
32 42 53
32 42 53
32 42 53
32 42 53
32 42 53
32 42 53
32 42 53
32 42 53
32 42 53
32 42 53
32 42 53
32 42 53
32 42 53
32 42 53
32 42 53
32 42 53
32 42 53
32 42 53
32 42 53
32 42 53
32 42 53
32 42 53
32 42 53
32 42 53
32 42 53
32 42 53
32 42 53
32 42 53
32 42 53
32 42 53
32 42 53
32 42 53
32 42 53
32 42 53
32 42 53
32 42 53
32 42 53
32 42 53
32 42 53
32 42 53
32 42 53
32 42 53
32 42 53
32 42 53
32 42 53
32 42 53
32 42 53
32 42 53
32 42 53
32 42 53
32 42 53
32 42 53
32 42 53
32 42 53
32 42 53
32 42 53
32 42 53
32 42 53
32 42 53
32 42 53
32 42 53
32 42 53
32 42 53
32 42 53
32 42 53
32 42 53
32 42 53
32 42 53
32 42 53
32 42 53
32 42 53
32 42 53
32 42 53
32 42 53
32 42 53
32 42 53
32 42 53
32 42 53
32 42 53
32 42 53
32 42 53
32 42 53
32 42 53
32 42 53
32 42 53
32 42 53
32 42 53
32 42 53
32 42 53
32 42 53
32 42 53
32 42 53
32 42 53
32 42 53
32 42 53
32 42 53
32 42 53
32 42 53
32 42 53
32 42 53
32 42 53
32 42 53
32 42 53
32 42 53
32 42 53
32 42 53
32 42 53
32 42 53
32 42 53
32 42 53
32 42 53
32 42 53
32 42 53
32 42 53
32 42 53
32 42 53
32 42 53
32 42 53
32 42 53
32 42 53
32 42 53
32 42 53
32 42 53
32 42 53
32 42 53
32 42 53
32 42 53
32 42 53
32 42 53
32 42 53
32 42 53
32 42 53
32 42 53
32 42 53
32 42 53
102 227 255
102 227 255
102 227 255
102 227 255
102 227 255
102 227 255
102 227 255
32 42 53
32 42 53
32 42 53
32 42 53
32 42 53
32 42 53
32 42 53
32 42 53
32 42 53
32 42 53
32 42 53
32 42 53
32 42 53
32 42 53
32 42 53
32 42 53
32 42 53
32 42 53
32 42 53
32 42 53
32 42 53
32 42 53
32 42 53
32 42 53
32 42 53
32 42 53
32 42 53
32 42 53
32 42 53
32 42 53
32 42 53
32 42 53
32 42 53
32 42 53
32 42 53
32 42 53
32 42 53
32 42 53
32 42 53
32 42 53
32 42 53
32 42 53
32 42 53
32 42 53
32 42 53
32 42 53
32 42 53
32 42 53
32 42 53
32 42 53
32 42 53
32 42 53
106 124 145
106 124 145
17 24 32
17 24 32
17 24 32
17 24 32
17 24 32
17 24 32
17 24 32
17 24 32
17 24 32
17 24 32
17 24 32
17 24 32
17 24 32
17 24 32
17 24 32
17 24 32
17 24 32
17 24 32
17 24 32
17 24 32
17 24 32
17 24 32
17 24 32
17 24 32
106 124 145
106 124 145
32 42 53
32 42 53
32 42 53
32 42 53
32 42 53
32 42 53
32 42 53
32 42 53
32 42 53
32 42 53
32 42 53
32 42 53
32 42 53
32 42 53
32 42 53
32 42 53
32 42 53
32 42 53
32 42 53
32 42 53
32 42 53
32 42 53
32 42 53
32 42 53
32 42 53
32 42 53
32 42 53
32 42 53
32 42 53
32 42 53
32 42 53
32 42 53
32 42 53
32 42 53
32 42 53
32 42 53
32 42 53
32 42 53
32 42 53
32 42 53
167 139 250
167 139 250
167 139 250
167 139 250
167 139 250
167 139 250
167 139 250
167 139 250
167 139 250
167 139 250
167 139 250
167 139 250
167 139 250
167 139 250
167 139 250
167 139 250
167 139 250
167 139 250
167 139 250
167 139 250
167 139 250
167 139 250
167 139 250
167 139 250
167 139 250
167 139 250
167 139 250
167 139 250
167 139 250
167 139 250
167 139 250
167 139 250
167 139 250
167 139 250
167 139 250
167 139 250
167 139 250
167 139 250
167 139 250
167 139 250
167 139 250
167 139 250
167 139 250
167 139 250
167 139 250
167 139 250
167 139 250
167 139 250
32 42 53
32 42 53
32 42 53
32 42 53
32 42 53
32 42 53
32 42 53
32 42 53
32 42 53
32 42 53
32 42 53
32 42 53
32 42 53
32 42 53
32 42 53
32 42 53
32 42 53
32 42 53
32 42 53
32 42 53
32 42 53
32 42 53
32 42 53
32 42 53
32 42 53
32 42 53
32 42 53
32 42 53
32 42 53
32 42 53
32 42 53
32 42 53
32 42 53
32 42 53
32 42 53
32 42 53
32 42 53
32 42 53
32 42 53
32 42 53
32 42 53
32 42 53
32 42 53
32 42 53
32 42 53
32 42 53
32 42 53
32 42 53
32 42 53
32 42 53
32 42 53
32 42 53
32 42 53
32 42 53
32 42 53
32 42 53
32 42 53
32 42 53
32 42 53
32 42 53
32 42 53
32 42 53
32 42 53
32 42 53
32 42 53
32 42 53
32 42 53
32 42 53
32 42 53
32 42 53
32 42 53
32 42 53
32 42 53
32 42 53
32 42 53
32 42 53
32 42 53
32 42 53
32 42 53
32 42 53
32 42 53
32 42 53
32 42 53
32 42 53
32 42 53
32 42 53
32 42 53
32 42 53
32 42 53
32 42 53
32 42 53
32 42 53
32 42 53
32 42 53
32 42 53
32 42 53
32 42 53
32 42 53
32 42 53
32 42 53
32 42 53
32 42 53
32 42 53
32 42 53
32 42 53
32 42 53
32 42 53
32 42 53
32 42 53
32 42 53
32 42 53
32 42 53
32 42 53
32 42 53
32 42 53
32 42 53
32 42 53
32 42 53
32 42 53
32 42 53
32 42 53
32 42 53
32 42 53
32 42 53
32 42 53
32 42 53
32 42 53
32 42 53
32 42 53
32 42 53
32 42 53
32 42 53
32 42 53
32 42 53
32 42 53
32 42 53
32 42 53
32 42 53
32 42 53
32 42 53
32 42 53
32 42 53
102 227 255
102 227 255
102 227 255
102 227 255
102 227 255
102 227 255
102 227 255
102 227 255
102 227 255
102 227 255
32 42 53
32 42 53
32 42 53
32 42 53
32 42 53
32 42 53
32 42 53
32 42 53
32 42 53
32 42 53
32 42 53
32 42 53
32 42 53
32 42 53
32 42 53
32 42 53
32 42 53
32 42 53
32 42 53
32 42 53
32 42 53
32 42 53
32 42 53
32 42 53
32 42 53
32 42 53
32 42 53
32 42 53
32 42 53
32 42 53
32 42 53
32 42 53
32 42 53
32 42 53
32 42 53
32 42 53
32 42 53
32 42 53
32 42 53
32 42 53
32 42 53
32 42 53
32 42 53
32 42 53
32 42 53
32 42 53
32 42 53
32 42 53
32 42 53
32 42 53
32 42 53
32 42 53
106 124 145
106 124 145
17 24 32
17 24 32
17 24 32
17 24 32
17 24 32
17 24 32
17 24 32
17 24 32
17 24 32
17 24 32
17 24 32
17 24 32
17 24 32
17 24 32
17 24 32
17 24 32
17 24 32
17 24 32
17 24 32
17 24 32
17 24 32
17 24 32
17 24 32
17 24 32
106 124 145
106 124 145
32 42 53
32 42 53
32 42 53
32 42 53
32 42 53
32 42 53
32 42 53
32 42 53
32 42 53
32 42 53
32 42 53
32 42 53
32 42 53
32 42 53
32 42 53
32 42 53
32 42 53
32 42 53
32 42 53
32 42 53
32 42 53
32 42 53
32 42 53
32 42 53
32 42 53
32 42 53
32 42 53
32 42 53
32 42 53
32 42 53
32 42 53
32 42 53
32 42 53
32 42 53
32 42 53
32 42 53
32 42 53
32 42 53
32 42 53
32 42 53
167 139 250
167 139 250
167 139 250
167 139 250
167 139 250
167 139 250
167 139 250
167 139 250
167 139 250
167 139 250
167 139 250
167 139 250
167 139 250
167 139 250
167 139 250
167 139 250
167 139 250
167 139 250
167 139 250
167 139 250
167 139 250
167 139 250
167 139 250
167 139 250
167 139 250
167 139 250
167 139 250
167 139 250
167 139 250
167 139 250
167 139 250
167 139 250
167 139 250
167 139 250
167 139 250
167 139 250
167 139 250
167 139 250
167 139 250
167 139 250
167 139 250
167 139 250
167 139 250
167 139 250
167 139 250
167 139 250
167 139 250
167 139 250
32 42 53
32 42 53
32 42 53
32 42 53
32 42 53
32 42 53
32 42 53
32 42 53
32 42 53
32 42 53
32 42 53
32 42 53
32 42 53
32 42 53
32 42 53
32 42 53
32 42 53
32 42 53
32 42 53
32 42 53
32 42 53
32 42 53
32 42 53
32 42 53
32 42 53
32 42 53
32 42 53
32 42 53
32 42 53
32 42 53
32 42 53
32 42 53
32 42 53
32 42 53
32 42 53
32 42 53
32 42 53
32 42 53
32 42 53
32 42 53
32 42 53
32 42 53
32 42 53
32 42 53
32 42 53
32 42 53
32 42 53
32 42 53
32 42 53
32 42 53
32 42 53
32 42 53
32 42 53
32 42 53
32 42 53
32 42 53
32 42 53
32 42 53
32 42 53
32 42 53
32 42 53
32 42 53
32 42 53
32 42 53
32 42 53
32 42 53
32 42 53
32 42 53
32 42 53
32 42 53
32 42 53
32 42 53
32 42 53
32 42 53
32 42 53
32 42 53
32 42 53
32 42 53
32 42 53
32 42 53
32 42 53
32 42 53
32 42 53
32 42 53
32 42 53
32 42 53
32 42 53
32 42 53
32 42 53
32 42 53
32 42 53
32 42 53
32 42 53
32 42 53
32 42 53
32 42 53
32 42 53
32 42 53
32 42 53
32 42 53
32 42 53
32 42 53
32 42 53
32 42 53
32 42 53
32 42 53
32 42 53
32 42 53
32 42 53
32 42 53
32 42 53
32 42 53
32 42 53
32 42 53
32 42 53
32 42 53
32 42 53
32 42 53
32 42 53
32 42 53
32 42 53
32 42 53
32 42 53
32 42 53
32 42 53
32 42 53
32 42 53
32 42 53
32 42 53
32 42 53
32 42 53
32 42 53
32 42 53
32 42 53
32 42 53
32 42 53
32 42 53
32 42 53
32 42 53
102 227 255
102 227 255
102 227 255
102 227 255
102 227 255
102 227 255
102 227 255
102 227 255
102 227 255
102 227 255
102 227 255
32 42 53
32 42 53
32 42 53
32 42 53
32 42 53
32 42 53
32 42 53
32 42 53
32 42 53
32 42 53
32 42 53
32 42 53
32 42 53
32 42 53
32 42 53
32 42 53
32 42 53
32 42 53
32 42 53
32 42 53
32 42 53
32 42 53
32 42 53
32 42 53
32 42 53
32 42 53
32 42 53
32 42 53
32 42 53
32 42 53
32 42 53
32 42 53
32 42 53
32 42 53
32 42 53
32 42 53
32 42 53
32 42 53
32 42 53
32 42 53
32 42 53
32 42 53
32 42 53
32 42 53
32 42 53
32 42 53
32 42 53
32 42 53
32 42 53
32 42 53
32 42 53
32 42 53
32 42 53
32 42 53
106 124 145
106 124 145
17 24 32
17 24 32
17 24 32
17 24 32
17 24 32
17 24 32
17 24 32
17 24 32
17 24 32
17 24 32
17 24 32
17 24 32
17 24 32
17 24 32
17 24 32
17 24 32
17 24 32
17 24 32
17 24 32
17 24 32
17 24 32
17 24 32
17 24 32
17 24 32
106 124 145
106 124 145
32 42 53
32 42 53
32 42 53
32 42 53
32 42 53
32 42 53
32 42 53
32 42 53
32 42 53
32 42 53
32 42 53
32 42 53
32 42 53
32 42 53
32 42 53
32 42 53
32 42 53
32 42 53
32 42 53
32 42 53
32 42 53
32 42 53
32 42 53
32 42 53
32 42 53
32 42 53
32 42 53
32 42 53
32 42 53
32 42 53
32 42 53
32 42 53
32 42 53
32 42 53
32 42 53
32 42 53
32 42 53
32 42 53
32 42 53
32 42 53
167 139 250
167 139 250
167 139 250
167 139 250
167 139 250
167 139 250
167 139 250
167 139 250
167 139 250
167 139 250
167 139 250
167 139 250
167 139 250
167 139 250
167 139 250
167 139 250
167 139 250
167 139 250
167 139 250
167 139 250
167 139 250
167 139 250
167 139 250
167 139 250
167 139 250
167 139 250
167 139 250
167 139 250
167 139 250
167 139 250
167 139 250
167 139 250
167 139 250
167 139 250
167 139 250
167 139 250
167 139 250
167 139 250
167 139 250
167 139 250
167 139 250
167 139 250
167 139 250
167 139 250
167 139 250
167 139 250
167 139 250
167 139 250
32 42 53
32 42 53
32 42 53
32 42 53
32 42 53
32 42 53
32 42 53
32 42 53
32 42 53
32 42 53
32 42 53
32 42 53
32 42 53
32 42 53
32 42 53
32 42 53
32 42 53
32 42 53
32 42 53
32 42 53
32 42 53
32 42 53
32 42 53
32 42 53
32 42 53
32 42 53
32 42 53
32 42 53
32 42 53
32 42 53
32 42 53
32 42 53
32 42 53
32 42 53
32 42 53
32 42 53
32 42 53
32 42 53
32 42 53
32 42 53
32 42 53
32 42 53
32 42 53
32 42 53
32 42 53
32 42 53
32 42 53
32 42 53
32 42 53
32 42 53
32 42 53
32 42 53
102 227 255
102 227 255
102 227 255
102 227 255
102 227 255
32 42 53
32 42 53
32 42 53
32 42 53
32 42 53
32 42 53
32 42 53
32 42 53
32 42 53
32 42 53
32 42 53
32 42 53
32 42 53
32 42 53
32 42 53
32 42 53
32 42 53
32 42 53
32 42 53
32 42 53
32 42 53
32 42 53
32 42 53
32 42 53
32 42 53
32 42 53
32 42 53
32 42 53
32 42 53
32 42 53
32 42 53
32 42 53
32 42 53
32 42 53
32 42 53
32 42 53
32 42 53
32 42 53
32 42 53
32 42 53
32 42 53
32 42 53
32 42 53
32 42 53
32 42 53
32 42 53
32 42 53
32 42 53
32 42 53
32 42 53
32 42 53
32 42 53
32 42 53
32 42 53
32 42 53
32 42 53
32 42 53
32 42 53
32 42 53
32 42 53
32 42 53
32 42 53
32 42 53
32 42 53
32 42 53
32 42 53
32 42 53
32 42 53
32 42 53
32 42 53
32 42 53
32 42 53
32 42 53
32 42 53
32 42 53
32 42 53
32 42 53
32 42 53
32 42 53
32 42 53
102 227 255
102 227 255
102 227 255
102 227 255
102 227 255
102 227 255
102 227 255
102 227 255
102 227 255
102 227 255
32 42 53
32 42 53
32 42 53
32 42 53
32 42 53
32 42 53
32 42 53
32 42 53
32 42 53
32 42 53
32 42 53
32 42 53
32 42 53
32 42 53
32 42 53
32 42 53
32 42 53
32 42 53
32 42 53
32 42 53
32 42 53
32 42 53
32 42 53
32 42 53
32 42 53
32 42 53
32 42 53
32 42 53
32 42 53
32 42 53
32 42 53
32 42 53
32 42 53
32 42 53
32 42 53
32 42 53
32 42 53
32 42 53
32 42 53
32 42 53
32 42 53
32 42 53
32 42 53
32 42 53
32 42 53
32 42 53
32 42 53
32 42 53
32 42 53
32 42 53
32 42 53
32 42 53
32 42 53
32 42 53
32 42 53
32 42 53
32 42 53
106 124 145
106 124 145
17 24 32
17 24 32
17 24 32
17 24 32
17 24 32
17 24 32
17 24 32
17 24 32
17 24 32
17 24 32
17 24 32
17 24 32
17 24 32
17 24 32
17 24 32
17 24 32
17 24 32
17 24 32
17 24 32
17 24 32
17 24 32
17 24 32
17 24 32
17 24 32
106 124 145
106 124 145
32 42 53
32 42 53
32 42 53
32 42 53
32 42 53
32 42 53
32 42 53
32 42 53
32 42 53
32 42 53
32 42 53
32 42 53
32 42 53
32 42 53
32 42 53
32 42 53
32 42 53
32 42 53
32 42 53
32 42 53
32 42 53
32 42 53
32 42 53
32 42 53
32 42 53
32 42 53
32 42 53
32 42 53
32 42 53
32 42 53
32 42 53
32 42 53
32 42 53
32 42 53
32 42 53
32 42 53
32 42 53
32 42 53
32 42 53
32 42 53
167 139 250
167 139 250
167 139 250
167 139 250
167 139 250
167 139 250
167 139 250
167 139 250
167 139 250
167 139 250
167 139 250
167 139 250
167 139 250
167 139 250
167 139 250
167 139 250
167 139 250
167 139 250
167 139 250
167 139 250
167 139 250
167 139 250
167 139 250
167 139 250
167 139 250
167 139 250
167 139 250
167 139 250
167 139 250
167 139 250
167 139 250
167 139 250
167 139 250
167 139 250
167 139 250
167 139 250
167 139 250
167 139 250
167 139 250
167 139 250
167 139 250
167 139 250
167 139 250
167 139 250
167 139 250
167 139 250
167 139 250
167 139 250
32 42 53
32 42 53
32 42 53
32 42 53
32 42 53
32 42 53
32 42 53
32 42 53
32 42 53
32 42 53
32 42 53
32 42 53
32 42 53
32 42 53
32 42 53
32 42 53
32 42 53
32 42 53
32 42 53
32 42 53
32 42 53
32 42 53
32 42 53
32 42 53
32 42 53
32 42 53
32 42 53
32 42 53
32 42 53
32 42 53
32 42 53
32 42 53
32 42 53
32 42 53
32 42 53
32 42 53
32 42 53
32 42 53
32 42 53
32 42 53
32 42 53
32 42 53
32 42 53
32 42 53
32 42 53
32 42 53
32 42 53
32 42 53
32 42 53
32 42 53
102 227 255
102 227 255
102 227 255
102 227 255
102 227 255
102 227 255
102 227 255
102 227 255
102 227 255
102 227 255
32 42 53
32 42 53
32 42 53
32 42 53
32 42 53
32 42 53
32 42 53
32 42 53
32 42 53
32 42 53
32 42 53
32 42 53
32 42 53
32 42 53
32 42 53
32 42 53
32 42 53
32 42 53
32 42 53
32 42 53
32 42 53
32 42 53
32 42 53
32 42 53
32 42 53
32 42 53
32 42 53
32 42 53
32 42 53
32 42 53
32 42 53
32 42 53
32 42 53
32 42 53
32 42 53
32 42 53
32 42 53
32 42 53
32 42 53
32 42 53
32 42 53
32 42 53
32 42 53
32 42 53
32 42 53
32 42 53
32 42 53
32 42 53
32 42 53
32 42 53
32 42 53
32 42 53
32 42 53
32 42 53
32 42 53
32 42 53
32 42 53
32 42 53
32 42 53
32 42 53
32 42 53
32 42 53
32 42 53
32 42 53
32 42 53
32 42 53
32 42 53
32 42 53
32 42 53
32 42 53
32 42 53
32 42 53
32 42 53
32 42 53
102 227 255
102 227 255
102 227 255
102 227 255
102 227 255
102 227 255
102 227 255
102 227 255
102 227 255
102 227 255
32 42 53
32 42 53
32 42 53
32 42 53
32 42 53
32 42 53
32 42 53
32 42 53
32 42 53
32 42 53
32 42 53
32 42 53
32 42 53
32 42 53
32 42 53
32 42 53
32 42 53
32 42 53
32 42 53
32 42 53
32 42 53
32 42 53
32 42 53
32 42 53
32 42 53
32 42 53
32 42 53
32 42 53
32 42 53
32 42 53
32 42 53
32 42 53
32 42 53
32 42 53
32 42 53
32 42 53
32 42 53
32 42 53
32 42 53
32 42 53
32 42 53
32 42 53
32 42 53
32 42 53
32 42 53
32 42 53
32 42 53
32 42 53
32 42 53
32 42 53
32 42 53
32 42 53
32 42 53
32 42 53
32 42 53
32 42 53
32 42 53
32 42 53
32 42 53
32 42 53
106 124 145
106 124 145
17 24 32
17 24 32
17 24 32
17 24 32
17 24 32
17 24 32
17 24 32
17 24 32
17 24 32
17 24 32
17 24 32
17 24 32
17 24 32
17 24 32
17 24 32
17 24 32
17 24 32
17 24 32
17 24 32
17 24 32
17 24 32
17 24 32
17 24 32
17 24 32
106 124 145
106 124 145
32 42 53
32 42 53
32 42 53
32 42 53
32 42 53
32 42 53
32 42 53
32 42 53
32 42 53
32 42 53
32 42 53
32 42 53
32 42 53
32 42 53
32 42 53
32 42 53
32 42 53
32 42 53
32 42 53
32 42 53
32 42 53
32 42 53
32 42 53
32 42 53
32 42 53
32 42 53
32 42 53
32 42 53
32 42 53
32 42 53
32 42 53
32 42 53
32 42 53
32 42 53
32 42 53
32 42 53
32 42 53
32 42 53
32 42 53
32 42 53
167 139 250
167 139 250
167 139 250
167 139 250
167 139 250
167 139 250
167 139 250
167 139 250
167 139 250
167 139 250
167 139 250
167 139 250
167 139 250
167 139 250
167 139 250
167 139 250
167 139 250
167 139 250
167 139 250
167 139 250
167 139 250
167 139 250
167 139 250
167 139 250
167 139 250
167 139 250
167 139 250
167 139 250
167 139 250
167 139 250
167 139 250
167 139 250
167 139 250
167 139 250
167 139 250
167 139 250
167 139 250
167 139 250
167 139 250
167 139 250
167 139 250
167 139 250
167 139 250
167 139 250
167 139 250
167 139 250
167 139 250
167 139 250
32 42 53
32 42 53
32 42 53
32 42 53
32 42 53
32 42 53
32 42 53
32 42 53
32 42 53
32 42 53
32 42 53
32 42 53
32 42 53
32 42 53
32 42 53
32 42 53
32 42 53
32 42 53
32 42 53
32 42 53
32 42 53
32 42 53
32 42 53
32 42 53
32 42 53
32 42 53
32 42 53
32 42 53
32 42 53
32 42 53
32 42 53
32 42 53
32 42 53
32 42 53
32 42 53
32 42 53
32 42 53
32 42 53
32 42 53
32 42 53
32 42 53
32 42 53
32 42 53
32 42 53
32 42 53
32 42 53
32 42 53
32 42 53
102 227 255
102 227 255
102 227 255
102 227 255
102 227 255
102 227 255
102 227 255
102 227 255
102 227 255
102 227 255
102 227 255
102 227 255
102 227 255
102 227 255
102 227 255
32 42 53
32 42 53
32 42 53
32 42 53
32 42 53
32 42 53
32 42 53
32 42 53
32 42 53
32 42 53
32 42 53
32 42 53
32 42 53
32 42 53
32 42 53
32 42 53
32 42 53
32 42 53
32 42 53
32 42 53
32 42 53
32 42 53
32 42 53
32 42 53
32 42 53
32 42 53
32 42 53
32 42 53
32 42 53
32 42 53
32 42 53
32 42 53
32 42 53
32 42 53
32 42 53
32 42 53
32 42 53
32 42 53
32 42 53
32 42 53
32 42 53
32 42 53
32 42 53
32 42 53
32 42 53
32 42 53
32 42 53
32 42 53
32 42 53
32 42 53
32 42 53
32 42 53
32 42 53
32 42 53
32 42 53
32 42 53
32 42 53
32 42 53
32 42 53
32 42 53
32 42 53
32 42 53
32 42 53
32 42 53
32 42 53
32 42 53
32 42 53
32 42 53
102 227 255
102 227 255
102 227 255
102 227 255
102 227 255
102 227 255
102 227 255
102 227 255
102 227 255
102 227 255
32 42 53
32 42 53
32 42 53
32 42 53
32 42 53
32 42 53
32 42 53
32 42 53
32 42 53
32 42 53
32 42 53
32 42 53
32 42 53
32 42 53
32 42 53
32 42 53
32 42 53
32 42 53
32 42 53
32 42 53
32 42 53
32 42 53
32 42 53
32 42 53
32 42 53
32 42 53
32 42 53
32 42 53
32 42 53
32 42 53
32 42 53
32 42 53
32 42 53
32 42 53
32 42 53
32 42 53
32 42 53
32 42 53
32 42 53
32 42 53
32 42 53
32 42 53
32 42 53
32 42 53
32 42 53
32 42 53
32 42 53
32 42 53
32 42 53
32 42 53
32 42 53
32 42 53
32 42 53
32 42 53
32 42 53
32 42 53
32 42 53
32 42 53
32 42 53
32 42 53
32 42 53
32 42 53
32 42 53
106 124 145
106 124 145
17 24 32
17 24 32
17 24 32
17 24 32
17 24 32
17 24 32
17 24 32
17 24 32
17 24 32
17 24 32
17 24 32
17 24 32
17 24 32
17 24 32
17 24 32
17 24 32
17 24 32
17 24 32
17 24 32
17 24 32
17 24 32
17 24 32
17 24 32
17 24 32
106 124 145
106 124 145
32 42 53
32 42 53
32 42 53
32 42 53
32 42 53
32 42 53
32 42 53
32 42 53
32 42 53
32 42 53
32 42 53
32 42 53
32 42 53
32 42 53
32 42 53
32 42 53
32 42 53
32 42 53
32 42 53
32 42 53
32 42 53
32 42 53
32 42 53
32 42 53
32 42 53
32 42 53
32 42 53
32 42 53
32 42 53
32 42 53
32 42 53
32 42 53
32 42 53
32 42 53
32 42 53
32 42 53
32 42 53
32 42 53
32 42 53
32 42 53
167 139 250
167 139 250
167 139 250
167 139 250
167 139 250
167 139 250
167 139 250
167 139 250
167 139 250
167 139 250
167 139 250
167 139 250
167 139 250
167 139 250
167 139 250
167 139 250
167 139 250
167 139 250
167 139 250
167 139 250
167 139 250
167 139 250
167 139 250
167 139 250
167 139 250
167 139 250
167 139 250
167 139 250
167 139 250
167 139 250
167 139 250
167 139 250
167 139 250
167 139 250
167 139 250
167 139 250
167 139 250
167 139 250
167 139 250
167 139 250
167 139 250
167 139 250
167 139 250
167 139 250
167 139 250
167 139 250
167 139 250
167 139 250
32 42 53
32 42 53
32 42 53
32 42 53
32 42 53
32 42 53
32 42 53
32 42 53
32 42 53
32 42 53
32 42 53
32 42 53
32 42 53
32 42 53
32 42 53
32 42 53
32 42 53
32 42 53
32 42 53
32 42 53
32 42 53
32 42 53
32 42 53
32 42 53
32 42 53
32 42 53
32 42 53
32 42 53
32 42 53
32 42 53
32 42 53
32 42 53
32 42 53
32 42 53
32 42 53
32 42 53
32 42 53
32 42 53
32 42 53
32 42 53
32 42 53
32 42 53
32 42 53
32 42 53
32 42 53
32 42 53
102 227 255
102 227 255
102 227 255
102 227 255
102 227 255
102 227 255
102 227 255
102 227 255
32 42 53
102 227 255
102 227 255
102 227 255
102 227 255
102 227 255
102 227 255
102 227 255
102 227 255
102 227 255
102 227 255
102 227 255
102 227 255
32 42 53
32 42 53
32 42 53
32 42 53
32 42 53
32 42 53
32 42 53
32 42 53
32 42 53
32 42 53
32 42 53
32 42 53
32 42 53
32 42 53
32 42 53
32 42 53
32 42 53
32 42 53
32 42 53
32 42 53
32 42 53
32 42 53
32 42 53
32 42 53
32 42 53
32 42 53
32 42 53
32 42 53
32 42 53
32 42 53
32 42 53
32 42 53
32 42 53
32 42 53
32 42 53
32 42 53
32 42 53
32 42 53
32 42 53
32 42 53
32 42 53
32 42 53
32 42 53
32 42 53
32 42 53
32 42 53
32 42 53
32 42 53
32 42 53
32 42 53
32 42 53
32 42 53
32 42 53
32 42 53
32 42 53
32 42 53
32 42 53
32 42 53
32 42 53
32 42 53
32 42 53
102 227 255
102 227 255
102 227 255
102 227 255
102 227 255
102 227 255
102 227 255
102 227 255
102 227 255
102 227 255
102 227 255
32 42 53
32 42 53
32 42 53
32 42 53
32 42 53
32 42 53
32 42 53
32 42 53
32 42 53
32 42 53
32 42 53
32 42 53
32 42 53
32 42 53
32 42 53
32 42 53
32 42 53
32 42 53
32 42 53
32 42 53
32 42 53
32 42 53
32 42 53
32 42 53
32 42 53
32 42 53
32 42 53
32 42 53
32 42 53
32 42 53
32 42 53
32 42 53
32 42 53
32 42 53
32 42 53
32 42 53
32 42 53
32 42 53
32 42 53
32 42 53
32 42 53
32 42 53
32 42 53
32 42 53
32 42 53
32 42 53
32 42 53
32 42 53
32 42 53
32 42 53
32 42 53
32 42 53
32 42 53
32 42 53
32 42 53
32 42 53
32 42 53
32 42 53
32 42 53
32 42 53
32 42 53
32 42 53
32 42 53
32 42 53
32 42 53
106 124 145
106 124 145
17 24 32
17 24 32
17 24 32
17 24 32
17 24 32
17 24 32
17 24 32
17 24 32
17 24 32
17 24 32
17 24 32
17 24 32
17 24 32
17 24 32
17 24 32
17 24 32
17 24 32
17 24 32
17 24 32
17 24 32
17 24 32
17 24 32
17 24 32
17 24 32
106 124 145
106 124 145
32 42 53
32 42 53
32 42 53
32 42 53
32 42 53
32 42 53
32 42 53
32 42 53
32 42 53
32 42 53
32 42 53
32 42 53
32 42 53
32 42 53
32 42 53
32 42 53
32 42 53
32 42 53
32 42 53
32 42 53
32 42 53
32 42 53
32 42 53
32 42 53
32 42 53
32 42 53
32 42 53
32 42 53
32 42 53
32 42 53
32 42 53
32 42 53
32 42 53
32 42 53
32 42 53
32 42 53
32 42 53
32 42 53
32 42 53
32 42 53
167 139 250
167 139 250
167 139 250
167 139 250
167 139 250
167 139 250
167 139 250
167 139 250
167 139 250
167 139 250
167 139 250
167 139 250
167 139 250
167 139 250
167 139 250
167 139 250
167 139 250
167 139 250
167 139 250
167 139 250
167 139 250
167 139 250
167 139 250
167 139 250
167 139 250
167 139 250
167 139 250
167 139 250
167 139 250
167 139 250
167 139 250
167 139 250
167 139 250
167 139 250
167 139 250
167 139 250
167 139 250
167 139 250
167 139 250
167 139 250
167 139 250
167 139 250
167 139 250
167 139 250
167 139 250
167 139 250
167 139 250
167 139 250
32 42 53
32 42 53
32 42 53
32 42 53
32 42 53
32 42 53
32 42 53
32 42 53
32 42 53
32 42 53
32 42 53
32 42 53
32 42 53
32 42 53
32 42 53
32 42 53
32 42 53
32 42 53
32 42 53
32 42 53
32 42 53
32 42 53
32 42 53
32 42 53
32 42 53
32 42 53
32 42 53
32 42 53
32 42 53
32 42 53
32 42 53
32 42 53
32 42 53
32 42 53
32 42 53
32 42 53
32 42 53
32 42 53
32 42 53
32 42 53
32 42 53
32 42 53
32 42 53
32 42 53
102 227 255
102 227 255
102 227 255
102 227 255
102 227 255
102 227 255
102 227 255
102 227 255
32 42 53
32 42 53
32 42 53
32 42 53
32 42 53
32 42 53
102 227 255
102 227 255
102 227 255
102 227 255
102 227 255
102 227 255
102 227 255
102 227 255
102 227 255
102 227 255
102 227 255
102 227 255
32 42 53
32 42 53
32 42 53
32 42 53
32 42 53
32 42 53
32 42 53
32 42 53
32 42 53
32 42 53
32 42 53
32 42 53
32 42 53
32 42 53
32 42 53
32 42 53
32 42 53
32 42 53
32 42 53
32 42 53
32 42 53
32 42 53
32 42 53
32 42 53
32 42 53
32 42 53
32 42 53
32 42 53
32 42 53
32 42 53
32 42 53
32 42 53
32 42 53
32 42 53
32 42 53
32 42 53
32 42 53
32 42 53
32 42 53
32 42 53
32 42 53
32 42 53
32 42 53
32 42 53
32 42 53
32 42 53
32 42 53
32 42 53
32 42 53
32 42 53
32 42 53
32 42 53
32 42 53
32 42 53
32 42 53
102 227 255
102 227 255
102 227 255
102 227 255
102 227 255
102 227 255
102 227 255
102 227 255
102 227 255
102 227 255
102 227 255
32 42 53
32 42 53
32 42 53
32 42 53
32 42 53
32 42 53
32 42 53
32 42 53
32 42 53
32 42 53
32 42 53
32 42 53
32 42 53
32 42 53
32 42 53
32 42 53
32 42 53
32 42 53
32 42 53
32 42 53
32 42 53
32 42 53
32 42 53
32 42 53
32 42 53
32 42 53
32 42 53
32 42 53
32 42 53
32 42 53
32 42 53
32 42 53
32 42 53
32 42 53
32 42 53
32 42 53
32 42 53
32 42 53
32 42 53
32 42 53
32 42 53
32 42 53
32 42 53
32 42 53
32 42 53
32 42 53
32 42 53
32 42 53
32 42 53
32 42 53
32 42 53
32 42 53
32 42 53
32 42 53
32 42 53
32 42 53
32 42 53
32 42 53
32 42 53
32 42 53
32 42 53
32 42 53
32 42 53
32 42 53
32 42 53
32 42 53
32 42 53
32 42 53
106 124 145
106 124 145
17 24 32
17 24 32
17 24 32
17 24 32
17 24 32
17 24 32
17 24 32
17 24 32
17 24 32
17 24 32
17 24 32
17 24 32
17 24 32
17 24 32
17 24 32
17 24 32
17 24 32
17 24 32
17 24 32
17 24 32
17 24 32
17 24 32
17 24 32
17 24 32
106 124 145
106 124 145
32 42 53
32 42 53
32 42 53
32 42 53
32 42 53
32 42 53
32 42 53
32 42 53
32 42 53
32 42 53
32 42 53
32 42 53
32 42 53
32 42 53
32 42 53
32 42 53
32 42 53
32 42 53
32 42 53
32 42 53
32 42 53
32 42 53
32 42 53
32 42 53
32 42 53
32 42 53
32 42 53
32 42 53
32 42 53
32 42 53
32 42 53
32 42 53
32 42 53
32 42 53
32 42 53
32 42 53
32 42 53
32 42 53
32 42 53
32 42 53
167 139 250
167 139 250
167 139 250
167 139 250
167 139 250
167 139 250
167 139 250
167 139 250
167 139 250
167 139 250
167 139 250
167 139 250
167 139 250
167 139 250
167 139 250
167 139 250
167 139 250
167 139 250
167 139 250
167 139 250
167 139 250
167 139 250
167 139 250
167 139 250
167 139 250
167 139 250
167 139 250
167 139 250
167 139 250
167 139 250
167 139 250
167 139 250
167 139 250
167 139 250
167 139 250
167 139 250
167 139 250
167 139 250
167 139 250
167 139 250
167 139 250
167 139 250
167 139 250
167 139 250
167 139 250
167 139 250
167 139 250
167 139 250
32 42 53
32 42 53
32 42 53
32 42 53
32 42 53
32 42 53
32 42 53
32 42 53
32 42 53
32 42 53
32 42 53
32 42 53
32 42 53
32 42 53
32 42 53
32 42 53
32 42 53
32 42 53
32 42 53
32 42 53
32 42 53
32 42 53
32 42 53
32 42 53
32 42 53
32 42 53
32 42 53
32 42 53
32 42 53
32 42 53
32 42 53
32 42 53
32 42 53
32 42 53
32 42 53
32 42 53
32 42 53
32 42 53
32 42 53
32 42 53
32 42 53
102 227 255
102 227 255
102 227 255
102 227 255
102 227 255
102 227 255
102 227 255
102 227 255
102 227 255
32 42 53
32 42 53
32 42 53
32 42 53
32 42 53
32 42 53
32 42 53
32 42 53
32 42 53
32 42 53
32 42 53
102 227 255
102 227 255
102 227 255
102 227 255
102 227 255
102 227 255
102 227 255
102 227 255
102 227 255
102 227 255
102 227 255
102 227 255
32 42 53
32 42 53
32 42 53
32 42 53
32 42 53
32 42 53
32 42 53
32 42 53
32 42 53
32 42 53
32 42 53
32 42 53
32 42 53
32 42 53
32 42 53
32 42 53
32 42 53
32 42 53
32 42 53
32 42 53
32 42 53
32 42 53
32 42 53
32 42 53
32 42 53
32 42 53
32 42 53
32 42 53
32 42 53
32 42 53
32 42 53
32 42 53
32 42 53
32 42 53
32 42 53
32 42 53
32 42 53
32 42 53
32 42 53
32 42 53
32 42 53
32 42 53
32 42 53
32 42 53
32 42 53
32 42 53
32 42 53
32 42 53
32 42 53
102 227 255
102 227 255
102 227 255
102 227 255
102 227 255
102 227 255
102 227 255
102 227 255
102 227 255
102 227 255
102 227 255
32 42 53
32 42 53
32 42 53
32 42 53
32 42 53
32 42 53
32 42 53
32 42 53
32 42 53
32 42 53
32 42 53
32 42 53
32 42 53
32 42 53
32 42 53
32 42 53
32 42 53
32 42 53
32 42 53
32 42 53
32 42 53
32 42 53
32 42 53
32 42 53
32 42 53
32 42 53
32 42 53
32 42 53
32 42 53
32 42 53
32 42 53
32 42 53
32 42 53
32 42 53
32 42 53
32 42 53
32 42 53
32 42 53
32 42 53
32 42 53
32 42 53
32 42 53
32 42 53
32 42 53
32 42 53
32 42 53
32 42 53
32 42 53
32 42 53
32 42 53
32 42 53
32 42 53
32 42 53
32 42 53
32 42 53
32 42 53
32 42 53
32 42 53
32 42 53
32 42 53
32 42 53
32 42 53
32 42 53
32 42 53
32 42 53
32 42 53
32 42 53
32 42 53
32 42 53
32 42 53
32 42 53
106 124 145
106 124 145
17 24 32
17 24 32
17 24 32
17 24 32
17 24 32
17 24 32
17 24 32
17 24 32
17 24 32
17 24 32
17 24 32
17 24 32
17 24 32
17 24 32
17 24 32
17 24 32
17 24 32
17 24 32
17 24 32
17 24 32
17 24 32
17 24 32
17 24 32
17 24 32
106 124 145
106 124 145
32 42 53
32 42 53
32 42 53
32 42 53
32 42 53
32 42 53
32 42 53
32 42 53
32 42 53
32 42 53
32 42 53
32 42 53
32 42 53
32 42 53
32 42 53
32 42 53
32 42 53
32 42 53
32 42 53
32 42 53
32 42 53
32 42 53
32 42 53
32 42 53
32 42 53
32 42 53
32 42 53
32 42 53
32 42 53
32 42 53
32 42 53
32 42 53
32 42 53
32 42 53
32 42 53
32 42 53
32 42 53
32 42 53
32 42 53
32 42 53
167 139 250
167 139 250
167 139 250
167 139 250
167 139 250
167 139 250
167 139 250
167 139 250
167 139 250
167 139 250
167 139 250
167 139 250
102 227 255
102 227 255
102 227 255
102 227 255
102 227 255
167 139 250
167 139 250
167 139 250
167 139 250
167 139 250
167 139 250
167 139 250
167 139 250
167 139 250
167 139 250
167 139 250
167 139 250
167 139 250
167 139 250
167 139 250
167 139 250
167 139 250
167 139 250
167 139 250
167 139 250
167 139 250
167 139 250
167 139 250
167 139 250
167 139 250
167 139 250
167 139 250
167 139 250
167 139 250
167 139 250
167 139 250
32 42 53
32 42 53
32 42 53
32 42 53
32 42 53
32 42 53
32 42 53
32 42 53
32 42 53
32 42 53
32 42 53
32 42 53
32 42 53
32 42 53
32 42 53
32 42 53
32 42 53
32 42 53
32 42 53
32 42 53
32 42 53
32 42 53
32 42 53
32 42 53
32 42 53
32 42 53
32 42 53
32 42 53
32 42 53
32 42 53
32 42 53
32 42 53
32 42 53
32 42 53
32 42 53
32 42 53
32 42 53
32 42 53
32 42 53
102 227 255
102 227 255
102 227 255
102 227 255
102 227 255
102 227 255
102 227 255
102 227 255
102 227 255
32 42 53
32 42 53
32 42 53
32 42 53
32 42 53
32 42 53
32 42 53
32 42 53
32 42 53
32 42 53
32 42 53
32 42 53
32 42 53
32 42 53
32 42 53
32 42 53
32 42 53
102 227 255
102 227 255
102 227 255
102 227 255
102 227 255
102 227 255
102 227 255
102 227 255
102 227 255
102 227 255
102 227 255
32 42 53
32 42 53
32 42 53
32 42 53
32 42 53
32 42 53
32 42 53
32 42 53
32 42 53
32 42 53
32 42 53
32 42 53
32 42 53
32 42 53
32 42 53
32 42 53
32 42 53
32 42 53
32 42 53
32 42 53
32 42 53
32 42 53
32 42 53
32 42 53
32 42 53
32 42 53
32 42 53
32 42 53
32 42 53
32 42 53
32 42 53
32 42 53
32 42 53
32 42 53
32 42 53
32 42 53
32 42 53
32 42 53
32 42 53
32 42 53
32 42 53
32 42 53
32 42 53
102 227 255
102 227 255
102 227 255
102 227 255
102 227 255
102 227 255
102 227 255
102 227 255
102 227 255
102 227 255
102 227 255
32 42 53
32 42 53
32 42 53
32 42 53
32 42 53
32 42 53
32 42 53
32 42 53
32 42 53
32 42 53
32 42 53
32 42 53
32 42 53
32 42 53
32 42 53
32 42 53
32 42 53
32 42 53
32 42 53
32 42 53
32 42 53
32 42 53
32 42 53
32 42 53
32 42 53
32 42 53
32 42 53
32 42 53
32 42 53
32 42 53
32 42 53
32 42 53
32 42 53
32 42 53
32 42 53
32 42 53
32 42 53
32 42 53
32 42 53
32 42 53
32 42 53
32 42 53
32 42 53
32 42 53
32 42 53
32 42 53
32 42 53
32 42 53
32 42 53
32 42 53
32 42 53
32 42 53
32 42 53
32 42 53
32 42 53
32 42 53
32 42 53
32 42 53
32 42 53
32 42 53
32 42 53
32 42 53
32 42 53
32 42 53
32 42 53
32 42 53
32 42 53
32 42 53
32 42 53
32 42 53
32 42 53
32 42 53
32 42 53
32 42 53
106 124 145
106 124 145
17 24 32
17 24 32
17 24 32
17 24 32
17 24 32
17 24 32
17 24 32
17 24 32
17 24 32
17 24 32
17 24 32
17 24 32
17 24 32
17 24 32
17 24 32
17 24 32
17 24 32
17 24 32
17 24 32
17 24 32
17 24 32
17 24 32
17 24 32
17 24 32
106 124 145
106 124 145
32 42 53
32 42 53
32 42 53
32 42 53
32 42 53
32 42 53
32 42 53
32 42 53
32 42 53
32 42 53
32 42 53
32 42 53
32 42 53
32 42 53
32 42 53
32 42 53
32 42 53
32 42 53
32 42 53
32 42 53
32 42 53
32 42 53
32 42 53
32 42 53
32 42 53
32 42 53
32 42 53
32 42 53
32 42 53
32 42 53
32 42 53
32 42 53
32 42 53
32 42 53
32 42 53
32 42 53
32 42 53
32 42 53
32 42 53
32 42 53
32 42 53
32 42 53
32 42 53
32 42 53
32 42 53
32 42 53
32 42 53
32 42 53
102 227 255
102 227 255
102 227 255
102 227 255
102 227 255
102 227 255
102 227 255
102 227 255
102 227 255
102 227 255
102 227 255
102 227 255
32 42 53
32 42 53
32 42 53
32 42 53
32 42 53
32 42 53
32 42 53
32 42 53
32 42 53
32 42 53
32 42 53
32 42 53
32 42 53
32 42 53
32 42 53
32 42 53
32 42 53
32 42 53
32 42 53
32 42 53
32 42 53
32 42 53
32 42 53
32 42 53
32 42 53
32 42 53
32 42 53
32 42 53
32 42 53
32 42 53
32 42 53
32 42 53
32 42 53
32 42 53
32 42 53
32 42 53
32 42 53
32 42 53
32 42 53
32 42 53
32 42 53
32 42 53
32 42 53
32 42 53
32 42 53
32 42 53
32 42 53
32 42 53
32 42 53
32 42 53
32 42 53
32 42 53
32 42 53
32 42 53
32 42 53
32 42 53
32 42 53
32 42 53
32 42 53
32 42 53
32 42 53
32 42 53
32 42 53
32 42 53
32 42 53
102 227 255
102 227 255
102 227 255
102 227 255
102 227 255
102 227 255
102 227 255
102 227 255
102 227 255
32 42 53
32 42 53
32 42 53
32 42 53
32 42 53
32 42 53
32 42 53
32 42 53
32 42 53
32 42 53
32 42 53
32 42 53
32 42 53
32 42 53
32 42 53
32 42 53
32 42 53
32 42 53
32 42 53
32 42 53
32 42 53
32 42 53
102 227 255
102 227 255
102 227 255
102 227 255
102 227 255
102 227 255
102 227 255
102 227 255
102 227 255
102 227 255
102 227 255
32 42 53
32 42 53
32 42 53
32 42 53
32 42 53
32 42 53
32 42 53
32 42 53
32 42 53
32 42 53
32 42 53
32 42 53
32 42 53
32 42 53
32 42 53
32 42 53
32 42 53
32 42 53
32 42 53
32 42 53
32 42 53
32 42 53
32 42 53
32 42 53
32 42 53
32 42 53
32 42 53
32 42 53
32 42 53
32 42 53
32 42 53
32 42 53
32 42 53
32 42 53
32 42 53
32 42 53
32 42 53
102 227 255
102 227 255
102 227 255
102 227 255
102 227 255
102 227 255
102 227 255
102 227 255
102 227 255
102 227 255
102 227 255
32 42 53
32 42 53
32 42 53
32 42 53
32 42 53
32 42 53
32 42 53
32 42 53
32 42 53
32 42 53
32 42 53
32 42 53
32 42 53
32 42 53
32 42 53
32 42 53
32 42 53
32 42 53
32 42 53
32 42 53
32 42 53
32 42 53
32 42 53
32 42 53
32 42 53
32 42 53
32 42 53
32 42 53
32 42 53
32 42 53
32 42 53
32 42 53
32 42 53
32 42 53
32 42 53
32 42 53
32 42 53
32 42 53
32 42 53
32 42 53
32 42 53
32 42 53
32 42 53
32 42 53
32 42 53
32 42 53
32 42 53
32 42 53
32 42 53
32 42 53
32 42 53
32 42 53
32 42 53
32 42 53
32 42 53
32 42 53
32 42 53
32 42 53
32 42 53
32 42 53
32 42 53
32 42 53
32 42 53
32 42 53
32 42 53
32 42 53
32 42 53
32 42 53
32 42 53
32 42 53
32 42 53
32 42 53
32 42 53
32 42 53
32 42 53
32 42 53
32 42 53
106 124 145
106 124 145
17 24 32
17 24 32
17 24 32
17 24 32
17 24 32
17 24 32
17 24 32
17 24 32
17 24 32
17 24 32
17 24 32
17 24 32
17 24 32
17 24 32
17 24 32
17 24 32
17 24 32
17 24 32
17 24 32
17 24 32
17 24 32
17 24 32
17 24 32
17 24 32
106 124 145
106 124 145
32 42 53
32 42 53
32 42 53
32 42 53
32 42 53
32 42 53
32 42 53
32 42 53
32 42 53
32 42 53
32 42 53
32 42 53
32 42 53
32 42 53
32 42 53
32 42 53
32 42 53
32 42 53
32 42 53
32 42 53
32 42 53
32 42 53
32 42 53
32 42 53
32 42 53
32 42 53
32 42 53
32 42 53
32 42 53
32 42 53
32 42 53
32 42 53
32 42 53
32 42 53
32 42 53
32 42 53
32 42 53
32 42 53
32 42 53
32 42 53
32 42 53
32 42 53
32 42 53
32 42 53
102 227 255
102 227 255
102 227 255
102 227 255
102 227 255
102 227 255
102 227 255
102 227 255
102 227 255
102 227 255
102 227 255
102 227 255
102 227 255
102 227 255
102 227 255
102 227 255
102 227 255
102 227 255
102 227 255
32 42 53
32 42 53
32 42 53
32 42 53
32 42 53
32 42 53
32 42 53
32 42 53
32 42 53
32 42 53
32 42 53
32 42 53
32 42 53
32 42 53
32 42 53
32 42 53
32 42 53
32 42 53
32 42 53
32 42 53
32 42 53
32 42 53
32 42 53
32 42 53
32 42 53
32 42 53
32 42 53
32 42 53
32 42 53
32 42 53
32 42 53
32 42 53
32 42 53
32 42 53
32 42 53
32 42 53
32 42 53
32 42 53
32 42 53
32 42 53
32 42 53
32 42 53
32 42 53
32 42 53
32 42 53
32 42 53
32 42 53
32 42 53
32 42 53
32 42 53
32 42 53
32 42 53
32 42 53
32 42 53
32 42 53
32 42 53
32 42 53
32 42 53
32 42 53
32 42 53
102 227 255
102 227 255
102 227 255
102 227 255
102 227 255
102 227 255
102 227 255
102 227 255
32 42 53
32 42 53
32 42 53
32 42 53
32 42 53
32 42 53
32 42 53
32 42 53
32 42 53
32 42 53
32 42 53
32 42 53
32 42 53
32 42 53
32 42 53
32 42 53
32 42 53
32 42 53
32 42 53
32 42 53
32 42 53
32 42 53
32 42 53
32 42 53
32 42 53
32 42 53
32 42 53
32 42 53
102 227 255
102 227 255
102 227 255
102 227 255
102 227 255
102 227 255
102 227 255
102 227 255
102 227 255
102 227 255
102 227 255
32 42 53
32 42 53
32 42 53
32 42 53
32 42 53
32 42 53
32 42 53
32 42 53
32 42 53
32 42 53
32 42 53
32 42 53
32 42 53
32 42 53
32 42 53
32 42 53
32 42 53
32 42 53
32 42 53
32 42 53
32 42 53
32 42 53
32 42 53
32 42 53
32 42 53
32 42 53
32 42 53
32 42 53
32 42 53
32 42 53
32 42 53
102 227 255
102 227 255
102 227 255
102 227 255
102 227 255
102 227 255
102 227 255
102 227 255
102 227 255
102 227 255
102 227 255
32 42 53
32 42 53
32 42 53
32 42 53
32 42 53
32 42 53
32 42 53
32 42 53
32 42 53
32 42 53
32 42 53
32 42 53
32 42 53
32 42 53
32 42 53
32 42 53
32 42 53
32 42 53
32 42 53
32 42 53
32 42 53
32 42 53
32 42 53
32 42 53
32 42 53
32 42 53
32 42 53
32 42 53
32 42 53
32 42 53
32 42 53
32 42 53
32 42 53
32 42 53
32 42 53
32 42 53
32 42 53
32 42 53
32 42 53
32 42 53
32 42 53
32 42 53
32 42 53
32 42 53
32 42 53
32 42 53
32 42 53
32 42 53
32 42 53
32 42 53
32 42 53
32 42 53
32 42 53
32 42 53
32 42 53
32 42 53
32 42 53
32 42 53
32 42 53
32 42 53
32 42 53
32 42 53
32 42 53
32 42 53
32 42 53
32 42 53
32 42 53
32 42 53
32 42 53
32 42 53
32 42 53
32 42 53
32 42 53
32 42 53
32 42 53
32 42 53
32 42 53
32 42 53
32 42 53
32 42 53
106 124 145
106 124 145
17 24 32
17 24 32
17 24 32
17 24 32
17 24 32
17 24 32
17 24 32
17 24 32
17 24 32
17 24 32
17 24 32
17 24 32
17 24 32
17 24 32
17 24 32
17 24 32
17 24 32
17 24 32
17 24 32
17 24 32
17 24 32
17 24 32
17 24 32
17 24 32
106 124 145
106 124 145
32 42 53
32 42 53
32 42 53
32 42 53
32 42 53
32 42 53
32 42 53
32 42 53
32 42 53
32 42 53
32 42 53
32 42 53
32 42 53
32 42 53
32 42 53
32 42 53
32 42 53
32 42 53
32 42 53
32 42 53
32 42 53
32 42 53
32 42 53
32 42 53
32 42 53
32 42 53
32 42 53
32 42 53
32 42 53
32 42 53
32 42 53
32 42 53
32 42 53
32 42 53
32 42 53
32 42 53
32 42 53
32 42 53
32 42 53
32 42 53
32 42 53
102 227 255
102 227 255
102 227 255
102 227 255
102 227 255
102 227 255
102 227 255
102 227 255
102 227 255
102 227 255
102 227 255
102 227 255
102 227 255
32 42 53
102 227 255
102 227 255
102 227 255
102 227 255
102 227 255
102 227 255
102 227 255
102 227 255
102 227 255
102 227 255
102 227 255
102 227 255
32 42 53
32 42 53
32 42 53
32 42 53
32 42 53
32 42 53
32 42 53
32 42 53
32 42 53
32 42 53
32 42 53
32 42 53
32 42 53
32 42 53
32 42 53
32 42 53
32 42 53
32 42 53
32 42 53
32 42 53
32 42 53
32 42 53
32 42 53
32 42 53
32 42 53
32 42 53
32 42 53
32 42 53
32 42 53
32 42 53
32 42 53
32 42 53
32 42 53
32 42 53
32 42 53
32 42 53
32 42 53
32 42 53
32 42 53
32 42 53
32 42 53
32 42 53
32 42 53
32 42 53
32 42 53
32 42 53
32 42 53
32 42 53
32 42 53
32 42 53
32 42 53
32 42 53
32 42 53
32 42 53
102 227 255
102 227 255
102 227 255
102 227 255
102 227 255
102 227 255
102 227 255
102 227 255
32 42 53
32 42 53
32 42 53
32 42 53
32 42 53
32 42 53
32 42 53
32 42 53
32 42 53
32 42 53
32 42 53
32 42 53
32 42 53
32 42 53
32 42 53
32 42 53
32 42 53
32 42 53
32 42 53
32 42 53
32 42 53
32 42 53
32 42 53
32 42 53
32 42 53
32 42 53
32 42 53
32 42 53
32 42 53
32 42 53
32 42 53
32 42 53
32 42 53
102 227 255
102 227 255
102 227 255
102 227 255
102 227 255
102 227 255
102 227 255
102 227 255
102 227 255
102 227 255
102 227 255
32 42 53
32 42 53
32 42 53
32 42 53
32 42 53
32 42 53
32 42 53
32 42 53
32 42 53
32 42 53
32 42 53
32 42 53
32 42 53
32 42 53
32 42 53
32 42 53
32 42 53
32 42 53
32 42 53
32 42 53
32 42 53
32 42 53
32 42 53
32 42 53
32 42 53
32 42 53
102 227 255
102 227 255
102 227 255
102 227 255
102 227 255
102 227 255
102 227 255
102 227 255
102 227 255
102 227 255
32 42 53
32 42 53
32 42 53
32 42 53
32 42 53
32 42 53
32 42 53
32 42 53
32 42 53
32 42 53
32 42 53
32 42 53
32 42 53
32 42 53
32 42 53
32 42 53
32 42 53
32 42 53
32 42 53
32 42 53
32 42 53
32 42 53
32 42 53
32 42 53
32 42 53
32 42 53
32 42 53
32 42 53
32 42 53
32 42 53
32 42 53
32 42 53
32 42 53
32 42 53
32 42 53
32 42 53
32 42 53
32 42 53
32 42 53
32 42 53
32 42 53
32 42 53
32 42 53
32 42 53
32 42 53
32 42 53
32 42 53
32 42 53
32 42 53
32 42 53
32 42 53
32 42 53
32 42 53
32 42 53
32 42 53
32 42 53
32 42 53
32 42 53
32 42 53
32 42 53
32 42 53
32 42 53
32 42 53
32 42 53
32 42 53
32 42 53
32 42 53
32 42 53
32 42 53
32 42 53
32 42 53
32 42 53
32 42 53
32 42 53
32 42 53
32 42 53
32 42 53
32 42 53
32 42 53
32 42 53
32 42 53
32 42 53
32 42 53
106 124 145
106 124 145
17 24 32
17 24 32
17 24 32
17 24 32
17 24 32
17 24 32
17 24 32
17 24 32
17 24 32
17 24 32
17 24 32
17 24 32
17 24 32
17 24 32
17 24 32
17 24 32
17 24 32
17 24 32
17 24 32
17 24 32
17 24 32
17 24 32
17 24 32
17 24 32
106 124 145
106 124 145
32 42 53
32 42 53
32 42 53
32 42 53
32 42 53
32 42 53
32 42 53
32 42 53
32 42 53
32 42 53
32 42 53
32 42 53
32 42 53
32 42 53
32 42 53
32 42 53
32 42 53
32 42 53
32 42 53
32 42 53
32 42 53
32 42 53
32 42 53
32 42 53
32 42 53
32 42 53
32 42 53
32 42 53
32 42 53
32 42 53
32 42 53
32 42 53
32 42 53
32 42 53
32 42 53
32 42 53
32 42 53
102 227 255
102 227 255
102 227 255
102 227 255
102 227 255
102 227 255
102 227 255
102 227 255
102 227 255
102 227 255
102 227 255
102 227 255
102 227 255
32 42 53
32 42 53
32 42 53
32 42 53
32 42 53
32 42 53
32 42 53
32 42 53
102 227 255
102 227 255
102 227 255
102 227 255
102 227 255
102 227 255
102 227 255
102 227 255
102 227 255
102 227 255
102 227 255
102 227 255
32 42 53
32 42 53
32 42 53
32 42 53
32 42 53
32 42 53
32 42 53
32 42 53
32 42 53
32 42 53
32 42 53
32 42 53
32 42 53
32 42 53
32 42 53
32 42 53
32 42 53
32 42 53
32 42 53
32 42 53
32 42 53
32 42 53
32 42 53
32 42 53
32 42 53
32 42 53
32 42 53
32 42 53
32 42 53
32 42 53
32 42 53
32 42 53
32 42 53
32 42 53
32 42 53
32 42 53
32 42 53
32 42 53
32 42 53
32 42 53
32 42 53
32 42 53
32 42 53
32 42 53
32 42 53
32 42 53
32 42 53
32 42 53
102 227 255
102 227 255
102 227 255
102 227 255
102 227 255
102 227 255
102 227 255
102 227 255
102 227 255
32 42 53
32 42 53
32 42 53
32 42 53
32 42 53
32 42 53
32 42 53
32 42 53
32 42 53
32 42 53
32 42 53
32 42 53
32 42 53
32 42 53
32 42 53
32 42 53
32 42 53
32 42 53
32 42 53
32 42 53
32 42 53
32 42 53
32 42 53
32 42 53
32 42 53
32 42 53
32 42 53
32 42 53
32 42 53
32 42 53
32 42 53
32 42 53
32 42 53
32 42 53
32 42 53
32 42 53
32 42 53
32 42 53
102 227 255
102 227 255
102 227 255
102 227 255
102 227 255
102 227 255
102 227 255
102 227 255
102 227 255
102 227 255
102 227 255
102 227 255
32 42 53
32 42 53
32 42 53
32 42 53
32 42 53
32 42 53
32 42 53
32 42 53
32 42 53
32 42 53
32 42 53
32 42 53
32 42 53
32 42 53
32 42 53
32 42 53
32 42 53
32 42 53
32 42 53
102 227 255
102 227 255
102 227 255
102 227 255
102 227 255
102 227 255
102 227 255
102 227 255
102 227 255
102 227 255
32 42 53
32 42 53
32 42 53
32 42 53
32 42 53
32 42 53
32 42 53
32 42 53
32 42 53
32 42 53
32 42 53
32 42 53
32 42 53
32 42 53
32 42 53
32 42 53
32 42 53
32 42 53
32 42 53
32 42 53
32 42 53
32 42 53
32 42 53
32 42 53
32 42 53
32 42 53
32 42 53
32 42 53
32 42 53
32 42 53
32 42 53
32 42 53
32 42 53
32 42 53
32 42 53
32 42 53
32 42 53
32 42 53
32 42 53
32 42 53
32 42 53
32 42 53
32 42 53
32 42 53
32 42 53
32 42 53
32 42 53
32 42 53
32 42 53
32 42 53
32 42 53
32 42 53
32 42 53
32 42 53
32 42 53
32 42 53
32 42 53
32 42 53
32 42 53
32 42 53
32 42 53
32 42 53
32 42 53
32 42 53
32 42 53
32 42 53
32 42 53
32 42 53
32 42 53
32 42 53
32 42 53
32 42 53
32 42 53
32 42 53
32 42 53
32 42 53
32 42 53
32 42 53
32 42 53
32 42 53
32 42 53
32 42 53
32 42 53
32 42 53
32 42 53
32 42 53
106 124 145
106 124 145
17 24 32
17 24 32
17 24 32
17 24 32
17 24 32
17 24 32
17 24 32
17 24 32
17 24 32
17 24 32
17 24 32
17 24 32
17 24 32
17 24 32
17 24 32
17 24 32
17 24 32
17 24 32
17 24 32
17 24 32
17 24 32
17 24 32
17 24 32
17 24 32
106 124 145
106 124 145
32 42 53
32 42 53
32 42 53
32 42 53
32 42 53
32 42 53
32 42 53
32 42 53
32 42 53
32 42 53
32 42 53
32 42 53
32 42 53
32 42 53
32 42 53
32 42 53
32 42 53
32 42 53
32 42 53
32 42 53
32 42 53
32 42 53
32 42 53
32 42 53
32 42 53
32 42 53
32 42 53
32 42 53
32 42 53
32 42 53
32 42 53
32 42 53
32 42 53
102 227 255
102 227 255
102 227 255
102 227 255
102 227 255
102 227 255
102 227 255
102 227 255
102 227 255
102 227 255
102 227 255
102 227 255
102 227 255
32 42 53
32 42 53
32 42 53
32 42 53
32 42 53
32 42 53
32 42 53
32 42 53
32 42 53
32 42 53
32 42 53
32 42 53
32 42 53
32 42 53
32 42 53
102 227 255
102 227 255
102 227 255
102 227 255
102 227 255
102 227 255
102 227 255
102 227 255
102 227 255
102 227 255
102 227 255
102 227 255
32 42 53
32 42 53
32 42 53
32 42 53
32 42 53
32 42 53
32 42 53
32 42 53
32 42 53
32 42 53
32 42 53
32 42 53
32 42 53
32 42 53
32 42 53
32 42 53
32 42 53
32 42 53
32 42 53
32 42 53
32 42 53
32 42 53
32 42 53
32 42 53
32 42 53
32 42 53
32 42 53
32 42 53
32 42 53
32 42 53
32 42 53
32 42 53
32 42 53
32 42 53
32 42 53
32 42 53
32 42 53
32 42 53
32 42 53
32 42 53
32 42 53
32 42 53
32 42 53
102 227 255
102 227 255
102 227 255
102 227 255
102 227 255
102 227 255
102 227 255
102 227 255
102 227 255
32 42 53
32 42 53
32 42 53
32 42 53
32 42 53
32 42 53
32 42 53
32 42 53
32 42 53
32 42 53
32 42 53
32 42 53
32 42 53
32 42 53
32 42 53
32 42 53
32 42 53
32 42 53
32 42 53
32 42 53
32 42 53
32 42 53
32 42 53
32 42 53
32 42 53
32 42 53
32 42 53
32 42 53
32 42 53
32 42 53
32 42 53
32 42 53
32 42 53
32 42 53
32 42 53
32 42 53
32 42 53
32 42 53
32 42 53
32 42 53
32 42 53
32 42 53
32 42 53
102 227 255
102 227 255
102 227 255
102 227 255
102 227 255
102 227 255
102 227 255
102 227 255
102 227 255
102 227 255
102 227 255
102 227 255
32 42 53
32 42 53
32 42 53
32 42 53
32 42 53
32 42 53
32 42 53
32 42 53
32 42 53
32 42 53
32 42 53
32 42 53
32 42 53
102 227 255
102 227 255
102 227 255
102 227 255
102 227 255
102 227 255
102 227 255
102 227 255
102 227 255
102 227 255
32 42 53
32 42 53
32 42 53
32 42 53
32 42 53
32 42 53
32 42 53
32 42 53
32 42 53
32 42 53
32 42 53
32 42 53
32 42 53
32 42 53
32 42 53
32 42 53
32 42 53
32 42 53
32 42 53
32 42 53
32 42 53
32 42 53
32 42 53
32 42 53
32 42 53
32 42 53
32 42 53
32 42 53
32 42 53
32 42 53
32 42 53
32 42 53
32 42 53
32 42 53
32 42 53
32 42 53
32 42 53
32 42 53
32 42 53
32 42 53
32 42 53
32 42 53
32 42 53
32 42 53
32 42 53
32 42 53
32 42 53
32 42 53
32 42 53
32 42 53
32 42 53
32 42 53
32 42 53
32 42 53
32 42 53
32 42 53
32 42 53
32 42 53
32 42 53
32 42 53
32 42 53
32 42 53
32 42 53
32 42 53
32 42 53
32 42 53
32 42 53
32 42 53
32 42 53
32 42 53
32 42 53
32 42 53
32 42 53
32 42 53
32 42 53
32 42 53
32 42 53
32 42 53
32 42 53
32 42 53
32 42 53
32 42 53
32 42 53
32 42 53
32 42 53
32 42 53
32 42 53
32 42 53
32 42 53
106 124 145
106 124 145
17 24 32
17 24 32
17 24 32
17 24 32
17 24 32
17 24 32
17 24 32
17 24 32
17 24 32
17 24 32
17 24 32
17 24 32
17 24 32
17 24 32
17 24 32
17 24 32
17 24 32
17 24 32
17 24 32
17 24 32
17 24 32
17 24 32
17 24 32
17 24 32
106 124 145
106 124 145
32 42 53
32 42 53
32 42 53
32 42 53
32 42 53
32 42 53
32 42 53
32 42 53
32 42 53
32 42 53
32 42 53
32 42 53
32 42 53
32 42 53
32 42 53
32 42 53
32 42 53
32 42 53
32 42 53
32 42 53
32 42 53
32 42 53
32 42 53
32 42 53
32 42 53
32 42 53
32 42 53
32 42 53
32 42 53
32 42 53
102 227 255
102 227 255
102 227 255
102 227 255
102 227 255
102 227 255
102 227 255
102 227 255
102 227 255
102 227 255
102 227 255
102 227 255
102 227 255
32 42 53
32 42 53
32 42 53
32 42 53
32 42 53
32 42 53
32 42 53
32 42 53
32 42 53
32 42 53
32 42 53
32 42 53
32 42 53
32 42 53
32 42 53
32 42 53
32 42 53
32 42 53
32 42 53
32 42 53
32 42 53
32 42 53
102 227 255
102 227 255
102 227 255
102 227 255
102 227 255
102 227 255
102 227 255
102 227 255
102 227 255
102 227 255
102 227 255
32 42 53
32 42 53
32 42 53
32 42 53
32 42 53
32 42 53
32 42 53
32 42 53
32 42 53
32 42 53
32 42 53
32 42 53
32 42 53
32 42 53
32 42 53
32 42 53
32 42 53
32 42 53
32 42 53
32 42 53
32 42 53
32 42 53
32 42 53
32 42 53
32 42 53
32 42 53
32 42 53
32 42 53
32 42 53
32 42 53
32 42 53
32 42 53
32 42 53
32 42 53
32 42 53
32 42 53
32 42 53
32 42 53
102 227 255
102 227 255
102 227 255
102 227 255
102 227 255
102 227 255
102 227 255
102 227 255
102 227 255
32 42 53
32 42 53
32 42 53
32 42 53
32 42 53
32 42 53
32 42 53
32 42 53
32 42 53
32 42 53
32 42 53
32 42 53
32 42 53
32 42 53
32 42 53
32 42 53
32 42 53
32 42 53
32 42 53
32 42 53
32 42 53
32 42 53
32 42 53
32 42 53
32 42 53
32 42 53
32 42 53
32 42 53
32 42 53
32 42 53
32 42 53
32 42 53
32 42 53
32 42 53
32 42 53
32 42 53
32 42 53
32 42 53
32 42 53
32 42 53
32 42 53
32 42 53
32 42 53
32 42 53
32 42 53
32 42 53
32 42 53
32 42 53
102 227 255
102 227 255
102 227 255
102 227 255
102 227 255
102 227 255
102 227 255
102 227 255
102 227 255
102 227 255
102 227 255
102 227 255
32 42 53
32 42 53
32 42 53
32 42 53
32 42 53
32 42 53
32 42 53
102 227 255
102 227 255
102 227 255
102 227 255
102 227 255
102 227 255
102 227 255
102 227 255
102 227 255
102 227 255
102 227 255
32 42 53
32 42 53
32 42 53
32 42 53
32 42 53
32 42 53
32 42 53
32 42 53
32 42 53
32 42 53
32 42 53
32 42 53
32 42 53
32 42 53
32 42 53
32 42 53
32 42 53
32 42 53
32 42 53
32 42 53
32 42 53
32 42 53
32 42 53
32 42 53
32 42 53
32 42 53
32 42 53
32 42 53
32 42 53
32 42 53
32 42 53
32 42 53
32 42 53
32 42 53
32 42 53
32 42 53
32 42 53
32 42 53
32 42 53
32 42 53
32 42 53
32 42 53
32 42 53
32 42 53
32 42 53
32 42 53
32 42 53
32 42 53
32 42 53
32 42 53
32 42 53
32 42 53
32 42 53
32 42 53
32 42 53
32 42 53
32 42 53
32 42 53
32 42 53
32 42 53
32 42 53
32 42 53
32 42 53
32 42 53
32 42 53
32 42 53
32 42 53
32 42 53
32 42 53
32 42 53
32 42 53
32 42 53
32 42 53
32 42 53
32 42 53
32 42 53
32 42 53
32 42 53
32 42 53
32 42 53
32 42 53
32 42 53
32 42 53
32 42 53
32 42 53
32 42 53
32 42 53
32 42 53
32 42 53
32 42 53
32 42 53
106 124 145
106 124 145
17 24 32
17 24 32
17 24 32
17 24 32
17 24 32
17 24 32
17 24 32
17 24 32
17 24 32
17 24 32
17 24 32
17 24 32
17 24 32
17 24 32
17 24 32
17 24 32
17 24 32
17 24 32
17 24 32
17 24 32
17 24 32
17 24 32
17 24 32
17 24 32
106 124 145
106 124 145
32 42 53
32 42 53
32 42 53
32 42 53
32 42 53
32 42 53
32 42 53
32 42 53
32 42 53
32 42 53
32 42 53
32 42 53
32 42 53
32 42 53
32 42 53
32 42 53
32 42 53
32 42 53
32 42 53
32 42 53
32 42 53
32 42 53
32 42 53
32 42 53
32 42 53
32 42 53
102 227 255
102 227 255
102 227 255
102 227 255
102 227 255
102 227 255
102 227 255
102 227 255
102 227 255
102 227 255
102 227 255
102 227 255
102 227 255
32 42 53
32 42 53
32 42 53
32 42 53
32 42 53
32 42 53
32 42 53
32 42 53
32 42 53
32 42 53
32 42 53
32 42 53
32 42 53
32 42 53
32 42 53
32 42 53
32 42 53
32 42 53
32 42 53
32 42 53
32 42 53
32 42 53
32 42 53
32 42 53
32 42 53
32 42 53
32 42 53
32 42 53
32 42 53
102 227 255
102 227 255
102 227 255
102 227 255
102 227 255
102 227 255
102 227 255
102 227 255
102 227 255
102 227 255
102 227 255
32 42 53
32 42 53
32 42 53
32 42 53
32 42 53
32 42 53
32 42 53
32 42 53
32 42 53
32 42 53
32 42 53
32 42 53
32 42 53
32 42 53
32 42 53
32 42 53
32 42 53
32 42 53
32 42 53
32 42 53
32 42 53
32 42 53
32 42 53
32 42 53
32 42 53
32 42 53
32 42 53
32 42 53
32 42 53
32 42 53
32 42 53
32 42 53
32 42 53
102 227 255
102 227 255
102 227 255
102 227 255
102 227 255
102 227 255
102 227 255
102 227 255
32 42 53
32 42 53
32 42 53
32 42 53
32 42 53
32 42 53
32 42 53
32 42 53
32 42 53
32 42 53
32 42 53
32 42 53
32 42 53
32 42 53
32 42 53
32 42 53
32 42 53
32 42 53
32 42 53
32 42 53
32 42 53
32 42 53
32 42 53
32 42 53
32 42 53
32 42 53
32 42 53
32 42 53
32 42 53
32 42 53
32 42 53
32 42 53
32 42 53
32 42 53
32 42 53
32 42 53
32 42 53
32 42 53
32 42 53
32 42 53
32 42 53
32 42 53
32 42 53
32 42 53
32 42 53
32 42 53
32 42 53
32 42 53
32 42 53
32 42 53
32 42 53
32 42 53
32 42 53
32 42 53
32 42 53
102 227 255
102 227 255
102 227 255
102 227 255
102 227 255
102 227 255
102 227 255
102 227 255
102 227 255
102 227 255
102 227 255
32 42 53
102 227 255
102 227 255
102 227 255
102 227 255
102 227 255
102 227 255
102 227 255
102 227 255
102 227 255
102 227 255
102 227 255
32 42 53
32 42 53
32 42 53
32 42 53
32 42 53
32 42 53
32 42 53
32 42 53
32 42 53
32 42 53
32 42 53
32 42 53
32 42 53
32 42 53
32 42 53
32 42 53
32 42 53
32 42 53
32 42 53
32 42 53
32 42 53
32 42 53
32 42 53
32 42 53
32 42 53
32 42 53
32 42 53
32 42 53
32 42 53
32 42 53
32 42 53
32 42 53
32 42 53
32 42 53
32 42 53
32 42 53
32 42 53
32 42 53
32 42 53
32 42 53
32 42 53
32 42 53
32 42 53
32 42 53
32 42 53
32 42 53
32 42 53
32 42 53
32 42 53
32 42 53
32 42 53
32 42 53
32 42 53
32 42 53
32 42 53
32 42 53
32 42 53
32 42 53
32 42 53
32 42 53
32 42 53
32 42 53
32 42 53
32 42 53
32 42 53
32 42 53
32 42 53
32 42 53
32 42 53
32 42 53
32 42 53
32 42 53
32 42 53
32 42 53
32 42 53
32 42 53
32 42 53
32 42 53
32 42 53
32 42 53
32 42 53
32 42 53
32 42 53
32 42 53
32 42 53
32 42 53
32 42 53
32 42 53
32 42 53
32 42 53
32 42 53
32 42 53
32 42 53
32 42 53
106 124 145
106 124 145
17 24 32
17 24 32
17 24 32
17 24 32
17 24 32
17 24 32
17 24 32
17 24 32
17 24 32
17 24 32
17 24 32
17 24 32
17 24 32
17 24 32
17 24 32
17 24 32
17 24 32
17 24 32
17 24 32
17 24 32
17 24 32
17 24 32
17 24 32
17 24 32
106 124 145
106 124 145
32 42 53
32 42 53
32 42 53
32 42 53
32 42 53
32 42 53
32 42 53
32 42 53
32 42 53
32 42 53
32 42 53
32 42 53
32 42 53
32 42 53
32 42 53
32 42 53
32 42 53
32 42 53
32 42 53
32 42 53
32 42 53
32 42 53
102 227 255
102 227 255
102 227 255
102 227 255
102 227 255
102 227 255
102 227 255
102 227 255
102 227 255
102 227 255
102 227 255
102 227 255
102 227 255
32 42 53
32 42 53
32 42 53
32 42 53
32 42 53
32 42 53
32 42 53
32 42 53
32 42 53
32 42 53
32 42 53
32 42 53
32 42 53
32 42 53
32 42 53
32 42 53
32 42 53
32 42 53
32 42 53
32 42 53
32 42 53
32 42 53
32 42 53
32 42 53
32 42 53
32 42 53
32 42 53
32 42 53
32 42 53
32 42 53
32 42 53
32 42 53
32 42 53
32 42 53
32 42 53
32 42 53
102 227 255
102 227 255
102 227 255
102 227 255
102 227 255
102 227 255
102 227 255
102 227 255
102 227 255
102 227 255
102 227 255
32 42 53
32 42 53
32 42 53
32 42 53
32 42 53
32 42 53
32 42 53
32 42 53
32 42 53
32 42 53
32 42 53
32 42 53
32 42 53
32 42 53
32 42 53
32 42 53
32 42 53
32 42 53
32 42 53
32 42 53
32 42 53
32 42 53
32 42 53
32 42 53
32 42 53
32 42 53
32 42 53
32 42 53
102 227 255
102 227 255
102 227 255
102 227 255
102 227 255
102 227 255
102 227 255
102 227 255
32 42 53
32 42 53
32 42 53
32 42 53
32 42 53
32 42 53
32 42 53
32 42 53
32 42 53
32 42 53
32 42 53
32 42 53
32 42 53
32 42 53
32 42 53
32 42 53
32 42 53
32 42 53
32 42 53
32 42 53
32 42 53
32 42 53
32 42 53
32 42 53
32 42 53
32 42 53
32 42 53
32 42 53
32 42 53
32 42 53
32 42 53
32 42 53
32 42 53
32 42 53
32 42 53
32 42 53
32 42 53
32 42 53
32 42 53
32 42 53
32 42 53
32 42 53
32 42 53
32 42 53
32 42 53
32 42 53
32 42 53
32 42 53
32 42 53
32 42 53
32 42 53
32 42 53
32 42 53
32 42 53
32 42 53
32 42 53
32 42 53
32 42 53
32 42 53
32 42 53
102 227 255
102 227 255
102 227 255
102 227 255
102 227 255
102 227 255
102 227 255
102 227 255
102 227 255
102 227 255
102 227 255
102 227 255
102 227 255
102 227 255
102 227 255
102 227 255
102 227 255
32 42 53
32 42 53
32 42 53
32 42 53
32 42 53
32 42 53
32 42 53
32 42 53
32 42 53
32 42 53
32 42 53
32 42 53
32 42 53
32 42 53
32 42 53
32 42 53
32 42 53
32 42 53
32 42 53
32 42 53
32 42 53
32 42 53
32 42 53
32 42 53
32 42 53
32 42 53
32 42 53
32 42 53
32 42 53
32 42 53
32 42 53
32 42 53
32 42 53
32 42 53
32 42 53
32 42 53
32 42 53
32 42 53
32 42 53
32 42 53
32 42 53
32 42 53
32 42 53
32 42 53
32 42 53
32 42 53
32 42 53
32 42 53
32 42 53
32 42 53
32 42 53
32 42 53
32 42 53
32 42 53
32 42 53
32 42 53
32 42 53
32 42 53
32 42 53
32 42 53
32 42 53
32 42 53
32 42 53
32 42 53
32 42 53
32 42 53
32 42 53
32 42 53
32 42 53
32 42 53
32 42 53
32 42 53
32 42 53
32 42 53
32 42 53
32 42 53
32 42 53
32 42 53
32 42 53
32 42 53
32 42 53
32 42 53
32 42 53
32 42 53
32 42 53
32 42 53
32 42 53
32 42 53
32 42 53
32 42 53
32 42 53
32 42 53
32 42 53
32 42 53
32 42 53
32 42 53
32 42 53
106 124 145
106 124 145
17 24 32
17 24 32
17 24 32
17 24 32
17 24 32
17 24 32
17 24 32
17 24 32
17 24 32
17 24 32
17 24 32
17 24 32
17 24 32
17 24 32
17 24 32
17 24 32
17 24 32
17 24 32
17 24 32
17 24 32
17 24 32
17 24 32
17 24 32
17 24 32
106 124 145
106 124 145
32 42 53
32 42 53
32 42 53
32 42 53
32 42 53
32 42 53
32 42 53
32 42 53
32 42 53
32 42 53
32 42 53
32 42 53
32 42 53
32 42 53
32 42 53
32 42 53
32 42 53
32 42 53
32 42 53
102 227 255
102 227 255
102 227 255
102 227 255
102 227 255
102 227 255
102 227 255
102 227 255
102 227 255
102 227 255
102 227 255
102 227 255
102 227 255
32 42 53
32 42 53
32 42 53
32 42 53
32 42 53
32 42 53
32 42 53
32 42 53
32 42 53
32 42 53
32 42 53
32 42 53
32 42 53
32 42 53
32 42 53
32 42 53
32 42 53
32 42 53
32 42 53
32 42 53
32 42 53
32 42 53
32 42 53
32 42 53
32 42 53
32 42 53
32 42 53
32 42 53
32 42 53
32 42 53
32 42 53
32 42 53
32 42 53
32 42 53
32 42 53
32 42 53
32 42 53
32 42 53
32 42 53
32 42 53
32 42 53
32 42 53
102 227 255
102 227 255
102 227 255
102 227 255
102 227 255
102 227 255
102 227 255
102 227 255
102 227 255
102 227 255
102 227 255
32 42 53
32 42 53
32 42 53
32 42 53
32 42 53
32 42 53
32 42 53
32 42 53
32 42 53
32 42 53
32 42 53
32 42 53
32 42 53
32 42 53
32 42 53
32 42 53
32 42 53
32 42 53
32 42 53
32 42 53
32 42 53
32 42 53
102 227 255
102 227 255
102 227 255
102 227 255
102 227 255
102 227 255
102 227 255
102 227 255
102 227 255
32 42 53
32 42 53
32 42 53
32 42 53
32 42 53
32 42 53
32 42 53
32 42 53
32 42 53
32 42 53
32 42 53
32 42 53
32 42 53
32 42 53
32 42 53
32 42 53
32 42 53
32 42 53
32 42 53
32 42 53
32 42 53
32 42 53
32 42 53
32 42 53
32 42 53
32 42 53
32 42 53
32 42 53
32 42 53
32 42 53
32 42 53
32 42 53
32 42 53
32 42 53
32 42 53
32 42 53
32 42 53
32 42 53
32 42 53
32 42 53
32 42 53
32 42 53
32 42 53
32 42 53
32 42 53
32 42 53
32 42 53
32 42 53
32 42 53
32 42 53
32 42 53
32 42 53
32 42 53
32 42 53
32 42 53
32 42 53
32 42 53
32 42 53
32 42 53
32 42 53
32 42 53
32 42 53
32 42 53
32 42 53
32 42 53
102 227 255
102 227 255
102 227 255
102 227 255
102 227 255
102 227 255
102 227 255
102 227 255
102 227 255
102 227 255
102 227 255
32 42 53
32 42 53
32 42 53
32 42 53
32 42 53
32 42 53
32 42 53
32 42 53
32 42 53
32 42 53
32 42 53
32 42 53
32 42 53
32 42 53
32 42 53
32 42 53
32 42 53
32 42 53
32 42 53
32 42 53
32 42 53
32 42 53
32 42 53
32 42 53
32 42 53
32 42 53
32 42 53
32 42 53
32 42 53
32 42 53
32 42 53
32 42 53
32 42 53
32 42 53
32 42 53
32 42 53
32 42 53
32 42 53
32 42 53
32 42 53
32 42 53
32 42 53
32 42 53
32 42 53
32 42 53
32 42 53
32 42 53
32 42 53
32 42 53
32 42 53
32 42 53
32 42 53
32 42 53
32 42 53
32 42 53
32 42 53
32 42 53
32 42 53
32 42 53
32 42 53
32 42 53
32 42 53
32 42 53
32 42 53
32 42 53
32 42 53
32 42 53
32 42 53
32 42 53
32 42 53
32 42 53
32 42 53
32 42 53
32 42 53
32 42 53
32 42 53
32 42 53
32 42 53
32 42 53
32 42 53
32 42 53
32 42 53
32 42 53
32 42 53
32 42 53
32 42 53
32 42 53
32 42 53
32 42 53
32 42 53
32 42 53
32 42 53
32 42 53
32 42 53
32 42 53
32 42 53
32 42 53
32 42 53
32 42 53
32 42 53
106 124 145
106 124 145
17 24 32
17 24 32
17 24 32
17 24 32
17 24 32
17 24 32
17 24 32
17 24 32
17 24 32
17 24 32
17 24 32
17 24 32
17 24 32
17 24 32
17 24 32
17 24 32
17 24 32
17 24 32
17 24 32
17 24 32
17 24 32
17 24 32
17 24 32
17 24 32
106 124 145
106 124 145
32 42 53
32 42 53
32 42 53
32 42 53
32 42 53
32 42 53
32 42 53
32 42 53
32 42 53
32 42 53
32 42 53
32 42 53
32 42 53
32 42 53
32 42 53
102 227 255
102 227 255
102 227 255
102 227 255
102 227 255
102 227 255
102 227 255
102 227 255
102 227 255
102 227 255
102 227 255
102 227 255
102 227 255
32 42 53
32 42 53
32 42 53
32 42 53
32 42 53
32 42 53
32 42 53
32 42 53
32 42 53
32 42 53
32 42 53
32 42 53
32 42 53
32 42 53
32 42 53
32 42 53
32 42 53
32 42 53
32 42 53
32 42 53
32 42 53
32 42 53
32 42 53
32 42 53
32 42 53
32 42 53
32 42 53
32 42 53
32 42 53
32 42 53
32 42 53
32 42 53
32 42 53
32 42 53
32 42 53
32 42 53
32 42 53
32 42 53
32 42 53
32 42 53
32 42 53
32 42 53
32 42 53
32 42 53
32 42 53
32 42 53
32 42 53
32 42 53
32 42 53
102 227 255
102 227 255
102 227 255
102 227 255
102 227 255
102 227 255
102 227 255
102 227 255
102 227 255
102 227 255
102 227 255
102 227 255
32 42 53
32 42 53
32 42 53
32 42 53
32 42 53
32 42 53
32 42 53
32 42 53
32 42 53
32 42 53
32 42 53
32 42 53
32 42 53
32 42 53
32 42 53
32 42 53
102 227 255
102 227 255
102 227 255
102 227 255
102 227 255
102 227 255
102 227 255
102 227 255
102 227 255
32 42 53
32 42 53
32 42 53
32 42 53
32 42 53
32 42 53
32 42 53
32 42 53
32 42 53
32 42 53
32 42 53
32 42 53
32 42 53
32 42 53
32 42 53
32 42 53
32 42 53
32 42 53
32 42 53
32 42 53
32 42 53
32 42 53
32 42 53
32 42 53
32 42 53
32 42 53
32 42 53
32 42 53
32 42 53
32 42 53
32 42 53
32 42 53
32 42 53
32 42 53
32 42 53
32 42 53
32 42 53
32 42 53
32 42 53
32 42 53
32 42 53
32 42 53
32 42 53
32 42 53
32 42 53
32 42 53
32 42 53
32 42 53
32 42 53
32 42 53
32 42 53
32 42 53
32 42 53
32 42 53
32 42 53
32 42 53
32 42 53
32 42 53
32 42 53
32 42 53
32 42 53
32 42 53
32 42 53
32 42 53
32 42 53
32 42 53
32 42 53
32 42 53
32 42 53
32 42 53
102 227 255
102 227 255
102 227 255
102 227 255
102 227 255
32 42 53
32 42 53
32 42 53
32 42 53
32 42 53
32 42 53
32 42 53
32 42 53
32 42 53
32 42 53
32 42 53
32 42 53
32 42 53
32 42 53
32 42 53
32 42 53
32 42 53
32 42 53
32 42 53
32 42 53
32 42 53
32 42 53
32 42 53
32 42 53
32 42 53
32 42 53
32 42 53
32 42 53
32 42 53
32 42 53
32 42 53
32 42 53
32 42 53
32 42 53
32 42 53
32 42 53
32 42 53
32 42 53
32 42 53
32 42 53
32 42 53
32 42 53
32 42 53
32 42 53
32 42 53
32 42 53
32 42 53
32 42 53
32 42 53
32 42 53
32 42 53
32 42 53
32 42 53
32 42 53
32 42 53
32 42 53
32 42 53
32 42 53
32 42 53
32 42 53
32 42 53
32 42 53
32 42 53
32 42 53
32 42 53
32 42 53
32 42 53
32 42 53
32 42 53
32 42 53
32 42 53
32 42 53
32 42 53
32 42 53
32 42 53
32 42 53
32 42 53
32 42 53
32 42 53
32 42 53
32 42 53
32 42 53
32 42 53
32 42 53
32 42 53
32 42 53
32 42 53
32 42 53
32 42 53
32 42 53
32 42 53
32 42 53
32 42 53
32 42 53
32 42 53
32 42 53
32 42 53
32 42 53
32 42 53
32 42 53
32 42 53
32 42 53
32 42 53
106 124 145
106 124 145
17 24 32
17 24 32
17 24 32
17 24 32
17 24 32
17 24 32
17 24 32
17 24 32
17 24 32
17 24 32
17 24 32
17 24 32
17 24 32
17 24 32
17 24 32
17 24 32
17 24 32
17 24 32
17 24 32
17 24 32
17 24 32
17 24 32
17 24 32
17 24 32
106 124 145
106 124 145
32 42 53
32 42 53
32 42 53
32 42 53
32 42 53
32 42 53
32 42 53
32 42 53
32 42 53
32 42 53
32 42 53
102 227 255
102 227 255
102 227 255
102 227 255
102 227 255
102 227 255
102 227 255
102 227 255
102 227 255
102 227 255
102 227 255
102 227 255
102 227 255
32 42 53
32 42 53
32 42 53
32 42 53
32 42 53
32 42 53
32 42 53
32 42 53
32 42 53
32 42 53
32 42 53
32 42 53
32 42 53
32 42 53
32 42 53
32 42 53
32 42 53
32 42 53
32 42 53
32 42 53
32 42 53
32 42 53
32 42 53
32 42 53
32 42 53
32 42 53
32 42 53
32 42 53
32 42 53
32 42 53
32 42 53
32 42 53
32 42 53
32 42 53
32 42 53
32 42 53
32 42 53
32 42 53
32 42 53
32 42 53
32 42 53
32 42 53
32 42 53
32 42 53
32 42 53
32 42 53
32 42 53
32 42 53
32 42 53
32 42 53
32 42 53
32 42 53
32 42 53
32 42 53
32 42 53
32 42 53
102 227 255
102 227 255
102 227 255
102 227 255
102 227 255
102 227 255
102 227 255
102 227 255
102 227 255
102 227 255
102 227 255
102 227 255
32 42 53
32 42 53
32 42 53
32 42 53
32 42 53
32 42 53
32 42 53
32 42 53
32 42 53
32 42 53
32 42 53
102 227 255
102 227 255
102 227 255
102 227 255
102 227 255
102 227 255
102 227 255
102 227 255
102 227 255
32 42 53
32 42 53
32 42 53
32 42 53
32 42 53
32 42 53
32 42 53
32 42 53
32 42 53
32 42 53
32 42 53
32 42 53
32 42 53
32 42 53
32 42 53
32 42 53
32 42 53
32 42 53
32 42 53
32 42 53
32 42 53
32 42 53
32 42 53
32 42 53
32 42 53
32 42 53
32 42 53
32 42 53
32 42 53
32 42 53
32 42 53
32 42 53
32 42 53
32 42 53
32 42 53
32 42 53
32 42 53
32 42 53
32 42 53
32 42 53
32 42 53
32 42 53
32 42 53
32 42 53
32 42 53
32 42 53
32 42 53
32 42 53
32 42 53
32 42 53
32 42 53
32 42 53
32 42 53
32 42 53
32 42 53
32 42 53
32 42 53
32 42 53
32 42 53
32 42 53
32 42 53
32 42 53
32 42 53
32 42 53
32 42 53
32 42 53
32 42 53
32 42 53
32 42 53
32 42 53
32 42 53
32 42 53
32 42 53
32 42 53
32 42 53
32 42 53
32 42 53
32 42 53
32 42 53
32 42 53
32 42 53
32 42 53
32 42 53
32 42 53
32 42 53
32 42 53
32 42 53
32 42 53
32 42 53
32 42 53
32 42 53
32 42 53
32 42 53
32 42 53
32 42 53
32 42 53
32 42 53
32 42 53
32 42 53
32 42 53
32 42 53
32 42 53
32 42 53
32 42 53
32 42 53
32 42 53
32 42 53
32 42 53
32 42 53
32 42 53
32 42 53
32 42 53
32 42 53
32 42 53
32 42 53
32 42 53
32 42 53
32 42 53
32 42 53
32 42 53
32 42 53
32 42 53
32 42 53
32 42 53
32 42 53
32 42 53
32 42 53
32 42 53
32 42 53
32 42 53
32 42 53
32 42 53
32 42 53
32 42 53
32 42 53
32 42 53
32 42 53
32 42 53
32 42 53
32 42 53
32 42 53
32 42 53
32 42 53
32 42 53
32 42 53
32 42 53
32 42 53
32 42 53
32 42 53
32 42 53
32 42 53
32 42 53
32 42 53
32 42 53
32 42 53
32 42 53
32 42 53
32 42 53
32 42 53
32 42 53
32 42 53
32 42 53
32 42 53
32 42 53
32 42 53
32 42 53
32 42 53
32 42 53
32 42 53
32 42 53
32 42 53
32 42 53
32 42 53
32 42 53
32 42 53
32 42 53
32 42 53
32 42 53
32 42 53
32 42 53
106 124 145
106 124 145
17 24 32
17 24 32
17 24 32
17 24 32
17 24 32
17 24 32
17 24 32
17 24 32
17 24 32
17 24 32
17 24 32
17 24 32
17 24 32
17 24 32
17 24 32
17 24 32
17 24 32
17 24 32
17 24 32
17 24 32
17 24 32
17 24 32
17 24 32
17 24 32
106 124 145
106 124 145
32 42 53
32 42 53
32 42 53
32 42 53
32 42 53
32 42 53
32 42 53
32 42 53
32 42 53
102 227 255
102 227 255
102 227 255
102 227 255
102 227 255
102 227 255
102 227 255
102 227 255
102 227 255
102 227 255
102 227 255
102 227 255
32 42 53
32 42 53
32 42 53
32 42 53
32 42 53
32 42 53
32 42 53
32 42 53
32 42 53
32 42 53
32 42 53
32 42 53
32 42 53
32 42 53
32 42 53
32 42 53
32 42 53
32 42 53
32 42 53
32 42 53
32 42 53
32 42 53
32 42 53
32 42 53
32 42 53
32 42 53
32 42 53
32 42 53
32 42 53
32 42 53
32 42 53
32 42 53
32 42 53
32 42 53
32 42 53
32 42 53
32 42 53
32 42 53
32 42 53
32 42 53
32 42 53
32 42 53
32 42 53
32 42 53
32 42 53
32 42 53
32 42 53
32 42 53
32 42 53
32 42 53
32 42 53
32 42 53
32 42 53
32 42 53
32 42 53
32 42 53
32 42 53
32 42 53
32 42 53
32 42 53
32 42 53
32 42 53
102 227 255
102 227 255
102 227 255
102 227 255
102 227 255
102 227 255
102 227 255
102 227 255
102 227 255
102 227 255
102 227 255
102 227 255
32 42 53
32 42 53
32 42 53
32 42 53
32 42 53
32 42 53
102 227 255
102 227 255
102 227 255
102 227 255
102 227 255
102 227 255
102 227 255
102 227 255
32 42 53
32 42 53
32 42 53
32 42 53
32 42 53
32 42 53
32 42 53
32 42 53
32 42 53
32 42 53
32 42 53
32 42 53
32 42 53
32 42 53
32 42 53
32 42 53
32 42 53
32 42 53
32 42 53
32 42 53
32 42 53
32 42 53
32 42 53
32 42 53
32 42 53
32 42 53
32 42 53
32 42 53
32 42 53
32 42 53
32 42 53
32 42 53
32 42 53
32 42 53
32 42 53
32 42 53
32 42 53
32 42 53
32 42 53
32 42 53
32 42 53
32 42 53
32 42 53
32 42 53
32 42 53
32 42 53
32 42 53
32 42 53
32 42 53
32 42 53
32 42 53
32 42 53
32 42 53
32 42 53
32 42 53
32 42 53
32 42 53
32 42 53
32 42 53
32 42 53
32 42 53
32 42 53
32 42 53
32 42 53
32 42 53
32 42 53
32 42 53
32 42 53
32 42 53
32 42 53
32 42 53
32 42 53
32 42 53
32 42 53
32 42 53
32 42 53
32 42 53
32 42 53
32 42 53
32 42 53
32 42 53
32 42 53
32 42 53
32 42 53
32 42 53
32 42 53
32 42 53
32 42 53
32 42 53
32 42 53
32 42 53
32 42 53
32 42 53
32 42 53
32 42 53
32 42 53
32 42 53
32 42 53
32 42 53
32 42 53
32 42 53
32 42 53
32 42 53
32 42 53
32 42 53
32 42 53
32 42 53
32 42 53
32 42 53
32 42 53
32 42 53
32 42 53
32 42 53
32 42 53
32 42 53
32 42 53
32 42 53
32 42 53
32 42 53
32 42 53
32 42 53
32 42 53
32 42 53
32 42 53
32 42 53
32 42 53
32 42 53
32 42 53
32 42 53
32 42 53
32 42 53
32 42 53
32 42 53
32 42 53
32 42 53
32 42 53
32 42 53
32 42 53
32 42 53
32 42 53
32 42 53
32 42 53
32 42 53
32 42 53
32 42 53
32 42 53
32 42 53
32 42 53
32 42 53
32 42 53
32 42 53
32 42 53
32 42 53
32 42 53
32 42 53
32 42 53
32 42 53
32 42 53
32 42 53
32 42 53
32 42 53
32 42 53
32 42 53
32 42 53
32 42 53
32 42 53
32 42 53
32 42 53
32 42 53
32 42 53
32 42 53
32 42 53
32 42 53
32 42 53
32 42 53
32 42 53
32 42 53
32 42 53
32 42 53
32 42 53
32 42 53
32 42 53
32 42 53
106 124 145
106 124 145
17 24 32
17 24 32
17 24 32
17 24 32
17 24 32
17 24 32
17 24 32
17 24 32
17 24 32
17 24 32
17 24 32
17 24 32
17 24 32
17 24 32
17 24 32
17 24 32
17 24 32
17 24 32
17 24 32
17 24 32
17 24 32
17 24 32
17 24 32
17 24 32
106 124 145
106 124 145
32 42 53
32 42 53
32 42 53
32 42 53
32 42 53
32 42 53
32 42 53
32 42 53
32 42 53
102 227 255
102 227 255
102 227 255
102 227 255
102 227 255
102 227 255
102 227 255
102 227 255
32 42 53
32 42 53
32 42 53
32 42 53
32 42 53
32 42 53
32 42 53
32 42 53
32 42 53
32 42 53
32 42 53
32 42 53
32 42 53
32 42 53
32 42 53
32 42 53
32 42 53
32 42 53
32 42 53
32 42 53
32 42 53
32 42 53
32 42 53
32 42 53
32 42 53
32 42 53
32 42 53
32 42 53
32 42 53
32 42 53
32 42 53
32 42 53
32 42 53
32 42 53
32 42 53
32 42 53
32 42 53
32 42 53
32 42 53
32 42 53
32 42 53
32 42 53
32 42 53
32 42 53
32 42 53
32 42 53
32 42 53
32 42 53
32 42 53
32 42 53
32 42 53
32 42 53
32 42 53
32 42 53
32 42 53
32 42 53
32 42 53
32 42 53
32 42 53
32 42 53
32 42 53
32 42 53
32 42 53
32 42 53
32 42 53
32 42 53
32 42 53
32 42 53
32 42 53
32 42 53
102 227 255
102 227 255
102 227 255
102 227 255
102 227 255
102 227 255
102 227 255
102 227 255
102 227 255
102 227 255
102 227 255
32 42 53
102 227 255
102 227 255
102 227 255
102 227 255
102 227 255
102 227 255
102 227 255
102 227 255
32 42 53
32 42 53
32 42 53
32 42 53
32 42 53
32 42 53
32 42 53
32 42 53
32 42 53
32 42 53
32 42 53
32 42 53
32 42 53
32 42 53
32 42 53
32 42 53
32 42 53
32 42 53
32 42 53
32 42 53
32 42 53
32 42 53
32 42 53
32 42 53
32 42 53
32 42 53
32 42 53
32 42 53
32 42 53
32 42 53
32 42 53
32 42 53
32 42 53
32 42 53
32 42 53
32 42 53
32 42 53
32 42 53
32 42 53
32 42 53
32 42 53
32 42 53
32 42 53
32 42 53
32 42 53
32 42 53
32 42 53
32 42 53
32 42 53
32 42 53
32 42 53
32 42 53
32 42 53
32 42 53
32 42 53
32 42 53
32 42 53
32 42 53
32 42 53
32 42 53
32 42 53
32 42 53
32 42 53
32 42 53
32 42 53
32 42 53
32 42 53
32 42 53
32 42 53
32 42 53
32 42 53
32 42 53
32 42 53
32 42 53
32 42 53
32 42 53
32 42 53
32 42 53
32 42 53
32 42 53
32 42 53
32 42 53
32 42 53
32 42 53
32 42 53
32 42 53
32 42 53
32 42 53
32 42 53
32 42 53
32 42 53
32 42 53
32 42 53
32 42 53
32 42 53
32 42 53
32 42 53
32 42 53
32 42 53
32 42 53
32 42 53
32 42 53
32 42 53
32 42 53
32 42 53
32 42 53
32 42 53
32 42 53
32 42 53
32 42 53
32 42 53
32 42 53
32 42 53
32 42 53
32 42 53
32 42 53
32 42 53
32 42 53
32 42 53
32 42 53
32 42 53
32 42 53
32 42 53
32 42 53
32 42 53
32 42 53
32 42 53
32 42 53
32 42 53
32 42 53
32 42 53
32 42 53
32 42 53
32 42 53
32 42 53
32 42 53
32 42 53
32 42 53
32 42 53
32 42 53
32 42 53
32 42 53
32 42 53
32 42 53
32 42 53
32 42 53
32 42 53
32 42 53
32 42 53
32 42 53
32 42 53
32 42 53
32 42 53
32 42 53
32 42 53
32 42 53
32 42 53
32 42 53
32 42 53
32 42 53
32 42 53
32 42 53
32 42 53
32 42 53
32 42 53
32 42 53
32 42 53
32 42 53
32 42 53
32 42 53
32 42 53
32 42 53
32 42 53
32 42 53
32 42 53
32 42 53
32 42 53
32 42 53
32 42 53
32 42 53
32 42 53
32 42 53
32 42 53
32 42 53
32 42 53
106 124 145
106 124 145
17 24 32
17 24 32
17 24 32
17 24 32
17 24 32
17 24 32
17 24 32
17 24 32
17 24 32
17 24 32
17 24 32
17 24 32
17 24 32
17 24 32
17 24 32
17 24 32
17 24 32
17 24 32
17 24 32
17 24 32
17 24 32
17 24 32
17 24 32
17 24 32
106 124 145
106 124 145
32 42 53
32 42 53
32 42 53
32 42 53
32 42 53
32 42 53
32 42 53
32 42 53
32 42 53
102 227 255
102 227 255
102 227 255
102 227 255
32 42 53
32 42 53
32 42 53
32 42 53
32 42 53
32 42 53
32 42 53
32 42 53
32 42 53
32 42 53
32 42 53
32 42 53
32 42 53
32 42 53
32 42 53
32 42 53
32 42 53
32 42 53
32 42 53
32 42 53
32 42 53
32 42 53
32 42 53
32 42 53
32 42 53
32 42 53
32 42 53
32 42 53
32 42 53
32 42 53
32 42 53
32 42 53
32 42 53
32 42 53
32 42 53
32 42 53
32 42 53
32 42 53
32 42 53
32 42 53
32 42 53
32 42 53
32 42 53
32 42 53
32 42 53
32 42 53
32 42 53
32 42 53
32 42 53
32 42 53
32 42 53
32 42 53
32 42 53
32 42 53
32 42 53
32 42 53
32 42 53
32 42 53
32 42 53
32 42 53
32 42 53
32 42 53
32 42 53
32 42 53
32 42 53
32 42 53
32 42 53
32 42 53
32 42 53
32 42 53
32 42 53
32 42 53
32 42 53
32 42 53
32 42 53
32 42 53
32 42 53
102 227 255
102 227 255
102 227 255
102 227 255
102 227 255
102 227 255
102 227 255
102 227 255
102 227 255
102 227 255
102 227 255
102 227 255
102 227 255
102 227 255
102 227 255
32 42 53
32 42 53
32 42 53
32 42 53
32 42 53
32 42 53
32 42 53
32 42 53
32 42 53
32 42 53
32 42 53
32 42 53
32 42 53
32 42 53
32 42 53
32 42 53
32 42 53
32 42 53
32 42 53
32 42 53
32 42 53
32 42 53
32 42 53
32 42 53
32 42 53
32 42 53
32 42 53
32 42 53
32 42 53
32 42 53
32 42 53
32 42 53
32 42 53
32 42 53
32 42 53
32 42 53
32 42 53
32 42 53
32 42 53
32 42 53
32 42 53
32 42 53
32 42 53
32 42 53
32 42 53
32 42 53
32 42 53
32 42 53
32 42 53
32 42 53
32 42 53
32 42 53
32 42 53
32 42 53
32 42 53
32 42 53
32 42 53
32 42 53
32 42 53
32 42 53
32 42 53
32 42 53
32 42 53
32 42 53
32 42 53
32 42 53
32 42 53
32 42 53
32 42 53
32 42 53
32 42 53
32 42 53
32 42 53
32 42 53
32 42 53
32 42 53
32 42 53
32 42 53
32 42 53
32 42 53
32 42 53
32 42 53
32 42 53
32 42 53
32 42 53
32 42 53
32 42 53
32 42 53
32 42 53
32 42 53
32 42 53
32 42 53
32 42 53
32 42 53
32 42 53
32 42 53
32 42 53
32 42 53
32 42 53
32 42 53
32 42 53
32 42 53
32 42 53
32 42 53
32 42 53
32 42 53
32 42 53
32 42 53
32 42 53
32 42 53
32 42 53
32 42 53
32 42 53
32 42 53
32 42 53
32 42 53
32 42 53
32 42 53
32 42 53
32 42 53
32 42 53
32 42 53
32 42 53
32 42 53
32 42 53
32 42 53
32 42 53
32 42 53
32 42 53
32 42 53
32 42 53
32 42 53
32 42 53
32 42 53
32 42 53
32 42 53
32 42 53
32 42 53
32 42 53
32 42 53
32 42 53
32 42 53
32 42 53
32 42 53
32 42 53
32 42 53
32 42 53
32 42 53
32 42 53
32 42 53
32 42 53
32 42 53
32 42 53
32 42 53
32 42 53
32 42 53
32 42 53
32 42 53
32 42 53
32 42 53
32 42 53
32 42 53
32 42 53
32 42 53
32 42 53
32 42 53
32 42 53
32 42 53
32 42 53
32 42 53
32 42 53
32 42 53
32 42 53
32 42 53
32 42 53
32 42 53
32 42 53
32 42 53
32 42 53
32 42 53
32 42 53
32 42 53
32 42 53
32 42 53
32 42 53
32 42 53
32 42 53
106 124 145
106 124 145
17 24 32
17 24 32
17 24 32
17 24 32
17 24 32
17 24 32
17 24 32
17 24 32
17 24 32
17 24 32
17 24 32
17 24 32
17 24 32
17 24 32
17 24 32
17 24 32
17 24 32
17 24 32
17 24 32
17 24 32
17 24 32
17 24 32
17 24 32
17 24 32
106 124 145
106 124 145
32 42 53
32 42 53
32 42 53
32 42 53
32 42 53
32 42 53
32 42 53
32 42 53
32 42 53
32 42 53
32 42 53
32 42 53
32 42 53
32 42 53
32 42 53
32 42 53
32 42 53
32 42 53
32 42 53
32 42 53
32 42 53
32 42 53
32 42 53
32 42 53
32 42 53
32 42 53
32 42 53
32 42 53
32 42 53
32 42 53
32 42 53
32 42 53
32 42 53
32 42 53
32 42 53
32 42 53
32 42 53
32 42 53
32 42 53
32 42 53
32 42 53
32 42 53
32 42 53
32 42 53
32 42 53
32 42 53
32 42 53
32 42 53
32 42 53
32 42 53
32 42 53
32 42 53
32 42 53
32 42 53
32 42 53
32 42 53
32 42 53
32 42 53
32 42 53
32 42 53
32 42 53
32 42 53
32 42 53
32 42 53
32 42 53
32 42 53
32 42 53
32 42 53
32 42 53
32 42 53
32 42 53
32 42 53
32 42 53
32 42 53
32 42 53
32 42 53
32 42 53
32 42 53
32 42 53
32 42 53
32 42 53
32 42 53
32 42 53
32 42 53
32 42 53
32 42 53
32 42 53
32 42 53
32 42 53
32 42 53
32 42 53
32 42 53
32 42 53
102 227 255
102 227 255
102 227 255
102 227 255
102 227 255
102 227 255
102 227 255
102 227 255
102 227 255
102 227 255
32 42 53
32 42 53
32 42 53
32 42 53
32 42 53
32 42 53
32 42 53
32 42 53
32 42 53
32 42 53
32 42 53
32 42 53
32 42 53
32 42 53
32 42 53
32 42 53
32 42 53
32 42 53
32 42 53
32 42 53
32 42 53
32 42 53
32 42 53
32 42 53
32 42 53
32 42 53
32 42 53
32 42 53
32 42 53
32 42 53
32 42 53
32 42 53
32 42 53
32 42 53
32 42 53
32 42 53
32 42 53
32 42 53
32 42 53
32 42 53
32 42 53
32 42 53
32 42 53
32 42 53
32 42 53
32 42 53
32 42 53
32 42 53
32 42 53
32 42 53
32 42 53
32 42 53
32 42 53
32 42 53
32 42 53
32 42 53
32 42 53
32 42 53
32 42 53
32 42 53
32 42 53
32 42 53
32 42 53
32 42 53
32 42 53
32 42 53
32 42 53
32 42 53
32 42 53
32 42 53
32 42 53
32 42 53
32 42 53
32 42 53
32 42 53
32 42 53
32 42 53
32 42 53
32 42 53
32 42 53
32 42 53
32 42 53
32 42 53
32 42 53
32 42 53
32 42 53
32 42 53
32 42 53
32 42 53
32 42 53
32 42 53
32 42 53
32 42 53
32 42 53
32 42 53
32 42 53
32 42 53
32 42 53
32 42 53
32 42 53
32 42 53
32 42 53
32 42 53
32 42 53
32 42 53
32 42 53
32 42 53
32 42 53
32 42 53
32 42 53
32 42 53
32 42 53
32 42 53
32 42 53
32 42 53
32 42 53
32 42 53
32 42 53
32 42 53
32 42 53
32 42 53
32 42 53
32 42 53
32 42 53
32 42 53
32 42 53
32 42 53
32 42 53
32 42 53
32 42 53
32 42 53
32 42 53
32 42 53
32 42 53
32 42 53
32 42 53
32 42 53
32 42 53
32 42 53
32 42 53
32 42 53
32 42 53
32 42 53
32 42 53
32 42 53
32 42 53
32 42 53
32 42 53
32 42 53
32 42 53
32 42 53
32 42 53
32 42 53
32 42 53
32 42 53
32 42 53
32 42 53
32 42 53
32 42 53
32 42 53
32 42 53
32 42 53
32 42 53
32 42 53
32 42 53
32 42 53
32 42 53
32 42 53
32 42 53
32 42 53
32 42 53
32 42 53
32 42 53
32 42 53
32 42 53
32 42 53
32 42 53
32 42 53
32 42 53
32 42 53
32 42 53
32 42 53
32 42 53
32 42 53
32 42 53
32 42 53
32 42 53
32 42 53
32 42 53
106 124 145
106 124 145
17 24 32
17 24 32
17 24 32
17 24 32
17 24 32
17 24 32
17 24 32
17 24 32
17 24 32
17 24 32
17 24 32
17 24 32
17 24 32
17 24 32
17 24 32
17 24 32
17 24 32
17 24 32
17 24 32
17 24 32
17 24 32
17 24 32
17 24 32
17 24 32
106 124 145
106 124 145
32 42 53
32 42 53
32 42 53
32 42 53
32 42 53
32 42 53
32 42 53
32 42 53
32 42 53
32 42 53
32 42 53
32 42 53
32 42 53
32 42 53
32 42 53
32 42 53
32 42 53
32 42 53
32 42 53
32 42 53
32 42 53
32 42 53
32 42 53
32 42 53
32 42 53
32 42 53
32 42 53
32 42 53
32 42 53
32 42 53
32 42 53
32 42 53
32 42 53
32 42 53
32 42 53
32 42 53
32 42 53
32 42 53
32 42 53
32 42 53
32 42 53
32 42 53
32 42 53
32 42 53
32 42 53
32 42 53
32 42 53
32 42 53
32 42 53
32 42 53
32 42 53
32 42 53
32 42 53
32 42 53
32 42 53
32 42 53
32 42 53
32 42 53
32 42 53
32 42 53
32 42 53
32 42 53
32 42 53
32 42 53
32 42 53
32 42 53
32 42 53
32 42 53
32 42 53
32 42 53
32 42 53
32 42 53
32 42 53
32 42 53
32 42 53
32 42 53
32 42 53
32 42 53
32 42 53
32 42 53
32 42 53
32 42 53
32 42 53
32 42 53
32 42 53
32 42 53
32 42 53
32 42 53
32 42 53
32 42 53
32 42 53
32 42 53
32 42 53
32 42 53
32 42 53
32 42 53
102 227 255
102 227 255
102 227 255
102 227 255
102 227 255
32 42 53
32 42 53
32 42 53
32 42 53
32 42 53
32 42 53
32 42 53
32 42 53
32 42 53
32 42 53
32 42 53
32 42 53
32 42 53
32 42 53
32 42 53
32 42 53
32 42 53
32 42 53
32 42 53
32 42 53
32 42 53
32 42 53
32 42 53
32 42 53
32 42 53
32 42 53
32 42 53
32 42 53
32 42 53
32 42 53
32 42 53
32 42 53
32 42 53
32 42 53
32 42 53
32 42 53
32 42 53
32 42 53
32 42 53
32 42 53
32 42 53
32 42 53
32 42 53
32 42 53
32 42 53
32 42 53
32 42 53
32 42 53
32 42 53
32 42 53
32 42 53
32 42 53
32 42 53
32 42 53
32 42 53
32 42 53
32 42 53
32 42 53
32 42 53
32 42 53
32 42 53
32 42 53
32 42 53
32 42 53
32 42 53
32 42 53
32 42 53
32 42 53
32 42 53
32 42 53
32 42 53
32 42 53
32 42 53
32 42 53
32 42 53
32 42 53
32 42 53
32 42 53
32 42 53
32 42 53
32 42 53
32 42 53
32 42 53
32 42 53
32 42 53
32 42 53
32 42 53
32 42 53
32 42 53
32 42 53
32 42 53
32 42 53
32 42 53
32 42 53
32 42 53
32 42 53
32 42 53
32 42 53
32 42 53
32 42 53
32 42 53
32 42 53
32 42 53
32 42 53
32 42 53
32 42 53
32 42 53
32 42 53
32 42 53
32 42 53
32 42 53
32 42 53
32 42 53
32 42 53
32 42 53
32 42 53
32 42 53
32 42 53
32 42 53
32 42 53
32 42 53
32 42 53
32 42 53
32 42 53
32 42 53
32 42 53
32 42 53
32 42 53
32 42 53
32 42 53
32 42 53
32 42 53
32 42 53
32 42 53
32 42 53
32 42 53
32 42 53
32 42 53
32 42 53
32 42 53
32 42 53
32 42 53
32 42 53
32 42 53
32 42 53
32 42 53
32 42 53
32 42 53
32 42 53
32 42 53
32 42 53
32 42 53
32 42 53
32 42 53
32 42 53
32 42 53
32 42 53
32 42 53
32 42 53
32 42 53
32 42 53
32 42 53
32 42 53
32 42 53
32 42 53
32 42 53
32 42 53
32 42 53
32 42 53
32 42 53
32 42 53
32 42 53
32 42 53
32 42 53
32 42 53
32 42 53
32 42 53
32 42 53
32 42 53
32 42 53
32 42 53
32 42 53
32 42 53
32 42 53
32 42 53
32 42 53
32 42 53
32 42 53
32 42 53
32 42 53
32 42 53
106 124 145
106 124 145
17 24 32
17 24 32
17 24 32
17 24 32
17 24 32
17 24 32
17 24 32
17 24 32
17 24 32
17 24 32
17 24 32
17 24 32
17 24 32
17 24 32
17 24 32
17 24 32
17 24 32
17 24 32
17 24 32
17 24 32
17 24 32
17 24 32
17 24 32
17 24 32
106 124 145
106 124 145
32 42 53
32 42 53
32 42 53
32 42 53
32 42 53
32 42 53
32 42 53
32 42 53
32 42 53
32 42 53
32 42 53
32 42 53
32 42 53
32 42 53
32 42 53
32 42 53
32 42 53
32 42 53
32 42 53
32 42 53
32 42 53
32 42 53
32 42 53
32 42 53
32 42 53
32 42 53
32 42 53
32 42 53
32 42 53
32 42 53
32 42 53
32 42 53
32 42 53
32 42 53
32 42 53
32 42 53
32 42 53
32 42 53
32 42 53
32 42 53
32 42 53
32 42 53
32 42 53
32 42 53
32 42 53
32 42 53
32 42 53
32 42 53
32 42 53
32 42 53
32 42 53
32 42 53
32 42 53
32 42 53
32 42 53
32 42 53
32 42 53
32 42 53
32 42 53
32 42 53
32 42 53
32 42 53
32 42 53
32 42 53
32 42 53
32 42 53
32 42 53
32 42 53
32 42 53
32 42 53
32 42 53
32 42 53
32 42 53
32 42 53
32 42 53
32 42 53
32 42 53
32 42 53
32 42 53
32 42 53
32 42 53
32 42 53
32 42 53
32 42 53
32 42 53
32 42 53
32 42 53
32 42 53
32 42 53
32 42 53
32 42 53
32 42 53
32 42 53
32 42 53
32 42 53
32 42 53
32 42 53
32 42 53
32 42 53
32 42 53
32 42 53
32 42 53
32 42 53
32 42 53
32 42 53
32 42 53
32 42 53
32 42 53
32 42 53
32 42 53
32 42 53
32 42 53
32 42 53
32 42 53
32 42 53
32 42 53
32 42 53
32 42 53
32 42 53
32 42 53
32 42 53
32 42 53
32 42 53
32 42 53
32 42 53
32 42 53
32 42 53
32 42 53
32 42 53
32 42 53
32 42 53
32 42 53
32 42 53
32 42 53
32 42 53
32 42 53
32 42 53
32 42 53
32 42 53
32 42 53
32 42 53
32 42 53
32 42 53
32 42 53
32 42 53
32 42 53
32 42 53
32 42 53
32 42 53
32 42 53
32 42 53
32 42 53
32 42 53
32 42 53
32 42 53
32 42 53
32 42 53
32 42 53
32 42 53
32 42 53
32 42 53
32 42 53
32 42 53
32 42 53
32 42 53
32 42 53
32 42 53
32 42 53
32 42 53
32 42 53
32 42 53
32 42 53
32 42 53
32 42 53
32 42 53
32 42 53
32 42 53
32 42 53
32 42 53
32 42 53
32 42 53
32 42 53
32 42 53
32 42 53
32 42 53
32 42 53
32 42 53
32 42 53
32 42 53
32 42 53
32 42 53
32 42 53
32 42 53
32 42 53
32 42 53
32 42 53
32 42 53
32 42 53
32 42 53
32 42 53
32 42 53
32 42 53
32 42 53
32 42 53
32 42 53
32 42 53
32 42 53
32 42 53
32 42 53
32 42 53
32 42 53
32 42 53
32 42 53
32 42 53
32 42 53
32 42 53
32 42 53
32 42 53
32 42 53
32 42 53
32 42 53
32 42 53
32 42 53
32 42 53
32 42 53
32 42 53
32 42 53
32 42 53
32 42 53
32 42 53
32 42 53
32 42 53
32 42 53
32 42 53
32 42 53
32 42 53
32 42 53
32 42 53
32 42 53
32 42 53
32 42 53
32 42 53
32 42 53
32 42 53
32 42 53
32 42 53
32 42 53
32 42 53
32 42 53
32 42 53
32 42 53
32 42 53
32 42 53
32 42 53
32 42 53
32 42 53
32 42 53
32 42 53
32 42 53
32 42 53
32 42 53
32 42 53
32 42 53
32 42 53
32 42 53
32 42 53
32 42 53
32 42 53
32 42 53
32 42 53
32 42 53
32 42 53
32 42 53
32 42 53
32 42 53
32 42 53
32 42 53
32 42 53
32 42 53
32 42 53
32 42 53
32 42 53
32 42 53
32 42 53
32 42 53
32 42 53
32 42 53
32 42 53
32 42 53
32 42 53
32 42 53
32 42 53
106 124 145
106 124 145
17 24 32
17 24 32
17 24 32
17 24 32
17 24 32
17 24 32
17 24 32
17 24 32
17 24 32
17 24 32
17 24 32
17 24 32
17 24 32
17 24 32
17 24 32
17 24 32
17 24 32
17 24 32
17 24 32
17 24 32
17 24 32
17 24 32
17 24 32
17 24 32
106 124 145
106 124 145
32 42 53
32 42 53
32 42 53
32 42 53
32 42 53
32 42 53
32 42 53
32 42 53
32 42 53
32 42 53
32 42 53
32 42 53
32 42 53
32 42 53
32 42 53
32 42 53
32 42 53
32 42 53
32 42 53
32 42 53
32 42 53
32 42 53
32 42 53
32 42 53
32 42 53
32 42 53
32 42 53
32 42 53
32 42 53
32 42 53
32 42 53
32 42 53
32 42 53
32 42 53
32 42 53
32 42 53
32 42 53
32 42 53
32 42 53
32 42 53
32 42 53
32 42 53
32 42 53
32 42 53
32 42 53
32 42 53
32 42 53
32 42 53
32 42 53
32 42 53
32 42 53
32 42 53
32 42 53
32 42 53
32 42 53
32 42 53
32 42 53
32 42 53
32 42 53
32 42 53
32 42 53
32 42 53
32 42 53
32 42 53
32 42 53
32 42 53
32 42 53
32 42 53
32 42 53
32 42 53
32 42 53
32 42 53
32 42 53
32 42 53
32 42 53
32 42 53
32 42 53
32 42 53
32 42 53
32 42 53
32 42 53
32 42 53
32 42 53
32 42 53
32 42 53
32 42 53
32 42 53
32 42 53
32 42 53
32 42 53
32 42 53
32 42 53
32 42 53
32 42 53
32 42 53
32 42 53
32 42 53
32 42 53
32 42 53
32 42 53
32 42 53
32 42 53
32 42 53
32 42 53
32 42 53
32 42 53
32 42 53
32 42 53
32 42 53
32 42 53
32 42 53
32 42 53
32 42 53
32 42 53
32 42 53
32 42 53
32 42 53
32 42 53
32 42 53
32 42 53
32 42 53
32 42 53
32 42 53
32 42 53
32 42 53
32 42 53
32 42 53
32 42 53
32 42 53
32 42 53
32 42 53
32 42 53
32 42 53
32 42 53
32 42 53
32 42 53
32 42 53
32 42 53
32 42 53
32 42 53
32 42 53
32 42 53
32 42 53
32 42 53
32 42 53
32 42 53
32 42 53
32 42 53
32 42 53
32 42 53
32 42 53
32 42 53
32 42 53
32 42 53
32 42 53
32 42 53
32 42 53
32 42 53
32 42 53
32 42 53
32 42 53
32 42 53
32 42 53
32 42 53
32 42 53
32 42 53
32 42 53
32 42 53
32 42 53
32 42 53
32 42 53
32 42 53
32 42 53
32 42 53
32 42 53
32 42 53
32 42 53
32 42 53
32 42 53
32 42 53
32 42 53
32 42 53
32 42 53
32 42 53
32 42 53
32 42 53
32 42 53
32 42 53
32 42 53
32 42 53
32 42 53
32 42 53
32 42 53
32 42 53
32 42 53
32 42 53
32 42 53
32 42 53
32 42 53
32 42 53
32 42 53
32 42 53
32 42 53
32 42 53
32 42 53
32 42 53
32 42 53
32 42 53
32 42 53
32 42 53
32 42 53
32 42 53
32 42 53
32 42 53
32 42 53
32 42 53
32 42 53
32 42 53
32 42 53
32 42 53
32 42 53
32 42 53
32 42 53
32 42 53
32 42 53
32 42 53
32 42 53
32 42 53
32 42 53
32 42 53
32 42 53
32 42 53
32 42 53
32 42 53
32 42 53
32 42 53
32 42 53
32 42 53
32 42 53
32 42 53
32 42 53
32 42 53
32 42 53
32 42 53
32 42 53
32 42 53
32 42 53
32 42 53
32 42 53
32 42 53
32 42 53
32 42 53
32 42 53
32 42 53
32 42 53
32 42 53
32 42 53
32 42 53
32 42 53
32 42 53
32 42 53
32 42 53
32 42 53
32 42 53
32 42 53
32 42 53
32 42 53
32 42 53
32 42 53
32 42 53
32 42 53
32 42 53
32 42 53
32 42 53
32 42 53
32 42 53
32 42 53
32 42 53
32 42 53
32 42 53
32 42 53
32 42 53
32 42 53
32 42 53
32 42 53
32 42 53
32 42 53
32 42 53
32 42 53
32 42 53
32 42 53
32 42 53
106 124 145
106 124 145
17 24 32
17 24 32
17 24 32
17 24 32
17 24 32
17 24 32
17 24 32
17 24 32
17 24 32
17 24 32
17 24 32
17 24 32
17 24 32
17 24 32
17 24 32
17 24 32
17 24 32
17 24 32
17 24 32
17 24 32
17 24 32
17 24 32
17 24 32
17 24 32
106 124 145
106 124 145
32 42 53
32 42 53
32 42 53
32 42 53
32 42 53
32 42 53
32 42 53
32 42 53
32 42 53
32 42 53
32 42 53
32 42 53
32 42 53
32 42 53
32 42 53
32 42 53
32 42 53
32 42 53
32 42 53
32 42 53
32 42 53
32 42 53
32 42 53
32 42 53
32 42 53
32 42 53
32 42 53
32 42 53
32 42 53
32 42 53
32 42 53
32 42 53
32 42 53
32 42 53
32 42 53
32 42 53
32 42 53
32 42 53
32 42 53
32 42 53
32 42 53
32 42 53
32 42 53
32 42 53
32 42 53
32 42 53
32 42 53
32 42 53
32 42 53
32 42 53
32 42 53
32 42 53
32 42 53
32 42 53
32 42 53
32 42 53
32 42 53
32 42 53
32 42 53
32 42 53
32 42 53
32 42 53
32 42 53
32 42 53
32 42 53
32 42 53
32 42 53
32 42 53
32 42 53
32 42 53
32 42 53
32 42 53
32 42 53
32 42 53
32 42 53
32 42 53
32 42 53
32 42 53
32 42 53
32 42 53
32 42 53
32 42 53
32 42 53
32 42 53
32 42 53
32 42 53
32 42 53
32 42 53
32 42 53
32 42 53
32 42 53
32 42 53
32 42 53
32 42 53
32 42 53
32 42 53
32 42 53
32 42 53
32 42 53
32 42 53
32 42 53
32 42 53
32 42 53
32 42 53
32 42 53
32 42 53
32 42 53
32 42 53
32 42 53
32 42 53
32 42 53
32 42 53
32 42 53
32 42 53
32 42 53
32 42 53
32 42 53
32 42 53
32 42 53
32 42 53
32 42 53
32 42 53
32 42 53
32 42 53
32 42 53
32 42 53
32 42 53
32 42 53
32 42 53
32 42 53
32 42 53
32 42 53
32 42 53
32 42 53
32 42 53
32 42 53
32 42 53
32 42 53
32 42 53
32 42 53
32 42 53
32 42 53
32 42 53
32 42 53
32 42 53
32 42 53
32 42 53
32 42 53
32 42 53
32 42 53
32 42 53
32 42 53
32 42 53
32 42 53
32 42 53
32 42 53
32 42 53
32 42 53
32 42 53
32 42 53
32 42 53
32 42 53
32 42 53
32 42 53
32 42 53
32 42 53
32 42 53
32 42 53
32 42 53
32 42 53
32 42 53
32 42 53
32 42 53
32 42 53
32 42 53
32 42 53
32 42 53
32 42 53
32 42 53
32 42 53
32 42 53
32 42 53
32 42 53
32 42 53
32 42 53
32 42 53
32 42 53
32 42 53
32 42 53
32 42 53
32 42 53
32 42 53
32 42 53
32 42 53
32 42 53
32 42 53
32 42 53
32 42 53
32 42 53
32 42 53
32 42 53
32 42 53
32 42 53
32 42 53
32 42 53
32 42 53
32 42 53
32 42 53
32 42 53
32 42 53
32 42 53
32 42 53
32 42 53
32 42 53
32 42 53
32 42 53
32 42 53
32 42 53
32 42 53
32 42 53
32 42 53
32 42 53
32 42 53
32 42 53
32 42 53
32 42 53
32 42 53
32 42 53
32 42 53
32 42 53
32 42 53
32 42 53
32 42 53
32 42 53
32 42 53
32 42 53
32 42 53
32 42 53
32 42 53
32 42 53
32 42 53
32 42 53
32 42 53
32 42 53
32 42 53
32 42 53
32 42 53
32 42 53
32 42 53
32 42 53
32 42 53
32 42 53
32 42 53
32 42 53
32 42 53
32 42 53
32 42 53
32 42 53
32 42 53
32 42 53
32 42 53
32 42 53
32 42 53
32 42 53
32 42 53
32 42 53
32 42 53
32 42 53
32 42 53
32 42 53
32 42 53
32 42 53
32 42 53
32 42 53
32 42 53
32 42 53
32 42 53
32 42 53
32 42 53
32 42 53
32 42 53
32 42 53
32 42 53
32 42 53
32 42 53
32 42 53
32 42 53
32 42 53
32 42 53
32 42 53
32 42 53
32 42 53
106 124 145
106 124 145
17 24 32
17 24 32
17 24 32
17 24 32
17 24 32
17 24 32
17 24 32
17 24 32
17 24 32
17 24 32
17 24 32
17 24 32
17 24 32
17 24 32
17 24 32
17 24 32
17 24 32
17 24 32
17 24 32
17 24 32
17 24 32
17 24 32
17 24 32
17 24 32
106 124 145
106 124 145
32 42 53
32 42 53
32 42 53
32 42 53
32 42 53
32 42 53
32 42 53
32 42 53
32 42 53
32 42 53
32 42 53
32 42 53
32 42 53
32 42 53
32 42 53
32 42 53
32 42 53
32 42 53
32 42 53
32 42 53
32 42 53
32 42 53
32 42 53
32 42 53
32 42 53
32 42 53
32 42 53
32 42 53
32 42 53
32 42 53
32 42 53
32 42 53
32 42 53
32 42 53
32 42 53
32 42 53
32 42 53
32 42 53
32 42 53
32 42 53
32 42 53
32 42 53
32 42 53
32 42 53
32 42 53
32 42 53
32 42 53
32 42 53
32 42 53
32 42 53
32 42 53
32 42 53
32 42 53
32 42 53
32 42 53
32 42 53
32 42 53
32 42 53
32 42 53
32 42 53
32 42 53
32 42 53
32 42 53
32 42 53
32 42 53
32 42 53
32 42 53
32 42 53
32 42 53
32 42 53
32 42 53
32 42 53
32 42 53
32 42 53
32 42 53
32 42 53
32 42 53
32 42 53
32 42 53
32 42 53
32 42 53
32 42 53
32 42 53
32 42 53
32 42 53
32 42 53
32 42 53
32 42 53
32 42 53
32 42 53
32 42 53
32 42 53
32 42 53
32 42 53
32 42 53
32 42 53
32 42 53
32 42 53
32 42 53
32 42 53
32 42 53
32 42 53
32 42 53
32 42 53
32 42 53
32 42 53
32 42 53
32 42 53
32 42 53
32 42 53
32 42 53
32 42 53
32 42 53
32 42 53
32 42 53
32 42 53
32 42 53
32 42 53
32 42 53
32 42 53
32 42 53
32 42 53
32 42 53
32 42 53
32 42 53
32 42 53
32 42 53
32 42 53
32 42 53
32 42 53
32 42 53
32 42 53
32 42 53
32 42 53
32 42 53
32 42 53
32 42 53
32 42 53
32 42 53
32 42 53
32 42 53
32 42 53
32 42 53
32 42 53
32 42 53
32 42 53
32 42 53
32 42 53
32 42 53
32 42 53
32 42 53
32 42 53
32 42 53
32 42 53
32 42 53
32 42 53
32 42 53
32 42 53
32 42 53
32 42 53
32 42 53
32 42 53
32 42 53
32 42 53
32 42 53
32 42 53
32 42 53
32 42 53
32 42 53
32 42 53
32 42 53
32 42 53
32 42 53
32 42 53
32 42 53
32 42 53
32 42 53
32 42 53
32 42 53
32 42 53
32 42 53
32 42 53
32 42 53
32 42 53
32 42 53
32 42 53
32 42 53
32 42 53
32 42 53
32 42 53
32 42 53
32 42 53
32 42 53
32 42 53
32 42 53
32 42 53
32 42 53
32 42 53
32 42 53
32 42 53
32 42 53
32 42 53
32 42 53
32 42 53
32 42 53
32 42 53
32 42 53
32 42 53
32 42 53
32 42 53
32 42 53
32 42 53
32 42 53
32 42 53
32 42 53
32 42 53
32 42 53
32 42 53
32 42 53
32 42 53
32 42 53
32 42 53
32 42 53
32 42 53
32 42 53
32 42 53
32 42 53
32 42 53
32 42 53
32 42 53
32 42 53
32 42 53
32 42 53
32 42 53
32 42 53
32 42 53
32 42 53
32 42 53
32 42 53
32 42 53
32 42 53
32 42 53
32 42 53
32 42 53
32 42 53
32 42 53
32 42 53
32 42 53
32 42 53
32 42 53
32 42 53
32 42 53
32 42 53
32 42 53
32 42 53
32 42 53
32 42 53
32 42 53
32 42 53
32 42 53
32 42 53
32 42 53
32 42 53
32 42 53
32 42 53
32 42 53
32 42 53
32 42 53
32 42 53
32 42 53
32 42 53
32 42 53
32 42 53
32 42 53
32 42 53
32 42 53
32 42 53
32 42 53
32 42 53
32 42 53
32 42 53
32 42 53
32 42 53
32 42 53
32 42 53
32 42 53
32 42 53
32 42 53
32 42 53
32 42 53
32 42 53
32 42 53
106 124 145
106 124 145
17 24 32
17 24 32
17 24 32
17 24 32
17 24 32
17 24 32
17 24 32
17 24 32
17 24 32
17 24 32
17 24 32
17 24 32
17 24 32
17 24 32
17 24 32
17 24 32
17 24 32
17 24 32
17 24 32
17 24 32
17 24 32
17 24 32
17 24 32
17 24 32
106 124 145
106 124 145
32 42 53
32 42 53
32 42 53
32 42 53
32 42 53
32 42 53
32 42 53
32 42 53
32 42 53
32 42 53
32 42 53
32 42 53
32 42 53
32 42 53
32 42 53
32 42 53
32 42 53
32 42 53
32 42 53
32 42 53
32 42 53
32 42 53
32 42 53
32 42 53
32 42 53
32 42 53
32 42 53
32 42 53
32 42 53
32 42 53
32 42 53
32 42 53
32 42 53
32 42 53
32 42 53
32 42 53
32 42 53
32 42 53
32 42 53
32 42 53
32 42 53
32 42 53
32 42 53
32 42 53
32 42 53
32 42 53
32 42 53
32 42 53
32 42 53
32 42 53
32 42 53
32 42 53
32 42 53
32 42 53
32 42 53
32 42 53
32 42 53
32 42 53
32 42 53
32 42 53
32 42 53
32 42 53
32 42 53
32 42 53
32 42 53
32 42 53
32 42 53
32 42 53
32 42 53
32 42 53
32 42 53
32 42 53
32 42 53
32 42 53
32 42 53
32 42 53
32 42 53
32 42 53
32 42 53
32 42 53
32 42 53
32 42 53
32 42 53
32 42 53
32 42 53
32 42 53
32 42 53
32 42 53
32 42 53
32 42 53
32 42 53
32 42 53
32 42 53
32 42 53
32 42 53
32 42 53
32 42 53
32 42 53
32 42 53
32 42 53
32 42 53
32 42 53
32 42 53
32 42 53
32 42 53
32 42 53
32 42 53
32 42 53
32 42 53
32 42 53
32 42 53
32 42 53
32 42 53
32 42 53
32 42 53
32 42 53
32 42 53
32 42 53
32 42 53
32 42 53
32 42 53
32 42 53
32 42 53
32 42 53
32 42 53
32 42 53
32 42 53
32 42 53
32 42 53
32 42 53
32 42 53
32 42 53
32 42 53
32 42 53
32 42 53
32 42 53
32 42 53
32 42 53
32 42 53
32 42 53
32 42 53
32 42 53
32 42 53
32 42 53
32 42 53
32 42 53
32 42 53
32 42 53
32 42 53
32 42 53
32 42 53
32 42 53
32 42 53
32 42 53
32 42 53
32 42 53
32 42 53
32 42 53
32 42 53
32 42 53
32 42 53
32 42 53
32 42 53
32 42 53
32 42 53
32 42 53
32 42 53
32 42 53
32 42 53
32 42 53
32 42 53
32 42 53
32 42 53
32 42 53
32 42 53
32 42 53
32 42 53
32 42 53
32 42 53
32 42 53
32 42 53
32 42 53
32 42 53
32 42 53
32 42 53
32 42 53
32 42 53
32 42 53
32 42 53
32 42 53
32 42 53
32 42 53
32 42 53
32 42 53
32 42 53
32 42 53
32 42 53
32 42 53
32 42 53
32 42 53
32 42 53
32 42 53
32 42 53
32 42 53
32 42 53
32 42 53
32 42 53
32 42 53
32 42 53
32 42 53
32 42 53
32 42 53
32 42 53
32 42 53
32 42 53
32 42 53
32 42 53
32 42 53
32 42 53
32 42 53
32 42 53
32 42 53
32 42 53
32 42 53
32 42 53
32 42 53
32 42 53
32 42 53
32 42 53
32 42 53
32 42 53
32 42 53
32 42 53
32 42 53
32 42 53
32 42 53
32 42 53
32 42 53
32 42 53
32 42 53
32 42 53
32 42 53
32 42 53
32 42 53
32 42 53
32 42 53
32 42 53
32 42 53
32 42 53
32 42 53
32 42 53
32 42 53
32 42 53
32 42 53
32 42 53
32 42 53
32 42 53
32 42 53
32 42 53
32 42 53
32 42 53
32 42 53
32 42 53
32 42 53
32 42 53
32 42 53
32 42 53
32 42 53
32 42 53
32 42 53
32 42 53
32 42 53
32 42 53
32 42 53
32 42 53
32 42 53
32 42 53
32 42 53
32 42 53
32 42 53
32 42 53
32 42 53
32 42 53
32 42 53
32 42 53
32 42 53
32 42 53
32 42 53
32 42 53
32 42 53
32 42 53
32 42 53
106 124 145
106 124 145
17 24 32
17 24 32
17 24 32
17 24 32
17 24 32
17 24 32
17 24 32
17 24 32
17 24 32
17 24 32
17 24 32
17 24 32
17 24 32
17 24 32
17 24 32
17 24 32
17 24 32
17 24 32
17 24 32
17 24 32
17 24 32
17 24 32
17 24 32
17 24 32
106 124 145
106 124 145
32 42 53
32 42 53
32 42 53
32 42 53
32 42 53
32 42 53
32 42 53
32 42 53
32 42 53
32 42 53
32 42 53
32 42 53
32 42 53
32 42 53
32 42 53
32 42 53
32 42 53
32 42 53
32 42 53
32 42 53
32 42 53
32 42 53
32 42 53
32 42 53
32 42 53
32 42 53
32 42 53
32 42 53
32 42 53
32 42 53
32 42 53
32 42 53
32 42 53
32 42 53
32 42 53
32 42 53
32 42 53
32 42 53
32 42 53
32 42 53
32 42 53
32 42 53
32 42 53
32 42 53
32 42 53
32 42 53
32 42 53
32 42 53
32 42 53
32 42 53
32 42 53
32 42 53
32 42 53
32 42 53
32 42 53
32 42 53
32 42 53
32 42 53
32 42 53
32 42 53
32 42 53
32 42 53
32 42 53
32 42 53
32 42 53
32 42 53
32 42 53
32 42 53
32 42 53
32 42 53
32 42 53
32 42 53
32 42 53
32 42 53
32 42 53
32 42 53
32 42 53
32 42 53
32 42 53
32 42 53
32 42 53
32 42 53
32 42 53
32 42 53
32 42 53
32 42 53
32 42 53
32 42 53
32 42 53
32 42 53
32 42 53
32 42 53
32 42 53
32 42 53
32 42 53
32 42 53
32 42 53
32 42 53
32 42 53
32 42 53
32 42 53
32 42 53
32 42 53
32 42 53
32 42 53
32 42 53
32 42 53
32 42 53
32 42 53
32 42 53
32 42 53
32 42 53
32 42 53
32 42 53
32 42 53
32 42 53
32 42 53
32 42 53
32 42 53
32 42 53
32 42 53
32 42 53
32 42 53
32 42 53
32 42 53
32 42 53
32 42 53
32 42 53
32 42 53
32 42 53
32 42 53
32 42 53
32 42 53
32 42 53
32 42 53
32 42 53
32 42 53
32 42 53
32 42 53
32 42 53
32 42 53
32 42 53
32 42 53
32 42 53
32 42 53
32 42 53
32 42 53
32 42 53
32 42 53
32 42 53
32 42 53
32 42 53
32 42 53
32 42 53
32 42 53
32 42 53
32 42 53
32 42 53
32 42 53
32 42 53
32 42 53
32 42 53
32 42 53
32 42 53
32 42 53
32 42 53
32 42 53
32 42 53
32 42 53
32 42 53
32 42 53
32 42 53
32 42 53
32 42 53
32 42 53
32 42 53
32 42 53
32 42 53
32 42 53
32 42 53
32 42 53
32 42 53
32 42 53
32 42 53
32 42 53
32 42 53
32 42 53
32 42 53
32 42 53
32 42 53
32 42 53
32 42 53
32 42 53
32 42 53
32 42 53
32 42 53
32 42 53
32 42 53
32 42 53
32 42 53
32 42 53
32 42 53
32 42 53
32 42 53
32 42 53
32 42 53
32 42 53
32 42 53
32 42 53
32 42 53
32 42 53
32 42 53
32 42 53
32 42 53
32 42 53
32 42 53
32 42 53
32 42 53
32 42 53
32 42 53
32 42 53
32 42 53
32 42 53
32 42 53
32 42 53
32 42 53
32 42 53
32 42 53
32 42 53
32 42 53
32 42 53
32 42 53
32 42 53
32 42 53
32 42 53
32 42 53
32 42 53
32 42 53
32 42 53
32 42 53
32 42 53
32 42 53
32 42 53
32 42 53
32 42 53
32 42 53
32 42 53
32 42 53
32 42 53
32 42 53
32 42 53
32 42 53
32 42 53
32 42 53
32 42 53
32 42 53
32 42 53
32 42 53
32 42 53
32 42 53
32 42 53
32 42 53
32 42 53
32 42 53
32 42 53
32 42 53
32 42 53
32 42 53
32 42 53
32 42 53
32 42 53
32 42 53
32 42 53
32 42 53
32 42 53
32 42 53
32 42 53
32 42 53
32 42 53
32 42 53
32 42 53
32 42 53
32 42 53
32 42 53
32 42 53
32 42 53
32 42 53
32 42 53
32 42 53
32 42 53
32 42 53
32 42 53
106 124 145
106 124 145
17 24 32
17 24 32
17 24 32
17 24 32
17 24 32
17 24 32
17 24 32
17 24 32
17 24 32
17 24 32
17 24 32
17 24 32
17 24 32
17 24 32
17 24 32
17 24 32
17 24 32
17 24 32
17 24 32
17 24 32
17 24 32
17 24 32
17 24 32
17 24 32
106 124 145
106 124 145
32 42 53
32 42 53
32 42 53
32 42 53
32 42 53
32 42 53
32 42 53
32 42 53
32 42 53
32 42 53
32 42 53
32 42 53
32 42 53
32 42 53
32 42 53
32 42 53
32 42 53
32 42 53
32 42 53
32 42 53
32 42 53
32 42 53
32 42 53
32 42 53
32 42 53
32 42 53
32 42 53
32 42 53
32 42 53
32 42 53
32 42 53
32 42 53
32 42 53
32 42 53
32 42 53
32 42 53
32 42 53
32 42 53
32 42 53
32 42 53
32 42 53
32 42 53
32 42 53
32 42 53
32 42 53
32 42 53
32 42 53
32 42 53
32 42 53
32 42 53
32 42 53
32 42 53
32 42 53
32 42 53
32 42 53
32 42 53
32 42 53
32 42 53
32 42 53
32 42 53
32 42 53
32 42 53
32 42 53
32 42 53
32 42 53
32 42 53
32 42 53
32 42 53
32 42 53
32 42 53
32 42 53
32 42 53
32 42 53
32 42 53
32 42 53
32 42 53
32 42 53
32 42 53
32 42 53
32 42 53
32 42 53
32 42 53
32 42 53
32 42 53
32 42 53
32 42 53
32 42 53
32 42 53
32 42 53
32 42 53
32 42 53
32 42 53
32 42 53
32 42 53
32 42 53
32 42 53
32 42 53
32 42 53
32 42 53
32 42 53
32 42 53
32 42 53
32 42 53
32 42 53
32 42 53
32 42 53
32 42 53
32 42 53
32 42 53
32 42 53
32 42 53
32 42 53
32 42 53
32 42 53
32 42 53
32 42 53
32 42 53
32 42 53
32 42 53
32 42 53
32 42 53
32 42 53
32 42 53
32 42 53
32 42 53
32 42 53
32 42 53
32 42 53
32 42 53
32 42 53
32 42 53
32 42 53
32 42 53
32 42 53
32 42 53
32 42 53
32 42 53
32 42 53
32 42 53
32 42 53
32 42 53
32 42 53
32 42 53
32 42 53
32 42 53
32 42 53
32 42 53
32 42 53
32 42 53
32 42 53
32 42 53
32 42 53
32 42 53
32 42 53
32 42 53
32 42 53
32 42 53
32 42 53
32 42 53
32 42 53
32 42 53
32 42 53
32 42 53
32 42 53
32 42 53
32 42 53
32 42 53
32 42 53
32 42 53
32 42 53
32 42 53
32 42 53
32 42 53
32 42 53
32 42 53
32 42 53
32 42 53
32 42 53
32 42 53
32 42 53
32 42 53
32 42 53
32 42 53
32 42 53
32 42 53
32 42 53
32 42 53
32 42 53
32 42 53
32 42 53
32 42 53
32 42 53
32 42 53
32 42 53
32 42 53
32 42 53
32 42 53
32 42 53
32 42 53
32 42 53
32 42 53
32 42 53
32 42 53
32 42 53
32 42 53
32 42 53
32 42 53
32 42 53
32 42 53
32 42 53
32 42 53
32 42 53
32 42 53
32 42 53
32 42 53
32 42 53
32 42 53
32 42 53
32 42 53
32 42 53
32 42 53
32 42 53
32 42 53
32 42 53
32 42 53
32 42 53
32 42 53
32 42 53
32 42 53
32 42 53
32 42 53
32 42 53
32 42 53
32 42 53
32 42 53
32 42 53
32 42 53
32 42 53
32 42 53
32 42 53
32 42 53
32 42 53
32 42 53
32 42 53
32 42 53
32 42 53
32 42 53
32 42 53
32 42 53
32 42 53
32 42 53
32 42 53
32 42 53
32 42 53
32 42 53
32 42 53
32 42 53
32 42 53
32 42 53
32 42 53
32 42 53
32 42 53
32 42 53
32 42 53
32 42 53
32 42 53
32 42 53
32 42 53
32 42 53
32 42 53
32 42 53
32 42 53
32 42 53
32 42 53
32 42 53
32 42 53
32 42 53
32 42 53
32 42 53
32 42 53
32 42 53
32 42 53
32 42 53
32 42 53
32 42 53
32 42 53
32 42 53
32 42 53
32 42 53
32 42 53
32 42 53
32 42 53
106 124 145
106 124 145
17 24 32
17 24 32
17 24 32
17 24 32
17 24 32
17 24 32
17 24 32
17 24 32
17 24 32
17 24 32
17 24 32
17 24 32
17 24 32
17 24 32
17 24 32
17 24 32
17 24 32
17 24 32
17 24 32
17 24 32
17 24 32
17 24 32
17 24 32
17 24 32
106 124 145
106 124 145
32 42 53
32 42 53
32 42 53
32 42 53
32 42 53
32 42 53
32 42 53
32 42 53
32 42 53
32 42 53
32 42 53
32 42 53
32 42 53
32 42 53
32 42 53
32 42 53
32 42 53
32 42 53
32 42 53
32 42 53
32 42 53
32 42 53
32 42 53
32 42 53
32 42 53
32 42 53
32 42 53
32 42 53
32 42 53
32 42 53
32 42 53
32 42 53
32 42 53
32 42 53
32 42 53
32 42 53
32 42 53
32 42 53
32 42 53
32 42 53
32 42 53
32 42 53
32 42 53
32 42 53
32 42 53
32 42 53
32 42 53
32 42 53
32 42 53
32 42 53
32 42 53
32 42 53
32 42 53
32 42 53
32 42 53
32 42 53
32 42 53
32 42 53
32 42 53
32 42 53
32 42 53
32 42 53
32 42 53
32 42 53
32 42 53
32 42 53
32 42 53
32 42 53
32 42 53
32 42 53
32 42 53
32 42 53
32 42 53
32 42 53
32 42 53
32 42 53
32 42 53
32 42 53
32 42 53
32 42 53
32 42 53
32 42 53
32 42 53
32 42 53
32 42 53
32 42 53
32 42 53
32 42 53
32 42 53
32 42 53
32 42 53
32 42 53
32 42 53
32 42 53
32 42 53
32 42 53
32 42 53
32 42 53
32 42 53
32 42 53
32 42 53
32 42 53
32 42 53
32 42 53
32 42 53
32 42 53
32 42 53
32 42 53
32 42 53
32 42 53
32 42 53
32 42 53
32 42 53
32 42 53
32 42 53
32 42 53
32 42 53
32 42 53
32 42 53
32 42 53
32 42 53
32 42 53
32 42 53
32 42 53
32 42 53
32 42 53
32 42 53
32 42 53
32 42 53
32 42 53
32 42 53
32 42 53
32 42 53
32 42 53
32 42 53
32 42 53
32 42 53
32 42 53
32 42 53
32 42 53
32 42 53
32 42 53
32 42 53
32 42 53
32 42 53
32 42 53
32 42 53
32 42 53
32 42 53
32 42 53
32 42 53
32 42 53
32 42 53
32 42 53
32 42 53
32 42 53
32 42 53
32 42 53
32 42 53
32 42 53
32 42 53
32 42 53
32 42 53
32 42 53
32 42 53
32 42 53
32 42 53
32 42 53
32 42 53
32 42 53
32 42 53
32 42 53
32 42 53
32 42 53
32 42 53
32 42 53
32 42 53
32 42 53
32 42 53
32 42 53
32 42 53
32 42 53
32 42 53
32 42 53
32 42 53
32 42 53
32 42 53
32 42 53
32 42 53
32 42 53
32 42 53
32 42 53
32 42 53
32 42 53
32 42 53
32 42 53
32 42 53
32 42 53
32 42 53
32 42 53
32 42 53
32 42 53
32 42 53
32 42 53
32 42 53
32 42 53
32 42 53
32 42 53
32 42 53
32 42 53
32 42 53
32 42 53
32 42 53
32 42 53
32 42 53
32 42 53
32 42 53
32 42 53
32 42 53
32 42 53
32 42 53
32 42 53
32 42 53
32 42 53
32 42 53
32 42 53
32 42 53
32 42 53
32 42 53
32 42 53
32 42 53
32 42 53
32 42 53
32 42 53
32 42 53
32 42 53
32 42 53
32 42 53
32 42 53
32 42 53
32 42 53
32 42 53
32 42 53
32 42 53
32 42 53
32 42 53
32 42 53
32 42 53
32 42 53
32 42 53
32 42 53
32 42 53
32 42 53
32 42 53
32 42 53
32 42 53
32 42 53
32 42 53
32 42 53
32 42 53
32 42 53
32 42 53
32 42 53
32 42 53
32 42 53
32 42 53
32 42 53
32 42 53
32 42 53
32 42 53
32 42 53
32 42 53
32 42 53
32 42 53
32 42 53
32 42 53
32 42 53
32 42 53
32 42 53
32 42 53
32 42 53
32 42 53
32 42 53
32 42 53
32 42 53
32 42 53
32 42 53
32 42 53
32 42 53
32 42 53
32 42 53
32 42 53
106 124 145
106 124 145
17 24 32
17 24 32
17 24 32
17 24 32
17 24 32
17 24 32
17 24 32
17 24 32
17 24 32
17 24 32
17 24 32
17 24 32
17 24 32
17 24 32
17 24 32
17 24 32
17 24 32
17 24 32
17 24 32
17 24 32
17 24 32
17 24 32
17 24 32
17 24 32
106 124 145
106 124 145
32 42 53
32 42 53
32 42 53
32 42 53
32 42 53
32 42 53
32 42 53
32 42 53
32 42 53
32 42 53
32 42 53
32 42 53
32 42 53
32 42 53
32 42 53
32 42 53
32 42 53
32 42 53
32 42 53
32 42 53
32 42 53
32 42 53
32 42 53
32 42 53
32 42 53
32 42 53
32 42 53
32 42 53
32 42 53
32 42 53
32 42 53
32 42 53
32 42 53
32 42 53
32 42 53
32 42 53
32 42 53
32 42 53
32 42 53
32 42 53
32 42 53
32 42 53
32 42 53
32 42 53
32 42 53
32 42 53
32 42 53
32 42 53
32 42 53
32 42 53
32 42 53
32 42 53
32 42 53
32 42 53
32 42 53
32 42 53
32 42 53
32 42 53
32 42 53
32 42 53
32 42 53
32 42 53
32 42 53
32 42 53
32 42 53
32 42 53
32 42 53
32 42 53
32 42 53
32 42 53
32 42 53
32 42 53
32 42 53
32 42 53
32 42 53
32 42 53
32 42 53
32 42 53
32 42 53
32 42 53
32 42 53
32 42 53
32 42 53
32 42 53
32 42 53
32 42 53
32 42 53
32 42 53
32 42 53
32 42 53
32 42 53
32 42 53
32 42 53
32 42 53
32 42 53
32 42 53
32 42 53
32 42 53
32 42 53
32 42 53
32 42 53
32 42 53
32 42 53
32 42 53
32 42 53
32 42 53
32 42 53
32 42 53
32 42 53
32 42 53
32 42 53
32 42 53
32 42 53
32 42 53
32 42 53
32 42 53
32 42 53
32 42 53
32 42 53
32 42 53
32 42 53
32 42 53
32 42 53
32 42 53
32 42 53
32 42 53
32 42 53
32 42 53
32 42 53
32 42 53
32 42 53
32 42 53
32 42 53
32 42 53
32 42 53
32 42 53
32 42 53
32 42 53
32 42 53
32 42 53
32 42 53
32 42 53
32 42 53
32 42 53
32 42 53
32 42 53
32 42 53
32 42 53
32 42 53
32 42 53
32 42 53
32 42 53
32 42 53
32 42 53
32 42 53
32 42 53
32 42 53
32 42 53
32 42 53
32 42 53
32 42 53
32 42 53
32 42 53
32 42 53
32 42 53
32 42 53
32 42 53
32 42 53
32 42 53
32 42 53
32 42 53
32 42 53
32 42 53
32 42 53
32 42 53
32 42 53
32 42 53
32 42 53
32 42 53
32 42 53
32 42 53
32 42 53
32 42 53
32 42 53
32 42 53
32 42 53
32 42 53
32 42 53
32 42 53
32 42 53
32 42 53
32 42 53
32 42 53
32 42 53
32 42 53
32 42 53
32 42 53
32 42 53
32 42 53
32 42 53
32 42 53
32 42 53
32 42 53
32 42 53
32 42 53
32 42 53
32 42 53
32 42 53
32 42 53
32 42 53
32 42 53
32 42 53
32 42 53
32 42 53
32 42 53
32 42 53
32 42 53
32 42 53
32 42 53
32 42 53
32 42 53
32 42 53
32 42 53
32 42 53
32 42 53
32 42 53
32 42 53
32 42 53
32 42 53
32 42 53
32 42 53
32 42 53
32 42 53
32 42 53
32 42 53
32 42 53
32 42 53
32 42 53
32 42 53
32 42 53
32 42 53
32 42 53
32 42 53
32 42 53
32 42 53
32 42 53
32 42 53
32 42 53
32 42 53
32 42 53
32 42 53
32 42 53
32 42 53
32 42 53
32 42 53
32 42 53
32 42 53
32 42 53
32 42 53
32 42 53
32 42 53
32 42 53
32 42 53
32 42 53
32 42 53
32 42 53
32 42 53
32 42 53
32 42 53
32 42 53
32 42 53
32 42 53
32 42 53
32 42 53
32 42 53
32 42 53
32 42 53
32 42 53
32 42 53
32 42 53
32 42 53
32 42 53
32 42 53
32 42 53
32 42 53
32 42 53
32 42 53
32 42 53
32 42 53
32 42 53
32 42 53
32 42 53
106 124 145
106 124 145
17 24 32
17 24 32
17 24 32
17 24 32
17 24 32
17 24 32
17 24 32
17 24 32
17 24 32
17 24 32
17 24 32
17 24 32
17 24 32
17 24 32
17 24 32
17 24 32
17 24 32
17 24 32
17 24 32
17 24 32
17 24 32
17 24 32
17 24 32
17 24 32
106 124 145
106 124 145
32 42 53
32 42 53
32 42 53
32 42 53
32 42 53
32 42 53
32 42 53
32 42 53
32 42 53
32 42 53
32 42 53
32 42 53
32 42 53
32 42 53
32 42 53
32 42 53
32 42 53
32 42 53
32 42 53
32 42 53
32 42 53
32 42 53
32 42 53
32 42 53
32 42 53
32 42 53
32 42 53
32 42 53
32 42 53
32 42 53
32 42 53
32 42 53
32 42 53
32 42 53
32 42 53
32 42 53
32 42 53
32 42 53
32 42 53
32 42 53
32 42 53
32 42 53
32 42 53
32 42 53
32 42 53
32 42 53
32 42 53
32 42 53
32 42 53
32 42 53
32 42 53
32 42 53
32 42 53
32 42 53
32 42 53
32 42 53
32 42 53
32 42 53
32 42 53
32 42 53
32 42 53
32 42 53
32 42 53
32 42 53
32 42 53
32 42 53
32 42 53
32 42 53
32 42 53
32 42 53
32 42 53
32 42 53
32 42 53
32 42 53
32 42 53
32 42 53
32 42 53
32 42 53
32 42 53
32 42 53
32 42 53
32 42 53
32 42 53
32 42 53
32 42 53
32 42 53
32 42 53
32 42 53
32 42 53
32 42 53
32 42 53
32 42 53
32 42 53
32 42 53
32 42 53
32 42 53
32 42 53
32 42 53
32 42 53
32 42 53
32 42 53
32 42 53
32 42 53
32 42 53
32 42 53
32 42 53
32 42 53
32 42 53
32 42 53
32 42 53
32 42 53
32 42 53
32 42 53
32 42 53
32 42 53
32 42 53
32 42 53
32 42 53
32 42 53
32 42 53
32 42 53
32 42 53
32 42 53
32 42 53
32 42 53
32 42 53
32 42 53
32 42 53
32 42 53
32 42 53
32 42 53
32 42 53
32 42 53
32 42 53
32 42 53
32 42 53
32 42 53
32 42 53
32 42 53
32 42 53
32 42 53
32 42 53
32 42 53
32 42 53
32 42 53
32 42 53
32 42 53
32 42 53
32 42 53
32 42 53
32 42 53
32 42 53
32 42 53
32 42 53
32 42 53
32 42 53
32 42 53
32 42 53
32 42 53
32 42 53
32 42 53
32 42 53
32 42 53
32 42 53
32 42 53
32 42 53
32 42 53
32 42 53
32 42 53
32 42 53
32 42 53
32 42 53
32 42 53
32 42 53
32 42 53
32 42 53
32 42 53
32 42 53
32 42 53
32 42 53
32 42 53
32 42 53
32 42 53
32 42 53
32 42 53
32 42 53
32 42 53
32 42 53
32 42 53
32 42 53
32 42 53
32 42 53
32 42 53
32 42 53
32 42 53
32 42 53
32 42 53
32 42 53
32 42 53
32 42 53
32 42 53
32 42 53
32 42 53
32 42 53
32 42 53
32 42 53
32 42 53
32 42 53
32 42 53
32 42 53
32 42 53
32 42 53
32 42 53
32 42 53
32 42 53
32 42 53
32 42 53
32 42 53
32 42 53
32 42 53
32 42 53
32 42 53
32 42 53
32 42 53
32 42 53
32 42 53
32 42 53
32 42 53
32 42 53
32 42 53
32 42 53
32 42 53
32 42 53
32 42 53
32 42 53
32 42 53
32 42 53
32 42 53
32 42 53
32 42 53
32 42 53
32 42 53
32 42 53
32 42 53
32 42 53
32 42 53
32 42 53
32 42 53
32 42 53
32 42 53
32 42 53
32 42 53
32 42 53
32 42 53
32 42 53
32 42 53
32 42 53
32 42 53
32 42 53
32 42 53
32 42 53
32 42 53
32 42 53
32 42 53
32 42 53
32 42 53
32 42 53
32 42 53
32 42 53
32 42 53
32 42 53
32 42 53
32 42 53
32 42 53
32 42 53
32 42 53
32 42 53
32 42 53
32 42 53
32 42 53
32 42 53
32 42 53
32 42 53
32 42 53
32 42 53
32 42 53
32 42 53
32 42 53
32 42 53
32 42 53
32 42 53
32 42 53
106 124 145
106 124 145
17 24 32
17 24 32
17 24 32
17 24 32
17 24 32
17 24 32
17 24 32
17 24 32
17 24 32
17 24 32
17 24 32
17 24 32
17 24 32
17 24 32
17 24 32
17 24 32
17 24 32
17 24 32
17 24 32
17 24 32
17 24 32
17 24 32
17 24 32
17 24 32
106 124 145
106 124 145
32 42 53
32 42 53
32 42 53
32 42 53
32 42 53
32 42 53
32 42 53
32 42 53
32 42 53
32 42 53
32 42 53
32 42 53
32 42 53
32 42 53
32 42 53
32 42 53
32 42 53
32 42 53
32 42 53
32 42 53
32 42 53
32 42 53
32 42 53
32 42 53
32 42 53
32 42 53
32 42 53
32 42 53
32 42 53
32 42 53
32 42 53
32 42 53
32 42 53
32 42 53
32 42 53
32 42 53
32 42 53
32 42 53
32 42 53
32 42 53
32 42 53
32 42 53
32 42 53
32 42 53
32 42 53
32 42 53
32 42 53
32 42 53
32 42 53
32 42 53
32 42 53
32 42 53
32 42 53
32 42 53
32 42 53
32 42 53
32 42 53
32 42 53
32 42 53
32 42 53
32 42 53
32 42 53
32 42 53
32 42 53
32 42 53
32 42 53
32 42 53
32 42 53
32 42 53
32 42 53
32 42 53
32 42 53
32 42 53
32 42 53
32 42 53
32 42 53
32 42 53
32 42 53
32 42 53
32 42 53
32 42 53
32 42 53
32 42 53
32 42 53
32 42 53
32 42 53
32 42 53
32 42 53
32 42 53
32 42 53
32 42 53
32 42 53
32 42 53
32 42 53
32 42 53
32 42 53
32 42 53
32 42 53
32 42 53
32 42 53
32 42 53
32 42 53
32 42 53
32 42 53
32 42 53
32 42 53
32 42 53
32 42 53
32 42 53
32 42 53
32 42 53
32 42 53
32 42 53
32 42 53
32 42 53
32 42 53
32 42 53
32 42 53
32 42 53
32 42 53
32 42 53
32 42 53
32 42 53
32 42 53
32 42 53
32 42 53
32 42 53
32 42 53
32 42 53
32 42 53
32 42 53
32 42 53
32 42 53
32 42 53
32 42 53
32 42 53
32 42 53
32 42 53
32 42 53
32 42 53
32 42 53
32 42 53
32 42 53
32 42 53
32 42 53
32 42 53
32 42 53
32 42 53
32 42 53
32 42 53
32 42 53
32 42 53
32 42 53
32 42 53
32 42 53
32 42 53
32 42 53
32 42 53
32 42 53
32 42 53
32 42 53
32 42 53
32 42 53
32 42 53
32 42 53
32 42 53
32 42 53
32 42 53
32 42 53
32 42 53
32 42 53
32 42 53
32 42 53
32 42 53
32 42 53
32 42 53
32 42 53
32 42 53
32 42 53
32 42 53
32 42 53
32 42 53
32 42 53
32 42 53
32 42 53
32 42 53
32 42 53
32 42 53
32 42 53
32 42 53
32 42 53
32 42 53
32 42 53
32 42 53
32 42 53
32 42 53
32 42 53
32 42 53
32 42 53
32 42 53
32 42 53
32 42 53
32 42 53
32 42 53
32 42 53
32 42 53
32 42 53
32 42 53
32 42 53
32 42 53
32 42 53
32 42 53
32 42 53
32 42 53
32 42 53
32 42 53
32 42 53
32 42 53
32 42 53
32 42 53
32 42 53
32 42 53
32 42 53
32 42 53
32 42 53
32 42 53
32 42 53
32 42 53
32 42 53
32 42 53
32 42 53
32 42 53
32 42 53
32 42 53
32 42 53
32 42 53
32 42 53
32 42 53
32 42 53
32 42 53
32 42 53
32 42 53
32 42 53
32 42 53
32 42 53
32 42 53
32 42 53
32 42 53
32 42 53
32 42 53
32 42 53
32 42 53
32 42 53
32 42 53
32 42 53
32 42 53
32 42 53
32 42 53
32 42 53
32 42 53
32 42 53
32 42 53
32 42 53
32 42 53
32 42 53
32 42 53
32 42 53
32 42 53
32 42 53
32 42 53
32 42 53
32 42 53
32 42 53
32 42 53
32 42 53
32 42 53
32 42 53
32 42 53
32 42 53
32 42 53
32 42 53
32 42 53
32 42 53
32 42 53
32 42 53
32 42 53
32 42 53
32 42 53
32 42 53
32 42 53
32 42 53
32 42 53
106 124 145
106 124 145
17 24 32
17 24 32
17 24 32
17 24 32
17 24 32
17 24 32
17 24 32
17 24 32
17 24 32
17 24 32
17 24 32
17 24 32
17 24 32
17 24 32
17 24 32
17 24 32
17 24 32
17 24 32
17 24 32
17 24 32
17 24 32
17 24 32
17 24 32
17 24 32
106 124 145
106 124 145
32 42 53
32 42 53
32 42 53
32 42 53
32 42 53
32 42 53
32 42 53
32 42 53
32 42 53
32 42 53
32 42 53
32 42 53
32 42 53
32 42 53
32 42 53
32 42 53
32 42 53
32 42 53
32 42 53
32 42 53
32 42 53
32 42 53
32 42 53
32 42 53
32 42 53
32 42 53
32 42 53
32 42 53
32 42 53
32 42 53
32 42 53
32 42 53
32 42 53
32 42 53
32 42 53
32 42 53
32 42 53
32 42 53
32 42 53
32 42 53
32 42 53
32 42 53
32 42 53
32 42 53
32 42 53
32 42 53
32 42 53
32 42 53
32 42 53
32 42 53
32 42 53
32 42 53
32 42 53
32 42 53
32 42 53
32 42 53
32 42 53
32 42 53
32 42 53
32 42 53
32 42 53
32 42 53
32 42 53
32 42 53
32 42 53
32 42 53
32 42 53
32 42 53
32 42 53
32 42 53
32 42 53
32 42 53
32 42 53
32 42 53
32 42 53
32 42 53
32 42 53
32 42 53
32 42 53
32 42 53
32 42 53
32 42 53
32 42 53
32 42 53
32 42 53
32 42 53
32 42 53
32 42 53
32 42 53
32 42 53
32 42 53
32 42 53
32 42 53
32 42 53
32 42 53
32 42 53
32 42 53
32 42 53
32 42 53
32 42 53
32 42 53
32 42 53
32 42 53
32 42 53
32 42 53
32 42 53
32 42 53
32 42 53
32 42 53
32 42 53
32 42 53
32 42 53
32 42 53
32 42 53
32 42 53
32 42 53
32 42 53
32 42 53
32 42 53
32 42 53
32 42 53
32 42 53
32 42 53
32 42 53
32 42 53
32 42 53
32 42 53
32 42 53
32 42 53
32 42 53
32 42 53
32 42 53
32 42 53
32 42 53
32 42 53
32 42 53
32 42 53
32 42 53
32 42 53
32 42 53
32 42 53
32 42 53
32 42 53
32 42 53
32 42 53
32 42 53
32 42 53
32 42 53
32 42 53
32 42 53
32 42 53
32 42 53
32 42 53
32 42 53
32 42 53
32 42 53
32 42 53
32 42 53
32 42 53
32 42 53
32 42 53
32 42 53
32 42 53
32 42 53
32 42 53
32 42 53
32 42 53
32 42 53
32 42 53
32 42 53
32 42 53
32 42 53
32 42 53
32 42 53
32 42 53
32 42 53
32 42 53
32 42 53
32 42 53
32 42 53
32 42 53
32 42 53
32 42 53
32 42 53
32 42 53
32 42 53
32 42 53
32 42 53
32 42 53
32 42 53
32 42 53
32 42 53
32 42 53
32 42 53
32 42 53
32 42 53
32 42 53
32 42 53
32 42 53
32 42 53
32 42 53
32 42 53
32 42 53
32 42 53
32 42 53
32 42 53
32 42 53
32 42 53
32 42 53
32 42 53
32 42 53
32 42 53
32 42 53
32 42 53
32 42 53
32 42 53
32 42 53
32 42 53
32 42 53
32 42 53
32 42 53
32 42 53
32 42 53
32 42 53
32 42 53
32 42 53
32 42 53
32 42 53
32 42 53
32 42 53
32 42 53
32 42 53
32 42 53
32 42 53
32 42 53
32 42 53
32 42 53
32 42 53
32 42 53
32 42 53
32 42 53
32 42 53
32 42 53
32 42 53
32 42 53
32 42 53
32 42 53
32 42 53
32 42 53
32 42 53
32 42 53
32 42 53
32 42 53
32 42 53
32 42 53
32 42 53
32 42 53
32 42 53
32 42 53
32 42 53
32 42 53
32 42 53
32 42 53
32 42 53
32 42 53
32 42 53
32 42 53
32 42 53
32 42 53
32 42 53
32 42 53
32 42 53
32 42 53
32 42 53
32 42 53
32 42 53
32 42 53
32 42 53
32 42 53
32 42 53
32 42 53
32 42 53
32 42 53
32 42 53
32 42 53
32 42 53
32 42 53
32 42 53
32 42 53
32 42 53
32 42 53
32 42 53
106 124 145
106 124 145
17 24 32
17 24 32
17 24 32
17 24 32
17 24 32
17 24 32
17 24 32
17 24 32
17 24 32
17 24 32
17 24 32
17 24 32
17 24 32
17 24 32
17 24 32
17 24 32
17 24 32
17 24 32
17 24 32
17 24 32
17 24 32
17 24 32
17 24 32
17 24 32
106 124 145
106 124 145
106 124 145
106 124 145
106 124 145
106 124 145
106 124 145
106 124 145
106 124 145
106 124 145
106 124 145
106 124 145
106 124 145
106 124 145
106 124 145
106 124 145
106 124 145
106 124 145
106 124 145
106 124 145
106 124 145
106 124 145
106 124 145
106 124 145
106 124 145
106 124 145
106 124 145
106 124 145
106 124 145
106 124 145
106 124 145
106 124 145
106 124 145
106 124 145
106 124 145
106 124 145
106 124 145
106 124 145
106 124 145
106 124 145
106 124 145
106 124 145
106 124 145
106 124 145
106 124 145
106 124 145
106 124 145
106 124 145
106 124 145
106 124 145
106 124 145
106 124 145
106 124 145
106 124 145
106 124 145
106 124 145
106 124 145
106 124 145
106 124 145
106 124 145
106 124 145
106 124 145
106 124 145
106 124 145
106 124 145
106 124 145
106 124 145
106 124 145
106 124 145
106 124 145
106 124 145
106 124 145
106 124 145
106 124 145
106 124 145
106 124 145
106 124 145
106 124 145
106 124 145
106 124 145
106 124 145
106 124 145
106 124 145
106 124 145
106 124 145
106 124 145
106 124 145
106 124 145
106 124 145
106 124 145
106 124 145
106 124 145
106 124 145
106 124 145
106 124 145
106 124 145
106 124 145
106 124 145
106 124 145
106 124 145
106 124 145
106 124 145
106 124 145
106 124 145
106 124 145
106 124 145
106 124 145
106 124 145
106 124 145
106 124 145
106 124 145
106 124 145
106 124 145
106 124 145
106 124 145
106 124 145
106 124 145
106 124 145
106 124 145
106 124 145
106 124 145
106 124 145
106 124 145
106 124 145
106 124 145
106 124 145
106 124 145
106 124 145
106 124 145
106 124 145
106 124 145
106 124 145
106 124 145
106 124 145
106 124 145
106 124 145
106 124 145
106 124 145
106 124 145
106 124 145
106 124 145
106 124 145
106 124 145
106 124 145
106 124 145
106 124 145
106 124 145
106 124 145
106 124 145
106 124 145
106 124 145
106 124 145
106 124 145
106 124 145
106 124 145
106 124 145
106 124 145
106 124 145
106 124 145
106 124 145
106 124 145
106 124 145
106 124 145
106 124 145
106 124 145
106 124 145
106 124 145
106 124 145
106 124 145
106 124 145
106 124 145
106 124 145
106 124 145
106 124 145
106 124 145
106 124 145
106 124 145
106 124 145
106 124 145
106 124 145
106 124 145
106 124 145
106 124 145
106 124 145
106 124 145
106 124 145
106 124 145
106 124 145
106 124 145
106 124 145
106 124 145
106 124 145
106 124 145
106 124 145
106 124 145
106 124 145
106 124 145
106 124 145
106 124 145
106 124 145
106 124 145
106 124 145
106 124 145
106 124 145
106 124 145
106 124 145
106 124 145
106 124 145
106 124 145
106 124 145
106 124 145
106 124 145
106 124 145
106 124 145
106 124 145
106 124 145
106 124 145
106 124 145
106 124 145
106 124 145
106 124 145
106 124 145
106 124 145
106 124 145
106 124 145
106 124 145
106 124 145
106 124 145
106 124 145
106 124 145
106 124 145
106 124 145
106 124 145
106 124 145
106 124 145
106 124 145
106 124 145
106 124 145
106 124 145
106 124 145
106 124 145
106 124 145
106 124 145
106 124 145
106 124 145
106 124 145
106 124 145
106 124 145
106 124 145
106 124 145
106 124 145
106 124 145
106 124 145
106 124 145
106 124 145
106 124 145
106 124 145
106 124 145
106 124 145
106 124 145
106 124 145
106 124 145
106 124 145
106 124 145
106 124 145
106 124 145
106 124 145
106 124 145
106 124 145
106 124 145
106 124 145
106 124 145
106 124 145
106 124 145
106 124 145
106 124 145
106 124 145
106 124 145
106 124 145
106 124 145
106 124 145
106 124 145
106 124 145
106 124 145
106 124 145
106 124 145
106 124 145
106 124 145
106 124 145
106 124 145
106 124 145
106 124 145
106 124 145
106 124 145
106 124 145
106 124 145
17 24 32
17 24 32
17 24 32
17 24 32
17 24 32
17 24 32
17 24 32
17 24 32
17 24 32
17 24 32
17 24 32
17 24 32
17 24 32
17 24 32
17 24 32
17 24 32
17 24 32
17 24 32
17 24 32
17 24 32
17 24 32
17 24 32
17 24 32
17 24 32
106 124 145
106 124 145
106 124 145
106 124 145
106 124 145
106 124 145
106 124 145
106 124 145
106 124 145
106 124 145
106 124 145
106 124 145
106 124 145
106 124 145
106 124 145
106 124 145
106 124 145
106 124 145
106 124 145
106 124 145
106 124 145
106 124 145
106 124 145
106 124 145
106 124 145
106 124 145
106 124 145
106 124 145
106 124 145
106 124 145
106 124 145
106 124 145
106 124 145
106 124 145
106 124 145
106 124 145
106 124 145
106 124 145
106 124 145
106 124 145
106 124 145
106 124 145
106 124 145
106 124 145
106 124 145
106 124 145
106 124 145
106 124 145
106 124 145
106 124 145
106 124 145
106 124 145
106 124 145
106 124 145
106 124 145
106 124 145
106 124 145
106 124 145
106 124 145
106 124 145
106 124 145
106 124 145
106 124 145
106 124 145
106 124 145
106 124 145
106 124 145
106 124 145
106 124 145
106 124 145
106 124 145
106 124 145
106 124 145
106 124 145
106 124 145
106 124 145
106 124 145
106 124 145
106 124 145
106 124 145
106 124 145
106 124 145
106 124 145
106 124 145
106 124 145
106 124 145
106 124 145
106 124 145
106 124 145
106 124 145
106 124 145
106 124 145
106 124 145
106 124 145
106 124 145
106 124 145
106 124 145
106 124 145
106 124 145
106 124 145
106 124 145
106 124 145
106 124 145
106 124 145
106 124 145
106 124 145
106 124 145
106 124 145
106 124 145
106 124 145
106 124 145
106 124 145
106 124 145
106 124 145
106 124 145
106 124 145
106 124 145
106 124 145
106 124 145
106 124 145
106 124 145
106 124 145
106 124 145
106 124 145
106 124 145
106 124 145
106 124 145
106 124 145
106 124 145
106 124 145
106 124 145
106 124 145
106 124 145
106 124 145
106 124 145
106 124 145
106 124 145
106 124 145
106 124 145
106 124 145
106 124 145
106 124 145
106 124 145
106 124 145
106 124 145
106 124 145
106 124 145
106 124 145
106 124 145
106 124 145
106 124 145
106 124 145
106 124 145
106 124 145
106 124 145
106 124 145
106 124 145
106 124 145
106 124 145
106 124 145
106 124 145
106 124 145
106 124 145
106 124 145
106 124 145
106 124 145
106 124 145
106 124 145
106 124 145
106 124 145
106 124 145
106 124 145
106 124 145
106 124 145
106 124 145
106 124 145
106 124 145
106 124 145
106 124 145
106 124 145
106 124 145
106 124 145
106 124 145
106 124 145
106 124 145
106 124 145
106 124 145
106 124 145
106 124 145
106 124 145
106 124 145
106 124 145
106 124 145
106 124 145
106 124 145
106 124 145
106 124 145
106 124 145
106 124 145
106 124 145
106 124 145
106 124 145
106 124 145
106 124 145
106 124 145
106 124 145
106 124 145
106 124 145
106 124 145
106 124 145
106 124 145
106 124 145
106 124 145
106 124 145
106 124 145
106 124 145
106 124 145
106 124 145
106 124 145
106 124 145
106 124 145
106 124 145
106 124 145
106 124 145
106 124 145
106 124 145
106 124 145
106 124 145
106 124 145
106 124 145
106 124 145
106 124 145
106 124 145
106 124 145
106 124 145
106 124 145
106 124 145
106 124 145
106 124 145
106 124 145
106 124 145
106 124 145
106 124 145
106 124 145
106 124 145
106 124 145
106 124 145
106 124 145
106 124 145
106 124 145
106 124 145
106 124 145
106 124 145
106 124 145
106 124 145
106 124 145
106 124 145
106 124 145
106 124 145
106 124 145
106 124 145
106 124 145
106 124 145
106 124 145
106 124 145
106 124 145
106 124 145
106 124 145
106 124 145
106 124 145
106 124 145
106 124 145
106 124 145
106 124 145
106 124 145
106 124 145
106 124 145
106 124 145
106 124 145
106 124 145
106 124 145
106 124 145
106 124 145
106 124 145
106 124 145
106 124 145
106 124 145
106 124 145
106 124 145
106 124 145
106 124 145
106 124 145
106 124 145
106 124 145
106 124 145
106 124 145
17 24 32
17 24 32
17 24 32
17 24 32
17 24 32
17 24 32
17 24 32
17 24 32
17 24 32
17 24 32
17 24 32
17 24 32
17 24 32
17 24 32
17 24 32
17 24 32
17 24 32
17 24 32
17 24 32
17 24 32
17 24 32
17 24 32
17 24 32
17 24 32
17 24 32
17 24 32
17 24 32
17 24 32
17 24 32
17 24 32
17 24 32
17 24 32
17 24 32
17 24 32
17 24 32
17 24 32
17 24 32
17 24 32
17 24 32
17 24 32
17 24 32
17 24 32
17 24 32
17 24 32
17 24 32
17 24 32
17 24 32
17 24 32
17 24 32
17 24 32
17 24 32
17 24 32
17 24 32
17 24 32
17 24 32
17 24 32
17 24 32
17 24 32
17 24 32
17 24 32
17 24 32
17 24 32
17 24 32
17 24 32
17 24 32
17 24 32
17 24 32
17 24 32
17 24 32
17 24 32
17 24 32
17 24 32
17 24 32
17 24 32
17 24 32
17 24 32
17 24 32
17 24 32
17 24 32
17 24 32
17 24 32
17 24 32
17 24 32
17 24 32
17 24 32
17 24 32
17 24 32
17 24 32
17 24 32
17 24 32
17 24 32
17 24 32
17 24 32
17 24 32
17 24 32
17 24 32
17 24 32
17 24 32
17 24 32
17 24 32
17 24 32
17 24 32
17 24 32
17 24 32
17 24 32
17 24 32
17 24 32
17 24 32
17 24 32
17 24 32
17 24 32
17 24 32
17 24 32
17 24 32
17 24 32
17 24 32
17 24 32
17 24 32
17 24 32
17 24 32
17 24 32
17 24 32
17 24 32
17 24 32
17 24 32
17 24 32
17 24 32
17 24 32
17 24 32
17 24 32
17 24 32
17 24 32
17 24 32
17 24 32
17 24 32
17 24 32
17 24 32
17 24 32
17 24 32
17 24 32
17 24 32
17 24 32
17 24 32
17 24 32
17 24 32
17 24 32
17 24 32
17 24 32
17 24 32
17 24 32
17 24 32
17 24 32
17 24 32
17 24 32
17 24 32
17 24 32
17 24 32
17 24 32
17 24 32
17 24 32
17 24 32
17 24 32
17 24 32
17 24 32
17 24 32
17 24 32
17 24 32
17 24 32
17 24 32
17 24 32
17 24 32
17 24 32
17 24 32
17 24 32
17 24 32
17 24 32
17 24 32
17 24 32
17 24 32
17 24 32
17 24 32
17 24 32
17 24 32
17 24 32
17 24 32
17 24 32
17 24 32
17 24 32
17 24 32
17 24 32
17 24 32
17 24 32
17 24 32
17 24 32
17 24 32
17 24 32
17 24 32
17 24 32
17 24 32
17 24 32
17 24 32
17 24 32
17 24 32
17 24 32
17 24 32
17 24 32
17 24 32
17 24 32
17 24 32
17 24 32
17 24 32
17 24 32
17 24 32
17 24 32
17 24 32
17 24 32
17 24 32
17 24 32
17 24 32
17 24 32
17 24 32
17 24 32
17 24 32
17 24 32
17 24 32
17 24 32
17 24 32
17 24 32
17 24 32
17 24 32
17 24 32
17 24 32
17 24 32
17 24 32
17 24 32
17 24 32
17 24 32
17 24 32
17 24 32
17 24 32
17 24 32
17 24 32
17 24 32
17 24 32
17 24 32
17 24 32
17 24 32
17 24 32
17 24 32
17 24 32
17 24 32
17 24 32
17 24 32
17 24 32
17 24 32
17 24 32
17 24 32
17 24 32
17 24 32
17 24 32
17 24 32
17 24 32
17 24 32
17 24 32
17 24 32
17 24 32
17 24 32
17 24 32
17 24 32
17 24 32
17 24 32
17 24 32
17 24 32
17 24 32
17 24 32
17 24 32
17 24 32
17 24 32
17 24 32
17 24 32
17 24 32
17 24 32
17 24 32
17 24 32
17 24 32
17 24 32
17 24 32
17 24 32
17 24 32
17 24 32
17 24 32
17 24 32
17 24 32
17 24 32
17 24 32
17 24 32
17 24 32
17 24 32
17 24 32
17 24 32
17 24 32
17 24 32
17 24 32
17 24 32
17 24 32
17 24 32
17 24 32
17 24 32
17 24 32
17 24 32
17 24 32
17 24 32
17 24 32
17 24 32
17 24 32
17 24 32
17 24 32
17 24 32
17 24 32
17 24 32
17 24 32
17 24 32
17 24 32
17 24 32
17 24 32
17 24 32
17 24 32
17 24 32
17 24 32
17 24 32
17 24 32
17 24 32
17 24 32
17 24 32
17 24 32
17 24 32
17 24 32
17 24 32
17 24 32
17 24 32
17 24 32
17 24 32
17 24 32
17 24 32
17 24 32
17 24 32
17 24 32
17 24 32
17 24 32
17 24 32
17 24 32
17 24 32
17 24 32
17 24 32
17 24 32
17 24 32
17 24 32
17 24 32
17 24 32
17 24 32
17 24 32
17 24 32
17 24 32
17 24 32
17 24 32
17 24 32
17 24 32
17 24 32
17 24 32
17 24 32
17 24 32
17 24 32
17 24 32
17 24 32
17 24 32
17 24 32
17 24 32
17 24 32
17 24 32
17 24 32
17 24 32
17 24 32
17 24 32
17 24 32
17 24 32
17 24 32
17 24 32
17 24 32
17 24 32
17 24 32
17 24 32
17 24 32
17 24 32
17 24 32
17 24 32
17 24 32
17 24 32
17 24 32
17 24 32
17 24 32
17 24 32
17 24 32
17 24 32
17 24 32
17 24 32
17 24 32
17 24 32
17 24 32
17 24 32
17 24 32
17 24 32
17 24 32
17 24 32
17 24 32
17 24 32
17 24 32
17 24 32
17 24 32
17 24 32
17 24 32
17 24 32
17 24 32
17 24 32
17 24 32
17 24 32
17 24 32
17 24 32
17 24 32
17 24 32
17 24 32
17 24 32
17 24 32
17 24 32
17 24 32
17 24 32
17 24 32
17 24 32
17 24 32
17 24 32
17 24 32
17 24 32
17 24 32
17 24 32
17 24 32
17 24 32
17 24 32
17 24 32
17 24 32
17 24 32
17 24 32
17 24 32
17 24 32
17 24 32
17 24 32
17 24 32
17 24 32
17 24 32
17 24 32
17 24 32
17 24 32
17 24 32
17 24 32
17 24 32
17 24 32
17 24 32
17 24 32
17 24 32
17 24 32
17 24 32
17 24 32
17 24 32
17 24 32
17 24 32
17 24 32
17 24 32
17 24 32
17 24 32
17 24 32
17 24 32
17 24 32
17 24 32
17 24 32
17 24 32
17 24 32
17 24 32
17 24 32
17 24 32
17 24 32
17 24 32
17 24 32
17 24 32
17 24 32
17 24 32
17 24 32
17 24 32
17 24 32
17 24 32
17 24 32
17 24 32
17 24 32
17 24 32
17 24 32
17 24 32
17 24 32
17 24 32
17 24 32
17 24 32
17 24 32
17 24 32
17 24 32
17 24 32
17 24 32
17 24 32
17 24 32
17 24 32
17 24 32
17 24 32
17 24 32
17 24 32
17 24 32
17 24 32
17 24 32
17 24 32
17 24 32
17 24 32
17 24 32
17 24 32
17 24 32
17 24 32
17 24 32
17 24 32
17 24 32
17 24 32
17 24 32
17 24 32
17 24 32
17 24 32
17 24 32
17 24 32
17 24 32
17 24 32
17 24 32
17 24 32
17 24 32
17 24 32
17 24 32
17 24 32
17 24 32
17 24 32
17 24 32
17 24 32
17 24 32
17 24 32
17 24 32
17 24 32
17 24 32
17 24 32
17 24 32
17 24 32
17 24 32
17 24 32
17 24 32
17 24 32
17 24 32
17 24 32
17 24 32
17 24 32
17 24 32
17 24 32
17 24 32
17 24 32
17 24 32
17 24 32
17 24 32
17 24 32
17 24 32
17 24 32
17 24 32
17 24 32
17 24 32
17 24 32
17 24 32
17 24 32
17 24 32
17 24 32
17 24 32
17 24 32
17 24 32
17 24 32
17 24 32
17 24 32
17 24 32
17 24 32
17 24 32
17 24 32
17 24 32
17 24 32
17 24 32
17 24 32
17 24 32
17 24 32
17 24 32
17 24 32
17 24 32
17 24 32
17 24 32
17 24 32
17 24 32
17 24 32
17 24 32
17 24 32
17 24 32
17 24 32
17 24 32
17 24 32
17 24 32
17 24 32
17 24 32
17 24 32
17 24 32
17 24 32
17 24 32
17 24 32
17 24 32
17 24 32
17 24 32
17 24 32
17 24 32
17 24 32
17 24 32
17 24 32
17 24 32
17 24 32
17 24 32
17 24 32
17 24 32
17 24 32
17 24 32
17 24 32
17 24 32
17 24 32
17 24 32
17 24 32
17 24 32
17 24 32
17 24 32
17 24 32
17 24 32
17 24 32
17 24 32
17 24 32
17 24 32
17 24 32
17 24 32
17 24 32
17 24 32
17 24 32
17 24 32
17 24 32
17 24 32
17 24 32
17 24 32
17 24 32
17 24 32
17 24 32
17 24 32
17 24 32
17 24 32
17 24 32
17 24 32
17 24 32
17 24 32
17 24 32
17 24 32
17 24 32
17 24 32
17 24 32
17 24 32
17 24 32
17 24 32
17 24 32
17 24 32
17 24 32
17 24 32
17 24 32
17 24 32
17 24 32
17 24 32
17 24 32
17 24 32
17 24 32
17 24 32
17 24 32
17 24 32
17 24 32
17 24 32
17 24 32
17 24 32
17 24 32
17 24 32
17 24 32
17 24 32
17 24 32
17 24 32
17 24 32
17 24 32
17 24 32
17 24 32
17 24 32
17 24 32
17 24 32
17 24 32
17 24 32
17 24 32
17 24 32
17 24 32
17 24 32
17 24 32
17 24 32
17 24 32
17 24 32
17 24 32
17 24 32
17 24 32
17 24 32
17 24 32
17 24 32
17 24 32
17 24 32
17 24 32
17 24 32
17 24 32
17 24 32
17 24 32
17 24 32
17 24 32
17 24 32
17 24 32
17 24 32
17 24 32
17 24 32
17 24 32
17 24 32
17 24 32
17 24 32
17 24 32
17 24 32
17 24 32
17 24 32
17 24 32
17 24 32
17 24 32
17 24 32
17 24 32
17 24 32
17 24 32
17 24 32
17 24 32
17 24 32
17 24 32
17 24 32
17 24 32
17 24 32
17 24 32
17 24 32
17 24 32
17 24 32
17 24 32
17 24 32
17 24 32
17 24 32
17 24 32
17 24 32
17 24 32
17 24 32
17 24 32
17 24 32
17 24 32
17 24 32
17 24 32
17 24 32
17 24 32
17 24 32
17 24 32
17 24 32
17 24 32
17 24 32
17 24 32
17 24 32
17 24 32
17 24 32
17 24 32
17 24 32
17 24 32
17 24 32
17 24 32
17 24 32
17 24 32
17 24 32
17 24 32
17 24 32
17 24 32
17 24 32
17 24 32
17 24 32
17 24 32
17 24 32
17 24 32
17 24 32
17 24 32
17 24 32
17 24 32
17 24 32
17 24 32
17 24 32
17 24 32
17 24 32
17 24 32
17 24 32
17 24 32
17 24 32
17 24 32
17 24 32
17 24 32
17 24 32
17 24 32
17 24 32
17 24 32
17 24 32
17 24 32
17 24 32
17 24 32
17 24 32
17 24 32
17 24 32
17 24 32
17 24 32
17 24 32
17 24 32
17 24 32
17 24 32
17 24 32
17 24 32
17 24 32
17 24 32
17 24 32
17 24 32
17 24 32
17 24 32
17 24 32
17 24 32
17 24 32
17 24 32
17 24 32
17 24 32
17 24 32
17 24 32
17 24 32
17 24 32
17 24 32
17 24 32
17 24 32
17 24 32
17 24 32
17 24 32
17 24 32
17 24 32
17 24 32
17 24 32
17 24 32
17 24 32
17 24 32
17 24 32
17 24 32
17 24 32
17 24 32
17 24 32
17 24 32
17 24 32
17 24 32
17 24 32
17 24 32
17 24 32
17 24 32
17 24 32
17 24 32
17 24 32
17 24 32
17 24 32
17 24 32
17 24 32
17 24 32
17 24 32
17 24 32
17 24 32
17 24 32
17 24 32
17 24 32
17 24 32
17 24 32
17 24 32
17 24 32
17 24 32
17 24 32
17 24 32
17 24 32
17 24 32
17 24 32
17 24 32
17 24 32
17 24 32
17 24 32
17 24 32
17 24 32
17 24 32
17 24 32
17 24 32
17 24 32
17 24 32
17 24 32
17 24 32
17 24 32
17 24 32
17 24 32
17 24 32
17 24 32
17 24 32
17 24 32
17 24 32
17 24 32
17 24 32
17 24 32
17 24 32
17 24 32
17 24 32
17 24 32
17 24 32
17 24 32
17 24 32
17 24 32
17 24 32
17 24 32
17 24 32
17 24 32
17 24 32
17 24 32
17 24 32
17 24 32
17 24 32
17 24 32
17 24 32
17 24 32
17 24 32
17 24 32
17 24 32
17 24 32
17 24 32
17 24 32
17 24 32
17 24 32
17 24 32
17 24 32
17 24 32
17 24 32
17 24 32
17 24 32
17 24 32
17 24 32
17 24 32
17 24 32
17 24 32
17 24 32
17 24 32
17 24 32
17 24 32
17 24 32
17 24 32
17 24 32
17 24 32
17 24 32
17 24 32
17 24 32
17 24 32
17 24 32
17 24 32
17 24 32
17 24 32
17 24 32
17 24 32
17 24 32
17 24 32
17 24 32
17 24 32
17 24 32
17 24 32
17 24 32
17 24 32
17 24 32
17 24 32
17 24 32
17 24 32
17 24 32
17 24 32
17 24 32
17 24 32
17 24 32
17 24 32
17 24 32
17 24 32
17 24 32
17 24 32
17 24 32
17 24 32
17 24 32
17 24 32
17 24 32
17 24 32
17 24 32
17 24 32
17 24 32
17 24 32
17 24 32
17 24 32
17 24 32
17 24 32
17 24 32
17 24 32
17 24 32
17 24 32
17 24 32
17 24 32
17 24 32
17 24 32
17 24 32
17 24 32
17 24 32
17 24 32
17 24 32
17 24 32
17 24 32
17 24 32
17 24 32
17 24 32
17 24 32
17 24 32
17 24 32
17 24 32
17 24 32
17 24 32
17 24 32
17 24 32
17 24 32
17 24 32
17 24 32
17 24 32
17 24 32
17 24 32
17 24 32
17 24 32
17 24 32
17 24 32
17 24 32
17 24 32
17 24 32
17 24 32
17 24 32
17 24 32
17 24 32
17 24 32
17 24 32
17 24 32
17 24 32
17 24 32
17 24 32
17 24 32
17 24 32
17 24 32
17 24 32
17 24 32
17 24 32
17 24 32
17 24 32
17 24 32
17 24 32
17 24 32
17 24 32
17 24 32
17 24 32
17 24 32
17 24 32
17 24 32
17 24 32
17 24 32
17 24 32
17 24 32
17 24 32
17 24 32
17 24 32
17 24 32
17 24 32
17 24 32
17 24 32
17 24 32
17 24 32
17 24 32
17 24 32
17 24 32
17 24 32
17 24 32
17 24 32
17 24 32
17 24 32
17 24 32
17 24 32
17 24 32
17 24 32
17 24 32
17 24 32
17 24 32
17 24 32
17 24 32
17 24 32
17 24 32
17 24 32
17 24 32
17 24 32
17 24 32
17 24 32
17 24 32
17 24 32
17 24 32
17 24 32
17 24 32
17 24 32
17 24 32
17 24 32
17 24 32
17 24 32
17 24 32
17 24 32
17 24 32
17 24 32
17 24 32
17 24 32
17 24 32
17 24 32
17 24 32
17 24 32
17 24 32
17 24 32
17 24 32
17 24 32
17 24 32
17 24 32
17 24 32
17 24 32
17 24 32
17 24 32
17 24 32
17 24 32
17 24 32
17 24 32
17 24 32
17 24 32
17 24 32
17 24 32
17 24 32
17 24 32
17 24 32
17 24 32
17 24 32
17 24 32
17 24 32
17 24 32
17 24 32
17 24 32
17 24 32
17 24 32
17 24 32
17 24 32
17 24 32
17 24 32
17 24 32
17 24 32
17 24 32
17 24 32
17 24 32
17 24 32
17 24 32
17 24 32
17 24 32
17 24 32
17 24 32
17 24 32
17 24 32
17 24 32
17 24 32
17 24 32
17 24 32
17 24 32
17 24 32
17 24 32
17 24 32
17 24 32
17 24 32
17 24 32
17 24 32
17 24 32
17 24 32
17 24 32
17 24 32
17 24 32
17 24 32
17 24 32
17 24 32
17 24 32
17 24 32
17 24 32
17 24 32
17 24 32
17 24 32
17 24 32
17 24 32
17 24 32
17 24 32
17 24 32
17 24 32
17 24 32
17 24 32
17 24 32
17 24 32
17 24 32
17 24 32
17 24 32
17 24 32
17 24 32
17 24 32
17 24 32
17 24 32
17 24 32
17 24 32
17 24 32
17 24 32
17 24 32
17 24 32
17 24 32
17 24 32
17 24 32
17 24 32
17 24 32
17 24 32
17 24 32
17 24 32
17 24 32
17 24 32
17 24 32
17 24 32
17 24 32
17 24 32
17 24 32
17 24 32
17 24 32
17 24 32
17 24 32
17 24 32
17 24 32
17 24 32
17 24 32
17 24 32
17 24 32
17 24 32
17 24 32
17 24 32
17 24 32
17 24 32
17 24 32
17 24 32
17 24 32
17 24 32
17 24 32
17 24 32
17 24 32
17 24 32
17 24 32
17 24 32
17 24 32
17 24 32
17 24 32
17 24 32
17 24 32
17 24 32
17 24 32
17 24 32
17 24 32
17 24 32
17 24 32
17 24 32
17 24 32
17 24 32
17 24 32
17 24 32
17 24 32
17 24 32
17 24 32
17 24 32
17 24 32
17 24 32
17 24 32
17 24 32
17 24 32
17 24 32
17 24 32
17 24 32
17 24 32
17 24 32
17 24 32
17 24 32
17 24 32
17 24 32
17 24 32
17 24 32
17 24 32
17 24 32
17 24 32
17 24 32
17 24 32
17 24 32
17 24 32
17 24 32
17 24 32
17 24 32
17 24 32
17 24 32
17 24 32
17 24 32
17 24 32
17 24 32
17 24 32
17 24 32
17 24 32
17 24 32
17 24 32
17 24 32
17 24 32
17 24 32
17 24 32
17 24 32
17 24 32
17 24 32
17 24 32
17 24 32
17 24 32
17 24 32
17 24 32
17 24 32
17 24 32
17 24 32
17 24 32
17 24 32
17 24 32
17 24 32
17 24 32
17 24 32
17 24 32
17 24 32
17 24 32
17 24 32
17 24 32
17 24 32
17 24 32
17 24 32
17 24 32
17 24 32
17 24 32
17 24 32
17 24 32
17 24 32
17 24 32
17 24 32
17 24 32
17 24 32
17 24 32
17 24 32
17 24 32
17 24 32
17 24 32
17 24 32
17 24 32
17 24 32
17 24 32
17 24 32
17 24 32
17 24 32
17 24 32
17 24 32
17 24 32
17 24 32
17 24 32
17 24 32
17 24 32
17 24 32
17 24 32
17 24 32
17 24 32
17 24 32
17 24 32
17 24 32
17 24 32
17 24 32
17 24 32
17 24 32
17 24 32
17 24 32
17 24 32
17 24 32
17 24 32
17 24 32
17 24 32
17 24 32
17 24 32
17 24 32
17 24 32
17 24 32
17 24 32
17 24 32
17 24 32
17 24 32
17 24 32
17 24 32
17 24 32
17 24 32
17 24 32
17 24 32
17 24 32
17 24 32
17 24 32
17 24 32
17 24 32
17 24 32
17 24 32
17 24 32
17 24 32
17 24 32
17 24 32
17 24 32
17 24 32
17 24 32
17 24 32
17 24 32
17 24 32
17 24 32
17 24 32
17 24 32
17 24 32
17 24 32
17 24 32
17 24 32
17 24 32
17 24 32
17 24 32
17 24 32
17 24 32
17 24 32
17 24 32
17 24 32
17 24 32
17 24 32
17 24 32
17 24 32
17 24 32
17 24 32
17 24 32
17 24 32
17 24 32
17 24 32
17 24 32
17 24 32
17 24 32
17 24 32
17 24 32
17 24 32
17 24 32
17 24 32
17 24 32
17 24 32
17 24 32
17 24 32
17 24 32
17 24 32
17 24 32
17 24 32
17 24 32
17 24 32
17 24 32
17 24 32
17 24 32
17 24 32
17 24 32
17 24 32
17 24 32
17 24 32
17 24 32
17 24 32
17 24 32
17 24 32
17 24 32
17 24 32
17 24 32
17 24 32
17 24 32
17 24 32
17 24 32
17 24 32
17 24 32
17 24 32
17 24 32
17 24 32
17 24 32
17 24 32
17 24 32
17 24 32
17 24 32
17 24 32
17 24 32
17 24 32
17 24 32
17 24 32
17 24 32
17 24 32
17 24 32
17 24 32
17 24 32
17 24 32
17 24 32
17 24 32
17 24 32
17 24 32
17 24 32
17 24 32
17 24 32
17 24 32
17 24 32
17 24 32
17 24 32
17 24 32
17 24 32
17 24 32
17 24 32
17 24 32
17 24 32
17 24 32
17 24 32
17 24 32
17 24 32
17 24 32
17 24 32
17 24 32
17 24 32
17 24 32
17 24 32
17 24 32
17 24 32
17 24 32
17 24 32
17 24 32
17 24 32
17 24 32
17 24 32
17 24 32
17 24 32
17 24 32
17 24 32
17 24 32
17 24 32
17 24 32
17 24 32
17 24 32
17 24 32
17 24 32
17 24 32
17 24 32
17 24 32
17 24 32
17 24 32
17 24 32
17 24 32
17 24 32
17 24 32
17 24 32
17 24 32
17 24 32
17 24 32
17 24 32
17 24 32
17 24 32
17 24 32
17 24 32
17 24 32
17 24 32
17 24 32
17 24 32
17 24 32
17 24 32
17 24 32
17 24 32
17 24 32
17 24 32
17 24 32
17 24 32
17 24 32
17 24 32
17 24 32
17 24 32
17 24 32
17 24 32
17 24 32
17 24 32
17 24 32
17 24 32
17 24 32
17 24 32
17 24 32
17 24 32
17 24 32
17 24 32
17 24 32
17 24 32
17 24 32
17 24 32
17 24 32
17 24 32
17 24 32
17 24 32
17 24 32
17 24 32
17 24 32
17 24 32
17 24 32
17 24 32
17 24 32
17 24 32
17 24 32
17 24 32
17 24 32
17 24 32
17 24 32
17 24 32
17 24 32
17 24 32
17 24 32
17 24 32
17 24 32
17 24 32
17 24 32
17 24 32
17 24 32
17 24 32
17 24 32
17 24 32
17 24 32
17 24 32
17 24 32
17 24 32
17 24 32
17 24 32
17 24 32
17 24 32
17 24 32
17 24 32
17 24 32
17 24 32
17 24 32
17 24 32
17 24 32
17 24 32
17 24 32
17 24 32
17 24 32
17 24 32
17 24 32
17 24 32
17 24 32
17 24 32
17 24 32
17 24 32
17 24 32
17 24 32
17 24 32
17 24 32
17 24 32
17 24 32
17 24 32
17 24 32
17 24 32
17 24 32
17 24 32
17 24 32
17 24 32
17 24 32
17 24 32
17 24 32
17 24 32
17 24 32
17 24 32
17 24 32
17 24 32
17 24 32
17 24 32
17 24 32
17 24 32
17 24 32
17 24 32
17 24 32
17 24 32
17 24 32
17 24 32
17 24 32
17 24 32
17 24 32
17 24 32
17 24 32
17 24 32
17 24 32
17 24 32
17 24 32
17 24 32
17 24 32
17 24 32
17 24 32
17 24 32
17 24 32
17 24 32
17 24 32
17 24 32
17 24 32
17 24 32
17 24 32
17 24 32
17 24 32
17 24 32
17 24 32
17 24 32
17 24 32
17 24 32
17 24 32
17 24 32
17 24 32
17 24 32
17 24 32
17 24 32
17 24 32
17 24 32
17 24 32
17 24 32
17 24 32
17 24 32
17 24 32
17 24 32
17 24 32
17 24 32
17 24 32
17 24 32
17 24 32
17 24 32
17 24 32
17 24 32
17 24 32
17 24 32
17 24 32
17 24 32
17 24 32
17 24 32
17 24 32
17 24 32
17 24 32
17 24 32
17 24 32
17 24 32
17 24 32
17 24 32
17 24 32
17 24 32
17 24 32
17 24 32
17 24 32
17 24 32
17 24 32
17 24 32
17 24 32
17 24 32
17 24 32
17 24 32
17 24 32
17 24 32
17 24 32
17 24 32
17 24 32
17 24 32
17 24 32
17 24 32
17 24 32
17 24 32
17 24 32
17 24 32
17 24 32
17 24 32
17 24 32
17 24 32
17 24 32
17 24 32
17 24 32
17 24 32
17 24 32
17 24 32
17 24 32
17 24 32
17 24 32
17 24 32
17 24 32
17 24 32
17 24 32
17 24 32
17 24 32
17 24 32
17 24 32
17 24 32
17 24 32
17 24 32
17 24 32
17 24 32
17 24 32
17 24 32
17 24 32
17 24 32
17 24 32
17 24 32
17 24 32
17 24 32
17 24 32
17 24 32
17 24 32
17 24 32
17 24 32
17 24 32
17 24 32
17 24 32
17 24 32
17 24 32
17 24 32
17 24 32
17 24 32
17 24 32
17 24 32
17 24 32
17 24 32
17 24 32
17 24 32
17 24 32
17 24 32
17 24 32
17 24 32
17 24 32
17 24 32
17 24 32
17 24 32
17 24 32
17 24 32
17 24 32
17 24 32
17 24 32
17 24 32
17 24 32
17 24 32
17 24 32
17 24 32
17 24 32
17 24 32
17 24 32
17 24 32
17 24 32
17 24 32
17 24 32
17 24 32
17 24 32
17 24 32
17 24 32
17 24 32
17 24 32
17 24 32
17 24 32
17 24 32
17 24 32
17 24 32
17 24 32
17 24 32
17 24 32
17 24 32
17 24 32
17 24 32
17 24 32
17 24 32
17 24 32
17 24 32
17 24 32
17 24 32
17 24 32
17 24 32
17 24 32
17 24 32
17 24 32
17 24 32
17 24 32
17 24 32
17 24 32
17 24 32
17 24 32
17 24 32
17 24 32
17 24 32
17 24 32
17 24 32
17 24 32
17 24 32
17 24 32
17 24 32
17 24 32
17 24 32
17 24 32
17 24 32
17 24 32
17 24 32
17 24 32
17 24 32
17 24 32
17 24 32
17 24 32
17 24 32
17 24 32
17 24 32
17 24 32
17 24 32
17 24 32
17 24 32
17 24 32
17 24 32
17 24 32
17 24 32
17 24 32
17 24 32
17 24 32
17 24 32
17 24 32
17 24 32
17 24 32
17 24 32
17 24 32
17 24 32
17 24 32
17 24 32
17 24 32
17 24 32
17 24 32
17 24 32
17 24 32
17 24 32
17 24 32
17 24 32
17 24 32
17 24 32
17 24 32
17 24 32
17 24 32
17 24 32
17 24 32
17 24 32
17 24 32
17 24 32
17 24 32
17 24 32
17 24 32
17 24 32
17 24 32
17 24 32
17 24 32
17 24 32
17 24 32
17 24 32
17 24 32
17 24 32
17 24 32
17 24 32
17 24 32
17 24 32
17 24 32
17 24 32
17 24 32
17 24 32
17 24 32
17 24 32
17 24 32
17 24 32
17 24 32
17 24 32
17 24 32
17 24 32
17 24 32
17 24 32
17 24 32
17 24 32
17 24 32
17 24 32
17 24 32
17 24 32
17 24 32
17 24 32
17 24 32
17 24 32
17 24 32
17 24 32
17 24 32
17 24 32
17 24 32
17 24 32
17 24 32
17 24 32
17 24 32
17 24 32
17 24 32
17 24 32
17 24 32
17 24 32
17 24 32
17 24 32
17 24 32
17 24 32
17 24 32
17 24 32
17 24 32
17 24 32
17 24 32
17 24 32
17 24 32
17 24 32
17 24 32
17 24 32
17 24 32
17 24 32
17 24 32
17 24 32
17 24 32
17 24 32
17 24 32
17 24 32
17 24 32
17 24 32
17 24 32
17 24 32
17 24 32
17 24 32
17 24 32
17 24 32
17 24 32
17 24 32
17 24 32
17 24 32
17 24 32
17 24 32
17 24 32
17 24 32
17 24 32
17 24 32
17 24 32
17 24 32
17 24 32
17 24 32
17 24 32
17 24 32
17 24 32
17 24 32
17 24 32
17 24 32
17 24 32
17 24 32
17 24 32
17 24 32
17 24 32
17 24 32
17 24 32
17 24 32
17 24 32
17 24 32
17 24 32
17 24 32
17 24 32
17 24 32
17 24 32
17 24 32
17 24 32
17 24 32
17 24 32
17 24 32
17 24 32
17 24 32
17 24 32
17 24 32
17 24 32
17 24 32
17 24 32
17 24 32
17 24 32
17 24 32
17 24 32
17 24 32
17 24 32
17 24 32
17 24 32
17 24 32
17 24 32
17 24 32
17 24 32
17 24 32
17 24 32
17 24 32
17 24 32
17 24 32
17 24 32
17 24 32
17 24 32
17 24 32
17 24 32
17 24 32
17 24 32
17 24 32
17 24 32
17 24 32
17 24 32
17 24 32
17 24 32
17 24 32
17 24 32
17 24 32
17 24 32
17 24 32
17 24 32
17 24 32
17 24 32
17 24 32
17 24 32
17 24 32
17 24 32
17 24 32
17 24 32
17 24 32
17 24 32
17 24 32
17 24 32
17 24 32
17 24 32
17 24 32
17 24 32
17 24 32
17 24 32
17 24 32
17 24 32
17 24 32
17 24 32
17 24 32
17 24 32
17 24 32
17 24 32
17 24 32
17 24 32
17 24 32
17 24 32
17 24 32
17 24 32
17 24 32
17 24 32
17 24 32
17 24 32
17 24 32
17 24 32
17 24 32
17 24 32
17 24 32
17 24 32
17 24 32
17 24 32
17 24 32
17 24 32
17 24 32
17 24 32
17 24 32
17 24 32
17 24 32
17 24 32
17 24 32
17 24 32
17 24 32
17 24 32
17 24 32
17 24 32
17 24 32
17 24 32
17 24 32
17 24 32
17 24 32
17 24 32
17 24 32
17 24 32
17 24 32
17 24 32
17 24 32
17 24 32
17 24 32
17 24 32
17 24 32
17 24 32
17 24 32
17 24 32
17 24 32
17 24 32
17 24 32
17 24 32
17 24 32
17 24 32
17 24 32
17 24 32
17 24 32
17 24 32
17 24 32
17 24 32
17 24 32
17 24 32
17 24 32
17 24 32
17 24 32
17 24 32
17 24 32
17 24 32
17 24 32
17 24 32
17 24 32
17 24 32
17 24 32
17 24 32
17 24 32
17 24 32
17 24 32
17 24 32
17 24 32
17 24 32
17 24 32
17 24 32
17 24 32
17 24 32
17 24 32
17 24 32
17 24 32
17 24 32
17 24 32
17 24 32
17 24 32
17 24 32
17 24 32
17 24 32
17 24 32
17 24 32
17 24 32
17 24 32
17 24 32
17 24 32
17 24 32
17 24 32
17 24 32
17 24 32
17 24 32
17 24 32
17 24 32
17 24 32
17 24 32
17 24 32
17 24 32
17 24 32
17 24 32
17 24 32
17 24 32
17 24 32
17 24 32
17 24 32
17 24 32
17 24 32
17 24 32
17 24 32
17 24 32
17 24 32
17 24 32
17 24 32
17 24 32
17 24 32
17 24 32
17 24 32
17 24 32
17 24 32
17 24 32
17 24 32
17 24 32
17 24 32
17 24 32
17 24 32
17 24 32
17 24 32
17 24 32
17 24 32
17 24 32
17 24 32
17 24 32
17 24 32
17 24 32
17 24 32
17 24 32
17 24 32
17 24 32
17 24 32
17 24 32
17 24 32
17 24 32
17 24 32
17 24 32
17 24 32
17 24 32
17 24 32
17 24 32
17 24 32
17 24 32
17 24 32
17 24 32
17 24 32
17 24 32
17 24 32
17 24 32
17 24 32
17 24 32
17 24 32
17 24 32
17 24 32
17 24 32
17 24 32
17 24 32
17 24 32
17 24 32
17 24 32
17 24 32
17 24 32
17 24 32
17 24 32
17 24 32
17 24 32
17 24 32
17 24 32
17 24 32
17 24 32
17 24 32
17 24 32
17 24 32
17 24 32
17 24 32
17 24 32
17 24 32
17 24 32
17 24 32
17 24 32
17 24 32
17 24 32
17 24 32
17 24 32
17 24 32
17 24 32
17 24 32
17 24 32
17 24 32
17 24 32
17 24 32
17 24 32
17 24 32
17 24 32
17 24 32
17 24 32
17 24 32
17 24 32
17 24 32
17 24 32
17 24 32
17 24 32
17 24 32
17 24 32
17 24 32
17 24 32
17 24 32
17 24 32
17 24 32
17 24 32
17 24 32
17 24 32
17 24 32
17 24 32
17 24 32
17 24 32
17 24 32
17 24 32
17 24 32
17 24 32
17 24 32
17 24 32
17 24 32
17 24 32
17 24 32
17 24 32
17 24 32
17 24 32
17 24 32
17 24 32
17 24 32
17 24 32
17 24 32
17 24 32
17 24 32
17 24 32
17 24 32
17 24 32
17 24 32
17 24 32
17 24 32
17 24 32
17 24 32
17 24 32
17 24 32
17 24 32
17 24 32
17 24 32
17 24 32
17 24 32
17 24 32
17 24 32
17 24 32
17 24 32
17 24 32
17 24 32
17 24 32
17 24 32
17 24 32
17 24 32
17 24 32
17 24 32
17 24 32
17 24 32
17 24 32
17 24 32
17 24 32
17 24 32
17 24 32
17 24 32
17 24 32
17 24 32
17 24 32
17 24 32
17 24 32
17 24 32
17 24 32
17 24 32
17 24 32
17 24 32
17 24 32
17 24 32
17 24 32
17 24 32
17 24 32
17 24 32
17 24 32
17 24 32
17 24 32
17 24 32
17 24 32
17 24 32
17 24 32
17 24 32
17 24 32
17 24 32
17 24 32
17 24 32
17 24 32
17 24 32
17 24 32
17 24 32
17 24 32
17 24 32
17 24 32
17 24 32
17 24 32
17 24 32
17 24 32
17 24 32
17 24 32
17 24 32
17 24 32
17 24 32
17 24 32
17 24 32
17 24 32
17 24 32
17 24 32
17 24 32
17 24 32
17 24 32
17 24 32
17 24 32
17 24 32
17 24 32
17 24 32
17 24 32
17 24 32
17 24 32
17 24 32
17 24 32
17 24 32
17 24 32
17 24 32
17 24 32
17 24 32
17 24 32
17 24 32
17 24 32
17 24 32
17 24 32
17 24 32
17 24 32
17 24 32
17 24 32
17 24 32
17 24 32
17 24 32
17 24 32
17 24 32
17 24 32
17 24 32
17 24 32
17 24 32
17 24 32
17 24 32
17 24 32
17 24 32
17 24 32
17 24 32
17 24 32
17 24 32
17 24 32
17 24 32
17 24 32
17 24 32
17 24 32
17 24 32
17 24 32
17 24 32
17 24 32
17 24 32
17 24 32
17 24 32
17 24 32
17 24 32
17 24 32
17 24 32
17 24 32
17 24 32
17 24 32
17 24 32
17 24 32
17 24 32
17 24 32
17 24 32
17 24 32
17 24 32
17 24 32
17 24 32
17 24 32
17 24 32
17 24 32
17 24 32
17 24 32
17 24 32
17 24 32
17 24 32
17 24 32
17 24 32
17 24 32
17 24 32
17 24 32
17 24 32
17 24 32
17 24 32
17 24 32
17 24 32
17 24 32
17 24 32
17 24 32
17 24 32
17 24 32
17 24 32
17 24 32
17 24 32
17 24 32
17 24 32
17 24 32
17 24 32
17 24 32
17 24 32
17 24 32
17 24 32
17 24 32
17 24 32
17 24 32
17 24 32
17 24 32
17 24 32
17 24 32
17 24 32
17 24 32
17 24 32
17 24 32
17 24 32
17 24 32
17 24 32
17 24 32
17 24 32
17 24 32
17 24 32
17 24 32
17 24 32
17 24 32
17 24 32
17 24 32
17 24 32
17 24 32
17 24 32
17 24 32
17 24 32
17 24 32
17 24 32
17 24 32
17 24 32
17 24 32
17 24 32
17 24 32
17 24 32
17 24 32
17 24 32
17 24 32
17 24 32
17 24 32
17 24 32
17 24 32
17 24 32
17 24 32
17 24 32
17 24 32
17 24 32
17 24 32
17 24 32
17 24 32
17 24 32
17 24 32
17 24 32
17 24 32
17 24 32
17 24 32
17 24 32
17 24 32
17 24 32
17 24 32
17 24 32
17 24 32
17 24 32
17 24 32
17 24 32
17 24 32
17 24 32
17 24 32
17 24 32
17 24 32
17 24 32
17 24 32
17 24 32
17 24 32
17 24 32
17 24 32
17 24 32
17 24 32
17 24 32
17 24 32
17 24 32
17 24 32
17 24 32
17 24 32
17 24 32
17 24 32
17 24 32
17 24 32
17 24 32
17 24 32
17 24 32
17 24 32
17 24 32
17 24 32
17 24 32
17 24 32
17 24 32
17 24 32
17 24 32
17 24 32
17 24 32
17 24 32
17 24 32
17 24 32
17 24 32
17 24 32
17 24 32
17 24 32
17 24 32
17 24 32
17 24 32
17 24 32
17 24 32
17 24 32
17 24 32
17 24 32
17 24 32
17 24 32
17 24 32
17 24 32
17 24 32
17 24 32
17 24 32
17 24 32
17 24 32
17 24 32
17 24 32
17 24 32
17 24 32
17 24 32
17 24 32
17 24 32
17 24 32
17 24 32
17 24 32
17 24 32
17 24 32
17 24 32
17 24 32
17 24 32
17 24 32
17 24 32
17 24 32
17 24 32
17 24 32
17 24 32
17 24 32
17 24 32
17 24 32
17 24 32
17 24 32
17 24 32
17 24 32
17 24 32
17 24 32
17 24 32
17 24 32
17 24 32
17 24 32
17 24 32
17 24 32
17 24 32
17 24 32
17 24 32
17 24 32
17 24 32
17 24 32
17 24 32
17 24 32
17 24 32
17 24 32
17 24 32
17 24 32
17 24 32
17 24 32
17 24 32
17 24 32
17 24 32
17 24 32
17 24 32
17 24 32
17 24 32
17 24 32
17 24 32
17 24 32
17 24 32
17 24 32
17 24 32
17 24 32
17 24 32
17 24 32
17 24 32
17 24 32
17 24 32
17 24 32
17 24 32
17 24 32
17 24 32
17 24 32
17 24 32
17 24 32
17 24 32
17 24 32
17 24 32
17 24 32
17 24 32
17 24 32
17 24 32
17 24 32
17 24 32
17 24 32
17 24 32
17 24 32
17 24 32
17 24 32
17 24 32
17 24 32
17 24 32
17 24 32
17 24 32
17 24 32
17 24 32
17 24 32
17 24 32
17 24 32
17 24 32
17 24 32
17 24 32
17 24 32
17 24 32
17 24 32
17 24 32
17 24 32
17 24 32
17 24 32
17 24 32
17 24 32
17 24 32
17 24 32
17 24 32
17 24 32
17 24 32
17 24 32
17 24 32
17 24 32
17 24 32
17 24 32
17 24 32
17 24 32
17 24 32
17 24 32
17 24 32
17 24 32
17 24 32
17 24 32
17 24 32
17 24 32
17 24 32
17 24 32
17 24 32
17 24 32
17 24 32
17 24 32
17 24 32
17 24 32
17 24 32
17 24 32
17 24 32
17 24 32
17 24 32
17 24 32
17 24 32
17 24 32
17 24 32
17 24 32
17 24 32
17 24 32
17 24 32
17 24 32
17 24 32
17 24 32
17 24 32
17 24 32
17 24 32
17 24 32
17 24 32
17 24 32
17 24 32
17 24 32
17 24 32
17 24 32
17 24 32
17 24 32
17 24 32
17 24 32
17 24 32
17 24 32
17 24 32
17 24 32
17 24 32
17 24 32
17 24 32
17 24 32
17 24 32
17 24 32
17 24 32
17 24 32
17 24 32
17 24 32
17 24 32
17 24 32
17 24 32
17 24 32
17 24 32
17 24 32
17 24 32
17 24 32
17 24 32
17 24 32
17 24 32
17 24 32
17 24 32
17 24 32
17 24 32
17 24 32
17 24 32
17 24 32
17 24 32
17 24 32
17 24 32
17 24 32
17 24 32
17 24 32
17 24 32
17 24 32
17 24 32
17 24 32
17 24 32
17 24 32
17 24 32
17 24 32
17 24 32
17 24 32
17 24 32
17 24 32
17 24 32
17 24 32
17 24 32
17 24 32
17 24 32
17 24 32
17 24 32
17 24 32
17 24 32
17 24 32
17 24 32
17 24 32
17 24 32
17 24 32
17 24 32
17 24 32
17 24 32
17 24 32
17 24 32
17 24 32
17 24 32
17 24 32
17 24 32
17 24 32
17 24 32
17 24 32
17 24 32
17 24 32
17 24 32
17 24 32
17 24 32
17 24 32
17 24 32
17 24 32
17 24 32
17 24 32
17 24 32
17 24 32
17 24 32
17 24 32
17 24 32
17 24 32
17 24 32
17 24 32
17 24 32
17 24 32
17 24 32
17 24 32
17 24 32
17 24 32
17 24 32
17 24 32
17 24 32
17 24 32
17 24 32
17 24 32
17 24 32
17 24 32
17 24 32
17 24 32
17 24 32
17 24 32
17 24 32
17 24 32
17 24 32
17 24 32
17 24 32
17 24 32
17 24 32
17 24 32
17 24 32
17 24 32
17 24 32
17 24 32
17 24 32
17 24 32
17 24 32
17 24 32
17 24 32
17 24 32
17 24 32
17 24 32
17 24 32
17 24 32
17 24 32
17 24 32
17 24 32
17 24 32
17 24 32
17 24 32
17 24 32
17 24 32
17 24 32
17 24 32
17 24 32
17 24 32
17 24 32
17 24 32
17 24 32
17 24 32
17 24 32
17 24 32
17 24 32
17 24 32
17 24 32
17 24 32
17 24 32
17 24 32
17 24 32
17 24 32
17 24 32
17 24 32
17 24 32
17 24 32
17 24 32
17 24 32
17 24 32
17 24 32
17 24 32
17 24 32
17 24 32
17 24 32
17 24 32
17 24 32
17 24 32
17 24 32
17 24 32
17 24 32
17 24 32
17 24 32
17 24 32
17 24 32
17 24 32
17 24 32
17 24 32
17 24 32
17 24 32
17 24 32
17 24 32
17 24 32
17 24 32
17 24 32
17 24 32
17 24 32
17 24 32
17 24 32
17 24 32
17 24 32
17 24 32
17 24 32
17 24 32
17 24 32
17 24 32
17 24 32
17 24 32
17 24 32
17 24 32
17 24 32
17 24 32
17 24 32
17 24 32
17 24 32
17 24 32
17 24 32
17 24 32
17 24 32
17 24 32
17 24 32
17 24 32
17 24 32
17 24 32
17 24 32
17 24 32
17 24 32
17 24 32
17 24 32
17 24 32
17 24 32
17 24 32
17 24 32
17 24 32
17 24 32
17 24 32
17 24 32
17 24 32
17 24 32
17 24 32
17 24 32
17 24 32
17 24 32
17 24 32
17 24 32
17 24 32
17 24 32
17 24 32
17 24 32
17 24 32
17 24 32
17 24 32
17 24 32
17 24 32
17 24 32
17 24 32
17 24 32
17 24 32
17 24 32
17 24 32
17 24 32
17 24 32
17 24 32
17 24 32
17 24 32
17 24 32
17 24 32
17 24 32
17 24 32
17 24 32
17 24 32
17 24 32
17 24 32
17 24 32
17 24 32
17 24 32
17 24 32
17 24 32
17 24 32
17 24 32
17 24 32
17 24 32
17 24 32
17 24 32
17 24 32
17 24 32
17 24 32
17 24 32
17 24 32
17 24 32
17 24 32
17 24 32
17 24 32
17 24 32
17 24 32
17 24 32
17 24 32
17 24 32
17 24 32
17 24 32
17 24 32
17 24 32
17 24 32
17 24 32
17 24 32
17 24 32
17 24 32
17 24 32
17 24 32
17 24 32
17 24 32
17 24 32
17 24 32
17 24 32
17 24 32
17 24 32
17 24 32
17 24 32
17 24 32
17 24 32
17 24 32
17 24 32
17 24 32
17 24 32
17 24 32
17 24 32
17 24 32
17 24 32
17 24 32
17 24 32
17 24 32
17 24 32
17 24 32
17 24 32
17 24 32
17 24 32
17 24 32
17 24 32
17 24 32
17 24 32
17 24 32
17 24 32
17 24 32
17 24 32
17 24 32
17 24 32
17 24 32
17 24 32
17 24 32
17 24 32
17 24 32
17 24 32
17 24 32
17 24 32
17 24 32
17 24 32
17 24 32
17 24 32
17 24 32
17 24 32
17 24 32
17 24 32
17 24 32
17 24 32
17 24 32
17 24 32
17 24 32
17 24 32
17 24 32
17 24 32
17 24 32
17 24 32
17 24 32
17 24 32
17 24 32
17 24 32
17 24 32
17 24 32
17 24 32
17 24 32
17 24 32
17 24 32
17 24 32
17 24 32
17 24 32
17 24 32
17 24 32
17 24 32
17 24 32
17 24 32
17 24 32
17 24 32
17 24 32
17 24 32
17 24 32
17 24 32
17 24 32
17 24 32
17 24 32
17 24 32
17 24 32
17 24 32
17 24 32
17 24 32
17 24 32
17 24 32
17 24 32
17 24 32
17 24 32
17 24 32
17 24 32
17 24 32
17 24 32
17 24 32
17 24 32
17 24 32
17 24 32
17 24 32
17 24 32
17 24 32
17 24 32
17 24 32
17 24 32
17 24 32
17 24 32
17 24 32
17 24 32
17 24 32
17 24 32
17 24 32
17 24 32
17 24 32
17 24 32
17 24 32
17 24 32
17 24 32
17 24 32
17 24 32
17 24 32
17 24 32
17 24 32
17 24 32
17 24 32
17 24 32
17 24 32
17 24 32
17 24 32
17 24 32
17 24 32
17 24 32
17 24 32
17 24 32
17 24 32
17 24 32
17 24 32
17 24 32
17 24 32
17 24 32
17 24 32
17 24 32
17 24 32
17 24 32
17 24 32
17 24 32
17 24 32
17 24 32
17 24 32
17 24 32
17 24 32
17 24 32
17 24 32
17 24 32
17 24 32
17 24 32
17 24 32
17 24 32
17 24 32
17 24 32
17 24 32
17 24 32
17 24 32
17 24 32
17 24 32
17 24 32
17 24 32
17 24 32
17 24 32
17 24 32
17 24 32
17 24 32
17 24 32
17 24 32
17 24 32
17 24 32
17 24 32
17 24 32
17 24 32
17 24 32
17 24 32
17 24 32
17 24 32
17 24 32
17 24 32
17 24 32
17 24 32
17 24 32
17 24 32
17 24 32
17 24 32
17 24 32
17 24 32
17 24 32
17 24 32
17 24 32
17 24 32
17 24 32
17 24 32
17 24 32
17 24 32
17 24 32
17 24 32
17 24 32
17 24 32
17 24 32
17 24 32
17 24 32
17 24 32
17 24 32
17 24 32
17 24 32
17 24 32
17 24 32
17 24 32
17 24 32
17 24 32
17 24 32
17 24 32
17 24 32
17 24 32
17 24 32
17 24 32
17 24 32
17 24 32
17 24 32
17 24 32
17 24 32
17 24 32
17 24 32
17 24 32
17 24 32
17 24 32
17 24 32
17 24 32
17 24 32
17 24 32
17 24 32
17 24 32
17 24 32
17 24 32
17 24 32
17 24 32
17 24 32
17 24 32
17 24 32
17 24 32
17 24 32
17 24 32
17 24 32
17 24 32
17 24 32
17 24 32
17 24 32
17 24 32
17 24 32
17 24 32
17 24 32
17 24 32
17 24 32
17 24 32
17 24 32
17 24 32
17 24 32
17 24 32
17 24 32
17 24 32
17 24 32
17 24 32
17 24 32
17 24 32
17 24 32
17 24 32
17 24 32
17 24 32
17 24 32
17 24 32
17 24 32
17 24 32
17 24 32
17 24 32
17 24 32
17 24 32
17 24 32
17 24 32
17 24 32
17 24 32
17 24 32
17 24 32
17 24 32
17 24 32
17 24 32
17 24 32
17 24 32
17 24 32
17 24 32
17 24 32
17 24 32
17 24 32
17 24 32
17 24 32
17 24 32
17 24 32
17 24 32
17 24 32
17 24 32
17 24 32
17 24 32
17 24 32
17 24 32
17 24 32
17 24 32
17 24 32
17 24 32
17 24 32
17 24 32
17 24 32
17 24 32
17 24 32
17 24 32
17 24 32
17 24 32
17 24 32
17 24 32
17 24 32
17 24 32
17 24 32
17 24 32
17 24 32
17 24 32
17 24 32
17 24 32
17 24 32
17 24 32
17 24 32
17 24 32
17 24 32
17 24 32
17 24 32
17 24 32
17 24 32
17 24 32
17 24 32
17 24 32
17 24 32
17 24 32
17 24 32
17 24 32
17 24 32
17 24 32
17 24 32
17 24 32
17 24 32
17 24 32
17 24 32
17 24 32
17 24 32
17 24 32
17 24 32
17 24 32
17 24 32
17 24 32
17 24 32
17 24 32
17 24 32
17 24 32
17 24 32
17 24 32
17 24 32
17 24 32
17 24 32
17 24 32
17 24 32
17 24 32
17 24 32
17 24 32
17 24 32
17 24 32
17 24 32
17 24 32
17 24 32
17 24 32
17 24 32
17 24 32
17 24 32
17 24 32
17 24 32
17 24 32
17 24 32
17 24 32
17 24 32
17 24 32
17 24 32
17 24 32
17 24 32
17 24 32
17 24 32
17 24 32
17 24 32
17 24 32
17 24 32
17 24 32
17 24 32
17 24 32
17 24 32
17 24 32
17 24 32
17 24 32
17 24 32
17 24 32
17 24 32
17 24 32
17 24 32
17 24 32
17 24 32
17 24 32
17 24 32
17 24 32
17 24 32
17 24 32
17 24 32
17 24 32
17 24 32
17 24 32
17 24 32
17 24 32
17 24 32
17 24 32
17 24 32
17 24 32
17 24 32
17 24 32
17 24 32
17 24 32
17 24 32
17 24 32
17 24 32
17 24 32
17 24 32
17 24 32
17 24 32
17 24 32
17 24 32
17 24 32
17 24 32
17 24 32
17 24 32
17 24 32
17 24 32
17 24 32
17 24 32
17 24 32
17 24 32
17 24 32
17 24 32
17 24 32
17 24 32
17 24 32
17 24 32
17 24 32
17 24 32
17 24 32
17 24 32
17 24 32
17 24 32
17 24 32
17 24 32
17 24 32
17 24 32
17 24 32
17 24 32
17 24 32
17 24 32
17 24 32
17 24 32
17 24 32
17 24 32
17 24 32
17 24 32
17 24 32
17 24 32
17 24 32
17 24 32
17 24 32
17 24 32
17 24 32
17 24 32
17 24 32
17 24 32
17 24 32
17 24 32
17 24 32
17 24 32
17 24 32
17 24 32
17 24 32
17 24 32
17 24 32
17 24 32
17 24 32
17 24 32
17 24 32
17 24 32
17 24 32
17 24 32
17 24 32
17 24 32
17 24 32
17 24 32
17 24 32
17 24 32
17 24 32
17 24 32
17 24 32
17 24 32
17 24 32
17 24 32
17 24 32
17 24 32
17 24 32
17 24 32
17 24 32
17 24 32
17 24 32
17 24 32
17 24 32
17 24 32
17 24 32
17 24 32
17 24 32
17 24 32
17 24 32
17 24 32
17 24 32
17 24 32
17 24 32
17 24 32
17 24 32
17 24 32
17 24 32
17 24 32
17 24 32
17 24 32
17 24 32
17 24 32
17 24 32
17 24 32
17 24 32
17 24 32
17 24 32
17 24 32
17 24 32
17 24 32
17 24 32
17 24 32
17 24 32
17 24 32
17 24 32
17 24 32
17 24 32
17 24 32
17 24 32
17 24 32
17 24 32
17 24 32
17 24 32
17 24 32
17 24 32
17 24 32
17 24 32
17 24 32
17 24 32
17 24 32
17 24 32
17 24 32
17 24 32
17 24 32
17 24 32
17 24 32
17 24 32
17 24 32
17 24 32
17 24 32
17 24 32
17 24 32
17 24 32
17 24 32
17 24 32
17 24 32
17 24 32
17 24 32
17 24 32
17 24 32
17 24 32
17 24 32
17 24 32
17 24 32
17 24 32
17 24 32
17 24 32
17 24 32
17 24 32
17 24 32
17 24 32
17 24 32
17 24 32
17 24 32
17 24 32
17 24 32
17 24 32
17 24 32
17 24 32
17 24 32
17 24 32
17 24 32
17 24 32
17 24 32
17 24 32
17 24 32
17 24 32
17 24 32
17 24 32
17 24 32
17 24 32
